; --- GRBL G-CODE GENERATED FROM SVG ---
G21 ; Đơn vị mm
G90 ; Tọa độ tuyệt đối
G92 X0 Y0 Z0 ; Đặt vị trí hiện tại của đầu CNC làm gốc tọa độ (0,0,0)
M3 S10000 ; Bật Spindle / Lazer
G0 Z5.00 ; Nhấc dao lên độ cao an toàn
G0 F1500 ; Tốc độ di chuyển không tải
G0 X0.000 Y0.000
G1 Z-1.000 F1000
G1 X-0.123 Y0.469
G1 X-0.213 Y1.143
G1 X-0.272 Y2.009
G1 X-0.299 Y3.054
G1 X-0.297 Y4.268
G1 X-0.266 Y5.638
G1 X-0.207 Y7.152
G1 X-0.121 Y8.797
G1 X-0.009 Y10.562
G1 X0.129 Y12.434
G1 X0.290 Y14.401
G1 X0.475 Y16.452
G1 X0.682 Y18.574
G1 X0.911 Y20.755
G1 X1.160 Y22.982
G1 X1.429 Y25.245
G1 X1.716 Y27.530
G1 X2.021 Y29.826
G1 X2.343 Y32.120
G1 X2.680 Y34.400
G1 X2.849 Y35.518
G1 X3.018 Y36.641
G1 X3.187 Y37.763
G1 X3.355 Y38.880
G1 X3.522 Y39.988
G1 X3.686 Y41.081
G1 X3.848 Y42.154
G1 X4.006 Y43.205
G1 X4.159 Y44.226
G1 X4.307 Y45.215
G1 X4.450 Y46.166
G1 X4.586 Y47.074
G1 X4.714 Y47.935
G1 X4.835 Y48.745
G1 X4.947 Y49.498
G1 X5.049 Y50.189
G1 X5.142 Y50.815
G1 X5.223 Y51.370
G1 X5.293 Y51.850
G1 X5.350 Y52.250
G1 X5.980 Y56.600
G1 X-1.760 Y52.500
G1 X-3.059 Y51.825
G1 X-4.295 Y51.211
G1 X-5.468 Y50.658
G1 X-6.576 Y50.165
G1 X-7.621 Y49.734
G1 X-8.601 Y49.363
G1 X-9.515 Y49.053
G1 X-10.365 Y48.804
G1 X-11.149 Y48.617
G1 X-11.866 Y48.490
G1 X-12.517 Y48.425
G1 X-13.101 Y48.420
G1 X-13.618 Y48.478
G1 X-14.067 Y48.596
G1 X-14.449 Y48.776
G1 X-14.761 Y49.018
G1 X-15.005 Y49.321
G1 X-15.180 Y49.686
G1 X-15.285 Y50.112
G1 X-15.320 Y50.600
G1 X-15.277 Y50.983
G1 X-15.147 Y51.417
G1 X-14.931 Y51.904
G1 X-14.628 Y52.443
G1 X-14.238 Y53.034
G1 X-13.761 Y53.678
G1 X-13.196 Y54.375
G1 X-12.544 Y55.124
G1 X-11.804 Y55.927
G1 X-10.976 Y56.784
G1 X-10.060 Y57.694
G1 X-9.056 Y58.658
G1 X-7.963 Y59.675
G1 X-6.782 Y60.747
G1 X-5.511 Y61.874
G1 X-4.152 Y63.055
G1 X-2.703 Y64.291
G1 X-1.165 Y65.582
G1 X0.462 Y66.928
G1 X2.180 Y68.330
G1 X9.170 Y74.010
G1 X11.380 Y85.950
G1 X11.822 Y88.337
G1 X12.217 Y90.476
G1 X12.562 Y92.377
G1 X12.856 Y94.050
G1 X13.097 Y95.504
G1 X13.282 Y96.749
G1 X13.410 Y97.795
G1 X13.478 Y98.651
G1 X13.485 Y99.328
G1 X13.429 Y99.834
G1 X13.307 Y100.179
G1 X13.117 Y100.374
G1 X12.858 Y100.427
G1 X12.528 Y100.349
G1 X12.124 Y100.149
G1 X11.644 Y99.837
G1 X11.087 Y99.422
G1 X10.450 Y98.915
G1 X9.732 Y98.324
G1 X8.930 Y97.660
G1 X6.282 Y95.526
G1 X3.707 Y93.550
G1 X1.204 Y91.734
G1 X-1.226 Y90.078
G1 X-3.582 Y88.581
G1 X-5.863 Y87.245
G1 X-8.070 Y86.068
G1 X-10.202 Y85.052
G1 X-12.257 Y84.196
G1 X-14.236 Y83.501
G1 X-16.138 Y82.967
G1 X-17.963 Y82.594
G1 X-19.709 Y82.382
G1 X-21.377 Y82.332
G1 X-22.965 Y82.443
G1 X-24.474 Y82.716
G1 X-25.902 Y83.151
G1 X-27.250 Y83.748
G1 X-28.516 Y84.508
G1 X-29.700 Y85.430
G1 X-30.309 Y85.995
G1 X-30.890 Y86.599
G1 X-31.443 Y87.241
G1 X-31.970 Y87.924
G1 X-32.469 Y88.647
G1 X-32.942 Y89.412
G1 X-33.389 Y90.219
G1 X-33.810 Y91.069
G1 X-34.204 Y91.962
G1 X-34.574 Y92.900
G1 X-34.918 Y93.883
G1 X-35.237 Y94.911
G1 X-35.531 Y95.986
G1 X-35.801 Y97.108
G1 X-36.046 Y98.277
G1 X-36.268 Y99.496
G1 X-36.466 Y100.764
G1 X-36.640 Y102.081
G1 X-36.792 Y103.450
G1 X-36.920 Y104.870
G1 X-37.027 Y106.161
G1 X-37.133 Y107.347
G1 X-37.237 Y108.429
G1 X-37.341 Y109.410
G1 X-37.445 Y110.291
G1 X-37.550 Y111.073
G1 X-37.655 Y111.759
G1 X-37.763 Y112.350
G1 X-37.873 Y112.848
G1 X-37.985 Y113.255
G1 X-38.101 Y113.572
G1 X-38.220 Y113.801
G1 X-38.344 Y113.944
G1 X-38.473 Y114.002
G1 X-38.607 Y113.977
G1 X-38.748 Y113.871
G1 X-38.895 Y113.686
G1 X-39.049 Y113.423
G1 X-39.210 Y113.083
G1 X-39.380 Y112.670
G1 X-39.461 Y112.474
G1 X-39.547 Y112.288
G1 X-39.639 Y112.113
G1 X-39.735 Y111.948
G1 X-39.836 Y111.794
G1 X-39.941 Y111.651
G1 X-40.049 Y111.520
G1 X-40.161 Y111.401
G1 X-40.276 Y111.293
G1 X-40.394 Y111.197
G1 X-40.514 Y111.115
G1 X-40.636 Y111.044
G1 X-40.759 Y110.987
G1 X-40.884 Y110.943
G1 X-41.010 Y110.912
G1 X-41.136 Y110.895
G1 X-41.263 Y110.892
G1 X-41.389 Y110.904
G1 X-41.515 Y110.929
G1 X-41.640 Y110.970
G1 X-41.800 Y110.988
G1 X-42.007 Y110.939
G1 X-42.260 Y110.822
G1 X-42.559 Y110.638
G1 X-42.904 Y110.387
G1 X-43.294 Y110.070
G1 X-43.728 Y109.688
G1 X-44.207 Y109.240
G1 X-44.729 Y108.728
G1 X-45.295 Y108.151
G1 X-45.904 Y107.511
G1 X-46.555 Y106.807
G1 X-47.248 Y106.040
G1 X-47.983 Y105.211
G1 X-48.758 Y104.320
G1 X-49.575 Y103.367
G1 X-50.432 Y102.353
G1 X-51.329 Y101.279
G1 X-52.265 Y100.144
G1 X-53.240 Y98.950
G1 X-54.636 Y97.240
G1 X-55.928 Y95.673
G1 X-57.121 Y94.245
G1 X-58.220 Y92.953
G1 X-59.230 Y91.793
G1 X-60.155 Y90.760
G1 X-61.000 Y89.850
G1 X-61.770 Y89.061
G1 X-62.469 Y88.386
G1 X-63.103 Y87.824
G1 X-63.675 Y87.369
G1 X-64.191 Y87.017
G1 X-64.656 Y86.766
G1 X-65.074 Y86.610
G1 X-65.449 Y86.545
G1 X-65.787 Y86.569
G1 X-66.093 Y86.676
G1 X-66.370 Y86.863
G1 X-66.624 Y87.126
G1 X-66.860 Y87.460
G1 X-66.931 Y87.535
G1 X-67.030 Y87.576
G1 X-67.156 Y87.584
G1 X-67.307 Y87.560
G1 X-67.483 Y87.506
G1 X-67.683 Y87.421
G1 X-67.905 Y87.306
G1 X-68.148 Y87.162
G1 X-68.412 Y86.990
G1 X-68.695 Y86.791
G1 X-68.996 Y86.565
G1 X-69.315 Y86.314
G1 X-69.650 Y86.037
G1 X-70.000 Y85.736
G1 X-70.364 Y85.411
G1 X-70.742 Y85.064
G1 X-71.131 Y84.694
G1 X-71.531 Y84.303
G1 X-71.941 Y83.891
G1 X-72.360 Y83.460
G1 X-72.911 Y82.890
G1 X-73.433 Y82.361
G1 X-73.930 Y81.872
G1 X-74.402 Y81.421
G1 X-74.852 Y81.007
G1 X-75.282 Y80.629
G1 X-75.693 Y80.286
G1 X-76.089 Y79.977
G1 X-76.470 Y79.699
G1 X-76.839 Y79.452
G1 X-77.197 Y79.235
G1 X-77.548 Y79.046
G1 X-77.892 Y78.884
G1 X-78.231 Y78.748
G1 X-78.569 Y78.637
G1 X-78.906 Y78.548
G1 X-79.244 Y78.481
G1 X-79.587 Y78.435
G1 X-79.934 Y78.409
G1 X-80.290 Y78.400
G1 X-80.986 Y78.425
G1 X-81.621 Y78.504
G1 X-82.197 Y78.640
G1 X-82.715 Y78.839
G1 X-83.176 Y79.104
G1 X-83.581 Y79.440
G1 X-83.931 Y79.852
G1 X-84.227 Y80.343
G1 X-84.469 Y80.918
G1 X-84.660 Y81.581
G1 X-84.800 Y82.337
G1 X-84.889 Y83.191
G1 X-84.930 Y84.146
G1 X-84.923 Y85.207
G1 X-84.869 Y86.378
G1 X-84.769 Y87.663
G1 X-84.624 Y89.068
G1 X-84.435 Y90.596
G1 X-84.203 Y92.252
G1 X-83.930 Y94.040
G1 X-83.665 Y95.727
G1 X-83.426 Y97.299
G1 X-83.211 Y98.758
G1 X-83.021 Y100.107
G1 X-82.857 Y101.351
G1 X-82.717 Y102.491
G1 X-82.601 Y103.531
G1 X-82.510 Y104.475
G1 X-82.444 Y105.325
G1 X-82.401 Y106.085
G1 X-82.383 Y106.757
G1 X-82.388 Y107.346
G1 X-82.418 Y107.853
G1 X-82.471 Y108.282
G1 X-82.548 Y108.637
G1 X-82.648 Y108.920
G1 X-82.771 Y109.135
G1 X-82.918 Y109.284
G1 X-83.087 Y109.372
G1 X-83.280 Y109.400
G1 X-83.526 Y109.298
G1 X-83.870 Y108.994
G1 X-84.308 Y108.496
G1 X-84.838 Y107.807
G1 X-85.455 Y106.935
G1 X-86.156 Y105.884
G1 X-86.939 Y104.660
G1 X-87.799 Y103.268
G1 X-88.735 Y101.715
G1 X-89.741 Y100.006
G1 X-90.816 Y98.147
G1 X-91.956 Y96.142
G1 X-93.157 Y93.998
G1 X-94.417 Y91.720
G1 X-95.732 Y89.315
G1 X-97.099 Y86.786
G1 X-98.515 Y84.141
G1 X-99.975 Y81.385
G1 X-101.478 Y78.522
G1 X-103.020 Y75.560
G1 X-104.586 Y72.542
G1 X-106.010 Y69.807
G1 X-107.302 Y67.343
G1 X-108.471 Y65.135
G1 X-109.526 Y63.171
G1 X-110.478 Y61.436
G1 X-111.335 Y59.916
G1 X-112.106 Y58.599
G1 X-112.801 Y57.470
G1 X-113.430 Y56.516
G1 X-114.001 Y55.723
G1 X-114.525 Y55.078
G1 X-115.010 Y54.567
G1 X-115.465 Y54.176
G1 X-115.901 Y53.891
G1 X-116.327 Y53.700
G1 X-116.751 Y53.587
G1 X-117.183 Y53.541
G1 X-117.633 Y53.546
G1 X-118.110 Y53.590
G1 X-118.386 Y53.629
G1 X-118.648 Y53.679
G1 X-118.897 Y53.740
G1 X-119.132 Y53.811
G1 X-119.355 Y53.895
G1 X-119.565 Y53.991
G1 X-119.764 Y54.099
G1 X-119.952 Y54.221
G1 X-120.129 Y54.356
G1 X-120.296 Y54.506
G1 X-120.454 Y54.671
G1 X-120.603 Y54.851
G1 X-120.743 Y55.046
G1 X-120.875 Y55.258
G1 X-121.000 Y55.487
G1 X-121.118 Y55.733
G1 X-121.229 Y55.997
G1 X-121.335 Y56.279
G1 X-121.435 Y56.580
G1 X-121.530 Y56.900
G1 X-121.648 Y57.484
G1 X-121.734 Y58.273
G1 X-121.789 Y59.254
G1 X-121.813 Y60.411
G1 X-121.807 Y61.730
G1 X-121.774 Y63.199
G1 X-121.713 Y64.801
G1 X-121.626 Y66.524
G1 X-121.514 Y68.354
G1 X-121.377 Y70.275
G1 X-121.218 Y72.274
G1 X-121.038 Y74.338
G1 X-120.836 Y76.451
G1 X-120.614 Y78.599
G1 X-120.374 Y80.770
G1 X-120.116 Y82.947
G1 X-119.842 Y85.118
G1 X-119.552 Y87.269
G1 X-119.248 Y89.384
G1 X-118.930 Y91.450
G1 X-118.828 Y92.099
G1 X-118.732 Y92.735
G1 X-118.643 Y93.354
G1 X-118.560 Y93.955
G1 X-118.483 Y94.536
G1 X-118.414 Y95.094
G1 X-118.351 Y95.629
G1 X-118.296 Y96.136
G1 X-118.248 Y96.615
G1 X-118.207 Y97.064
G1 X-118.175 Y97.479
G1 X-118.150 Y97.860
G1 X-118.132 Y98.204
G1 X-118.123 Y98.509
G1 X-118.123 Y98.772
G1 X-118.131 Y98.993
G1 X-118.147 Y99.168
G1 X-118.172 Y99.295
G1 X-118.207 Y99.373
G1 X-118.250 Y99.400
G1 X-118.318 Y99.382
G1 X-118.423 Y99.331
G1 X-118.566 Y99.246
G1 X-118.743 Y99.130
G1 X-118.952 Y98.985
G1 X-119.193 Y98.810
G1 X-119.464 Y98.608
G1 X-119.762 Y98.381
G1 X-120.086 Y98.129
G1 X-120.434 Y97.854
G1 X-120.804 Y97.557
G1 X-121.196 Y97.240
G1 X-121.606 Y96.904
G1 X-122.033 Y96.551
G1 X-122.476 Y96.181
G1 X-122.932 Y95.797
G1 X-123.401 Y95.399
G1 X-123.879 Y94.990
G1 X-124.366 Y94.569
G1 X-124.860 Y94.140
G1 X-126.976 Y92.323
G1 X-129.054 Y90.594
G1 X-131.094 Y88.955
G1 X-133.094 Y87.406
G1 X-135.055 Y85.946
G1 X-136.976 Y84.577
G1 X-138.856 Y83.298
G1 X-140.693 Y82.111
G1 X-142.489 Y81.014
G1 X-144.241 Y80.010
G1 X-145.950 Y79.098
G1 X-147.614 Y78.278
G1 X-149.233 Y77.551
G1 X-150.807 Y76.917
G1 X-152.334 Y76.376
G1 X-153.814 Y75.930
G1 X-155.246 Y75.578
G1 X-156.630 Y75.320
G1 X-157.965 Y75.157
G1 X-159.250 Y75.090
G1 X-164.080 Y75.020
G1 X-168.950 Y64.960
G1 X-169.555 Y63.716
G1 X-170.116 Y62.576
G1 X-170.636 Y61.537
G1 X-171.118 Y60.592
G1 X-171.564 Y59.739
G1 X-171.980 Y58.972
G1 X-172.366 Y58.288
G1 X-172.728 Y57.682
G1 X-173.067 Y57.150
G1 X-173.388 Y56.686
G1 X-173.692 Y56.288
G1 X-173.984 Y55.950
G1 X-174.267 Y55.668
G1 X-174.543 Y55.438
G1 X-174.817 Y55.255
G1 X-175.090 Y55.116
G1 X-175.367 Y55.015
G1 X-175.651 Y54.948
G1 X-175.944 Y54.911
G1 X-176.250 Y54.900
G1 X-176.647 Y54.925
G1 X-177.024 Y54.999
G1 X-177.382 Y55.121
G1 X-177.718 Y55.290
G1 X-178.034 Y55.503
G1 X-178.327 Y55.760
G1 X-178.599 Y56.059
G1 X-178.847 Y56.399
G1 X-179.071 Y56.778
G1 X-179.271 Y57.195
G1 X-179.447 Y57.649
G1 X-179.597 Y58.138
G1 X-179.720 Y58.661
G1 X-179.818 Y59.216
G1 X-179.888 Y59.802
G1 X-179.930 Y60.418
G1 X-179.944 Y61.062
G1 X-179.929 Y61.733
G1 X-179.885 Y62.430
G1 X-179.810 Y63.150
G1 X-179.780 Y63.403
G1 X-179.746 Y63.706
G1 X-179.709 Y64.056
G1 X-179.670 Y64.451
G1 X-179.628 Y64.887
G1 X-179.583 Y65.361
G1 X-179.537 Y65.872
G1 X-179.489 Y66.414
G1 X-179.439 Y66.987
G1 X-179.387 Y67.586
G1 X-179.335 Y68.209
G1 X-179.282 Y68.853
G1 X-179.229 Y69.515
G1 X-179.175 Y70.192
G1 X-179.121 Y70.880
G1 X-179.067 Y71.578
G1 X-179.014 Y72.282
G1 X-178.962 Y72.989
G1 X-178.910 Y73.696
G1 X-178.860 Y74.400
G1 X-178.722 Y76.145
G1 X-178.542 Y78.093
G1 X-178.320 Y80.240
G1 X-178.057 Y82.582
G1 X-177.755 Y85.115
G1 X-177.412 Y87.834
G1 X-177.030 Y90.736
G1 X-176.610 Y93.817
G1 X-176.152 Y97.073
G1 X-175.656 Y100.500
G1 X-175.124 Y104.093
G1 X-174.555 Y107.850
G1 X-173.951 Y111.765
G1 X-173.311 Y115.835
G1 X-172.637 Y120.055
G1 X-171.929 Y124.423
G1 X-171.188 Y128.933
G1 X-170.414 Y133.582
G1 X-169.608 Y138.366
G1 X-168.770 Y143.280
G1 X-168.170 Y146.791
G1 X-167.628 Y149.980
G1 X-167.142 Y152.866
G1 X-166.712 Y155.463
G1 X-166.334 Y157.790
G1 X-166.008 Y159.862
G1 X-165.732 Y161.697
G1 X-165.503 Y163.310
G1 X-165.321 Y164.719
G1 X-165.184 Y165.940
G1 X-165.089 Y166.990
G1 X-165.035 Y167.885
G1 X-165.021 Y168.641
G1 X-165.045 Y169.277
G1 X-165.104 Y169.807
G1 X-165.198 Y170.250
G1 X-165.324 Y170.621
G1 X-165.481 Y170.937
G1 X-165.667 Y171.214
G1 X-165.880 Y171.470
G1 X-166.096 Y171.713
G1 X-166.288 Y171.938
G1 X-166.455 Y172.150
G1 X-166.597 Y172.351
G1 X-166.713 Y172.545
G1 X-166.802 Y172.733
G1 X-166.864 Y172.921
G1 X-166.900 Y173.109
G1 X-166.907 Y173.303
G1 X-166.885 Y173.504
G1 X-166.834 Y173.715
G1 X-166.754 Y173.941
G1 X-166.644 Y174.183
G1 X-166.502 Y174.446
G1 X-166.330 Y174.731
G1 X-166.126 Y175.042
G1 X-165.889 Y175.383
G1 X-165.620 Y175.756
G1 X-165.317 Y176.164
G1 X-164.980 Y176.610
G1 X-164.769 Y176.896
G1 X-164.556 Y177.205
G1 X-164.341 Y177.534
G1 X-164.127 Y177.882
G1 X-163.914 Y178.246
G1 X-163.702 Y178.624
G1 X-163.494 Y179.015
G1 X-163.289 Y179.416
G1 X-163.088 Y179.825
G1 X-162.894 Y180.240
G1 X-162.706 Y180.660
G1 X-162.525 Y181.081
G1 X-162.352 Y181.503
G1 X-162.189 Y181.923
G1 X-162.037 Y182.339
G1 X-161.895 Y182.749
G1 X-161.766 Y183.151
G1 X-161.650 Y183.544
G1 X-161.547 Y183.924
G1 X-161.460 Y184.290
G1 X-161.266 Y185.115
G1 X-161.071 Y185.875
G1 X-160.873 Y186.570
G1 X-160.673 Y187.201
G1 X-160.470 Y187.768
G1 X-160.262 Y188.273
G1 X-160.050 Y188.715
G1 X-159.833 Y189.096
G1 X-159.610 Y189.416
G1 X-159.380 Y189.675
G1 X-159.143 Y189.875
G1 X-158.898 Y190.015
G1 X-158.645 Y190.098
G1 X-158.383 Y190.122
G1 X-158.110 Y190.089
G1 X-157.828 Y190.000
G1 X-157.534 Y189.855
G1 X-157.229 Y189.654
G1 X-156.911 Y189.399
G1 X-156.580 Y189.090
G1 X-156.349 Y188.856
G1 X-156.143 Y188.636
G1 X-155.960 Y188.427
G1 X-155.802 Y188.224
G1 X-155.668 Y188.024
G1 X-155.558 Y187.823
G1 X-155.473 Y187.617
G1 X-155.411 Y187.401
G1 X-155.374 Y187.172
G1 X-155.360 Y186.925
G1 X-155.370 Y186.657
G1 X-155.405 Y186.364
G1 X-155.463 Y186.042
G1 X-155.546 Y185.686
G1 X-155.652 Y185.293
G1 X-155.782 Y184.859
G1 X-155.936 Y184.380
G1 X-156.113 Y183.851
G1 X-156.315 Y183.269
G1 X-156.540 Y182.630
G1 X-157.172 Y180.528
G1 X-157.932 Y177.458
G1 X-158.803 Y173.520
G1 X-159.769 Y168.813
G1 X-160.814 Y163.438
G1 X-161.922 Y157.495
G1 X-163.075 Y151.083
G1 X-164.259 Y144.303
G1 X-165.456 Y137.255
G1 X-166.650 Y130.039
G1 X-167.825 Y122.754
G1 X-168.964 Y115.502
G1 X-170.052 Y108.381
G1 X-171.071 Y101.492
G1 X-172.006 Y94.935
G1 X-172.840 Y88.810
G1 X-173.557 Y83.217
G1 X-174.140 Y78.256
G1 X-174.573 Y74.027
G1 X-174.840 Y70.630
G1 X-175.370 Y61.900
G1 X-172.640 Y67.900
G1 X-171.582 Y70.203
G1 X-170.439 Y72.647
G1 X-169.224 Y75.207
G1 X-167.949 Y77.862
G1 X-166.623 Y80.589
G1 X-165.260 Y83.366
G1 X-163.871 Y86.170
G1 X-162.466 Y88.979
G1 X-161.058 Y91.770
G1 X-159.659 Y94.520
G1 X-158.279 Y97.207
G1 X-156.930 Y99.809
G1 X-155.625 Y102.303
G1 X-154.373 Y104.666
G1 X-153.187 Y106.876
G1 X-152.079 Y108.910
G1 X-151.060 Y110.746
G1 X-150.141 Y112.361
G1 X-149.334 Y113.734
G1 X-148.650 Y114.840
G1 X-147.511 Y116.583
G1 X-146.393 Y118.224
G1 X-145.300 Y119.762
G1 X-144.233 Y121.194
G1 X-143.196 Y122.519
G1 X-142.191 Y123.733
G1 X-141.221 Y124.836
G1 X-140.288 Y125.823
G1 X-139.395 Y126.694
G1 X-138.545 Y127.446
G1 X-137.740 Y128.077
G1 X-136.983 Y128.585
G1 X-136.277 Y128.967
G1 X-135.624 Y129.221
G1 X-135.026 Y129.345
G1 X-134.487 Y129.338
G1 X-134.010 Y129.195
G1 X-133.596 Y128.916
G1 X-133.248 Y128.499
G1 X-132.970 Y127.940
G1 X-132.891 Y127.527
G1 X-132.917 Y126.981
G1 X-133.047 Y126.303
G1 X-133.281 Y125.494
G1 X-133.616 Y124.557
G1 X-134.053 Y123.494
G1 X-134.590 Y122.307
G1 X-135.225 Y120.997
G1 X-135.959 Y119.566
G1 X-136.790 Y118.016
G1 X-137.717 Y116.350
G1 X-138.739 Y114.568
G1 X-139.854 Y112.673
G1 X-141.063 Y110.667
G1 X-142.364 Y108.552
G1 X-143.755 Y106.329
G1 X-145.237 Y104.001
G1 X-146.807 Y101.568
G1 X-148.465 Y99.034
G1 X-150.210 Y96.400
G1 X-151.715 Y94.137
G1 X-153.073 Y92.091
G1 X-154.290 Y90.249
G1 X-155.370 Y88.602
G1 X-156.319 Y87.137
G1 X-157.143 Y85.844
G1 X-157.848 Y84.712
G1 X-158.439 Y83.730
G1 X-158.921 Y82.886
G1 X-159.301 Y82.170
G1 X-159.584 Y81.570
G1 X-159.775 Y81.076
G1 X-159.880 Y80.675
G1 X-159.905 Y80.358
G1 X-159.855 Y80.113
G1 X-159.736 Y79.929
G1 X-159.554 Y79.794
G1 X-159.313 Y79.699
G1 X-159.020 Y79.631
G1 X-158.680 Y79.580
G1 X-157.725 Y79.545
G1 X-156.631 Y79.665
G1 X-155.407 Y79.935
G1 X-154.058 Y80.351
G1 X-152.593 Y80.907
G1 X-151.019 Y81.601
G1 X-149.343 Y82.426
G1 X-147.571 Y83.379
G1 X-145.713 Y84.454
G1 X-143.774 Y85.648
G1 X-141.762 Y86.955
G1 X-139.684 Y88.370
G1 X-137.548 Y89.891
G1 X-135.361 Y91.511
G1 X-133.130 Y93.226
G1 X-130.862 Y95.032
G1 X-128.565 Y96.924
G1 X-126.246 Y98.897
G1 X-123.912 Y100.948
G1 X-121.570 Y103.070
G1 X-116.310 Y107.900
G1 X-112.810 Y126.900
G1 X-112.511 Y128.503
G1 X-112.199 Y130.172
G1 X-111.874 Y131.898
G1 X-111.538 Y133.671
G1 X-111.194 Y135.482
G1 X-110.843 Y137.323
G1 X-110.486 Y139.185
G1 X-110.126 Y141.059
G1 X-109.764 Y142.935
G1 X-109.401 Y144.805
G1 X-109.040 Y146.660
G1 X-108.683 Y148.490
G1 X-108.331 Y150.287
G1 X-107.985 Y152.042
G1 X-107.648 Y153.745
G1 X-107.321 Y155.389
G1 X-107.006 Y156.963
G1 X-106.704 Y158.459
G1 X-106.419 Y159.867
G1 X-106.150 Y161.180
G1 X-105.726 Y163.249
G1 X-105.345 Y165.125
G1 X-105.005 Y166.817
G1 X-104.707 Y168.338
G1 X-104.448 Y169.696
G1 X-104.228 Y170.903
G1 X-104.047 Y171.969
G1 X-103.903 Y172.904
G1 X-103.796 Y173.720
G1 X-103.724 Y174.425
G1 X-103.687 Y175.031
G1 X-103.683 Y175.548
G1 X-103.713 Y175.987
G1 X-103.775 Y176.358
G1 X-103.868 Y176.671
G1 X-103.991 Y176.937
G1 X-104.144 Y177.167
G1 X-104.325 Y177.370
G1 X-104.534 Y177.558
G1 X-104.770 Y177.740
G1 X-105.003 Y177.915
G1 X-105.207 Y178.084
G1 X-105.384 Y178.250
G1 X-105.530 Y178.418
G1 X-105.645 Y178.591
G1 X-105.728 Y178.775
G1 X-105.778 Y178.972
G1 X-105.794 Y179.188
G1 X-105.774 Y179.427
G1 X-105.718 Y179.691
G1 X-105.623 Y179.987
G1 X-105.491 Y180.317
G1 X-105.318 Y180.686
G1 X-105.104 Y181.098
G1 X-104.849 Y181.558
G1 X-104.550 Y182.069
G1 X-104.207 Y182.636
G1 X-103.818 Y183.262
G1 X-103.383 Y183.952
G1 X-102.900 Y184.710
G1 X-102.385 Y185.492
G1 X-101.877 Y186.222
G1 X-101.379 Y186.899
G1 X-100.891 Y187.521
G1 X-100.416 Y188.088
G1 X-99.957 Y188.598
G1 X-99.516 Y189.049
G1 X-99.093 Y189.440
G1 X-98.693 Y189.770
G1 X-98.316 Y190.037
G1 X-97.965 Y190.241
G1 X-97.643 Y190.379
G1 X-97.350 Y190.450
G1 X-97.089 Y190.452
G1 X-96.863 Y190.386
G1 X-96.673 Y190.248
G1 X-96.522 Y190.038
G1 X-96.411 Y189.754
G1 X-96.343 Y189.395
G1 X-96.320 Y188.960
G1 X-96.342 Y188.735
G1 X-96.405 Y188.303
G1 X-96.509 Y187.673
G1 X-96.651 Y186.854
G1 X-96.830 Y185.854
G1 X-97.044 Y184.682
G1 X-97.292 Y183.348
G1 X-97.572 Y181.859
G1 X-97.881 Y180.226
G1 X-98.219 Y178.456
G1 X-98.583 Y176.559
G1 X-98.972 Y174.543
G1 X-99.385 Y172.418
G1 X-99.819 Y170.192
G1 X-100.273 Y167.873
G1 X-100.745 Y165.472
G1 X-101.233 Y162.996
G1 X-101.736 Y160.454
G1 X-102.253 Y157.856
G1 X-102.780 Y155.210
G1 X-104.258 Y147.772
G1 X-105.656 Y140.639
G1 X-106.974 Y133.810
G1 X-108.212 Y127.286
G1 X-109.370 Y121.066
G1 X-110.448 Y115.152
G1 X-111.446 Y109.542
G1 X-112.364 Y104.237
G1 X-113.202 Y99.237
G1 X-113.960 Y94.543
G1 X-114.638 Y90.153
G1 X-115.235 Y86.069
G1 X-115.753 Y82.291
G1 X-116.190 Y78.817
G1 X-116.547 Y75.650
G1 X-116.824 Y72.788
G1 X-117.021 Y70.232
G1 X-117.138 Y67.982
G1 X-117.174 Y66.038
G1 X-117.130 Y64.400
G1 X-116.820 Y58.900
G1 X-107.160 Y77.480
G1 X-104.942 Y81.732
G1 X-102.860 Y85.681
G1 X-100.909 Y89.336
G1 X-99.083 Y92.706
G1 X-97.375 Y95.800
G1 X-95.780 Y98.627
G1 X-94.290 Y101.198
G1 X-92.900 Y103.520
G1 X-91.605 Y105.604
G1 X-90.396 Y107.457
G1 X-89.269 Y109.091
G1 X-88.218 Y110.514
G1 X-87.235 Y111.734
G1 X-86.315 Y112.762
G1 X-85.452 Y113.607
G1 X-84.639 Y114.277
G1 X-83.871 Y114.782
G1 X-83.141 Y115.131
G1 X-82.442 Y115.334
G1 X-81.770 Y115.400
G1 X-81.325 Y115.378
G1 X-80.914 Y115.310
G1 X-80.536 Y115.196
G1 X-80.190 Y115.031
G1 X-79.876 Y114.816
G1 X-79.594 Y114.547
G1 X-79.343 Y114.224
G1 X-79.123 Y113.843
G1 X-78.932 Y113.403
G1 X-78.771 Y112.903
G1 X-78.639 Y112.339
G1 X-78.535 Y111.711
G1 X-78.459 Y111.016
G1 X-78.410 Y110.252
G1 X-78.388 Y109.418
G1 X-78.392 Y108.511
G1 X-78.422 Y107.530
G1 X-78.477 Y106.472
G1 X-78.556 Y105.336
G1 X-78.660 Y104.120
G1 X-78.710 Y103.585
G1 X-78.762 Y103.010
G1 X-78.818 Y102.397
G1 X-78.876 Y101.750
G1 X-78.937 Y101.074
G1 X-78.999 Y100.372
G1 X-79.063 Y99.647
G1 X-79.128 Y98.904
G1 X-79.194 Y98.146
G1 X-79.261 Y97.377
G1 X-79.329 Y96.601
G1 X-79.396 Y95.821
G1 X-79.463 Y95.041
G1 X-79.529 Y94.266
G1 X-79.595 Y93.497
G1 X-79.660 Y92.740
G1 X-79.723 Y91.998
G1 X-79.784 Y91.275
G1 X-79.843 Y90.574
G1 X-79.900 Y89.900
G1 X-80.550 Y81.900
G1 X-76.870 Y85.400
G1 X-76.221 Y86.047
G1 X-75.514 Y86.811
G1 X-74.755 Y87.682
G1 X-73.948 Y88.654
G1 X-73.099 Y89.719
G1 X-72.214 Y90.869
G1 X-71.297 Y92.095
G1 X-70.355 Y93.390
G1 X-69.393 Y94.747
G1 X-68.415 Y96.156
G1 X-67.428 Y97.611
G1 X-66.436 Y99.104
G1 X-65.446 Y100.626
G1 X-64.463 Y102.170
G1 X-63.491 Y103.728
G1 X-62.537 Y105.292
G1 X-61.605 Y106.854
G1 X-60.701 Y108.406
G1 X-59.831 Y109.941
G1 X-59.000 Y111.450
G1 X-58.428 Y112.484
G1 X-57.856 Y113.479
G1 X-57.284 Y114.434
G1 X-56.712 Y115.350
G1 X-56.142 Y116.224
G1 X-55.574 Y117.057
G1 X-55.009 Y117.847
G1 X-54.446 Y118.595
G1 X-53.888 Y119.298
G1 X-53.334 Y119.957
G1 X-52.785 Y120.572
G1 X-52.241 Y121.140
G1 X-51.704 Y121.661
G1 X-51.174 Y122.136
G1 X-50.651 Y122.562
G1 X-50.136 Y122.940
G1 X-49.630 Y123.268
G1 X-49.133 Y123.547
G1 X-48.646 Y123.774
G1 X-48.170 Y123.950
G1 X-47.844 Y124.023
G1 X-47.482 Y124.051
G1 X-47.091 Y124.039
G1 X-46.674 Y123.988
G1 X-46.239 Y123.901
G1 X-45.791 Y123.782
G1 X-45.335 Y123.634
G1 X-44.878 Y123.459
G1 X-44.424 Y123.261
G1 X-43.980 Y123.043
G1 X-43.551 Y122.806
G1 X-43.144 Y122.555
G1 X-42.763 Y122.293
G1 X-42.414 Y122.022
G1 X-42.103 Y121.745
G1 X-41.837 Y121.466
G1 X-41.619 Y121.186
G1 X-41.457 Y120.910
G1 X-41.355 Y120.641
G1 X-41.320 Y120.380
G1 X-41.312 Y120.300
G1 X-41.289 Y120.221
G1 X-41.251 Y120.145
G1 X-41.199 Y120.071
G1 X-41.134 Y119.999
G1 X-41.056 Y119.930
G1 X-40.966 Y119.864
G1 X-40.864 Y119.802
G1 X-40.752 Y119.743
G1 X-40.629 Y119.688
G1 X-40.496 Y119.636
G1 X-40.354 Y119.589
G1 X-40.204 Y119.547
G1 X-40.046 Y119.510
G1 X-39.881 Y119.477
G1 X-39.710 Y119.450
G1 X-39.532 Y119.429
G1 X-39.349 Y119.413
G1 X-39.162 Y119.403
G1 X-38.970 Y119.400
G1 X-38.417 Y119.378
G1 X-37.896 Y119.312
G1 X-37.408 Y119.199
G1 X-36.950 Y119.038
G1 X-36.521 Y118.826
G1 X-36.121 Y118.561
G1 X-35.749 Y118.242
G1 X-35.403 Y117.866
G1 X-35.082 Y117.431
G1 X-34.785 Y116.936
G1 X-34.511 Y116.378
G1 X-34.260 Y115.756
G1 X-34.029 Y115.067
G1 X-33.818 Y114.309
G1 X-33.626 Y113.481
G1 X-33.452 Y112.580
G1 X-33.294 Y111.605
G1 X-33.152 Y110.552
G1 X-33.024 Y109.422
G1 X-32.910 Y108.210
G1 X-32.494 Y104.303
G1 X-31.947 Y100.787
G1 X-31.262 Y97.661
G1 X-30.432 Y94.925
G1 X-29.449 Y92.576
G1 X-28.305 Y90.614
G1 X-26.992 Y89.039
G1 X-25.502 Y87.850
G1 X-23.828 Y87.044
G1 X-21.962 Y86.622
G1 X-19.897 Y86.583
G1 X-17.624 Y86.926
G1 X-15.137 Y87.650
G1 X-12.426 Y88.753
G1 X-9.485 Y90.235
G1 X-6.305 Y92.096
G1 X-2.880 Y94.333
G1 X0.800 Y96.947
G1 X4.740 Y99.936
G1 X8.950 Y103.300
G1 X9.763 Y103.969
G1 X10.514 Y104.596
G1 X11.203 Y105.184
G1 X11.835 Y105.737
G1 X12.412 Y106.258
G1 X12.937 Y106.750
G1 X13.412 Y107.218
G1 X13.840 Y107.664
G1 X14.225 Y108.092
G1 X14.567 Y108.505
G1 X14.872 Y108.907
G1 X15.141 Y109.302
G1 X15.376 Y109.692
G1 X15.581 Y110.082
G1 X15.759 Y110.475
G1 X15.912 Y110.873
G1 X16.043 Y111.282
G1 X16.154 Y111.703
G1 X16.249 Y112.142
G1 X16.330 Y112.600
G1 X16.444 Y113.242
G1 X16.573 Y113.848
G1 X16.718 Y114.417
G1 X16.877 Y114.947
G1 X17.050 Y115.437
G1 X17.234 Y115.886
G1 X17.428 Y116.293
G1 X17.633 Y116.656
G1 X17.846 Y116.974
G1 X18.066 Y117.246
G1 X18.293 Y117.471
G1 X18.525 Y117.647
G1 X18.762 Y117.774
G1 X19.001 Y117.849
G1 X19.242 Y117.872
G1 X19.485 Y117.842
G1 X19.727 Y117.756
G1 X19.967 Y117.615
G1 X20.205 Y117.417
G1 X20.440 Y117.160
G1 X20.536 Y116.991
G1 X20.610 Y116.747
G1 X20.662 Y116.426
G1 X20.693 Y116.027
G1 X20.701 Y115.549
G1 X20.687 Y114.991
G1 X20.650 Y114.350
G1 X20.591 Y113.627
G1 X20.509 Y112.818
G1 X20.404 Y111.924
G1 X20.276 Y110.942
G1 X20.124 Y109.871
G1 X19.949 Y108.711
G1 X19.750 Y107.459
G1 X19.527 Y106.114
G1 X19.281 Y104.675
G1 X19.010 Y103.140
G1 X18.714 Y101.509
G1 X18.395 Y99.779
G1 X18.050 Y97.950
G1 X17.773 Y96.480
G1 X17.505 Y95.035
G1 X17.246 Y93.620
G1 X16.996 Y92.240
G1 X16.758 Y90.899
G1 X16.531 Y89.603
G1 X16.316 Y88.357
G1 X16.114 Y87.165
G1 X15.926 Y86.033
G1 X15.752 Y84.966
G1 X15.595 Y83.969
G1 X15.453 Y83.046
G1 X15.328 Y82.203
G1 X15.222 Y81.444
G1 X15.133 Y80.775
G1 X15.065 Y80.201
G1 X15.016 Y79.727
G1 X14.989 Y79.356
G1 X14.983 Y79.096
G1 X15.000 Y78.950
G1 X15.039 Y78.904
G1 X15.095 Y78.937
G1 X15.167 Y79.048
G1 X15.255 Y79.232
G1 X15.358 Y79.488
G1 X15.475 Y79.812
G1 X15.605 Y80.201
G1 X15.748 Y80.653
G1 X15.901 Y81.164
G1 X16.066 Y81.733
G1 X16.241 Y82.354
G1 X16.425 Y83.027
G1 X16.617 Y83.748
G1 X16.817 Y84.515
G1 X17.024 Y85.323
G1 X17.236 Y86.171
G1 X17.454 Y87.056
G1 X17.676 Y87.974
G1 X17.902 Y88.923
G1 X18.130 Y89.900
G1 X18.939 Y93.323
G1 X19.760 Y96.643
G1 X20.593 Y99.856
G1 X21.436 Y102.961
G1 X22.289 Y105.954
G1 X23.150 Y108.834
G1 X24.018 Y111.597
G1 X24.893 Y114.241
G1 X25.774 Y116.763
G1 X26.659 Y119.161
G1 X27.547 Y121.433
G1 X28.438 Y123.574
G1 X29.331 Y125.584
G1 X30.224 Y127.460
G1 X31.117 Y129.198
G1 X32.008 Y130.796
G1 X32.897 Y132.252
G1 X33.783 Y133.563
G1 X34.664 Y134.727
G1 X35.540 Y135.740
G1 X36.402 Y136.626
G1 X37.266 Y137.437
G1 X38.128 Y138.172
G1 X38.988 Y138.830
G1 X39.843 Y139.412
G1 X40.690 Y139.917
G1 X41.529 Y140.344
G1 X42.357 Y140.693
G1 X43.172 Y140.963
G1 X43.973 Y141.155
G1 X44.756 Y141.268
G1 X45.520 Y141.301
G1 X46.263 Y141.254
G1 X46.983 Y141.126
G1 X47.679 Y140.918
G1 X48.347 Y140.628
G1 X48.986 Y140.257
G1 X49.595 Y139.804
G1 X50.170 Y139.268
G1 X50.710 Y138.650
G1 X50.984 Y138.297
G1 X51.233 Y137.957
G1 X51.458 Y137.625
G1 X51.660 Y137.298
G1 X51.840 Y136.970
G1 X51.998 Y136.638
G1 X52.136 Y136.296
G1 X52.253 Y135.939
G1 X52.351 Y135.564
G1 X52.431 Y135.166
G1 X52.493 Y134.740
G1 X52.539 Y134.282
G1 X52.568 Y133.786
G1 X52.582 Y133.249
G1 X52.582 Y132.666
G1 X52.568 Y132.033
G1 X52.541 Y131.344
G1 X52.501 Y130.595
G1 X52.451 Y129.782
G1 X52.390 Y128.900
G1 X52.290 Y127.661
G1 X52.164 Y126.441
G1 X52.013 Y125.234
G1 X51.835 Y124.038
G1 X51.627 Y122.848
G1 X51.390 Y121.659
G1 X51.121 Y120.467
G1 X50.819 Y119.268
G1 X50.484 Y118.059
G1 X50.112 Y116.834
G1 X49.705 Y115.589
G1 X49.259 Y114.321
G1 X48.773 Y113.024
G1 X48.247 Y111.696
G1 X47.679 Y110.330
G1 X47.067 Y108.925
G1 X46.411 Y107.474
G1 X45.709 Y105.974
G1 X44.959 Y104.421
G1 X44.160 Y102.810
G1 X40.100 Y94.720
G1 X53.640 Y101.600
G1 X55.753 Y102.663
G1 X57.756 Y103.649
G1 X59.647 Y104.556
G1 X61.426 Y105.384
G1 X63.093 Y106.134
G1 X64.648 Y106.806
G1 X66.091 Y107.399
G1 X67.421 Y107.913
G1 X68.639 Y108.349
G1 X69.744 Y108.706
G1 X70.735 Y108.984
G1 X71.613 Y109.184
G1 X72.378 Y109.304
G1 X73.029 Y109.345
G1 X73.565 Y109.308
G1 X73.988 Y109.191
G1 X74.295 Y108.995
G1 X74.489 Y108.719
G1 X74.567 Y108.364
G1 X74.530 Y107.930
G1 X74.474 Y107.753
G1 X74.373 Y107.563
G1 X74.227 Y107.362
G1 X74.036 Y107.148
G1 X73.801 Y106.923
G1 X73.523 Y106.687
G1 X73.202 Y106.440
G1 X72.839 Y106.182
G1 X72.433 Y105.914
G1 X71.986 Y105.636
G1 X71.498 Y105.348
G1 X70.970 Y105.051
G1 X70.401 Y104.744
G1 X69.793 Y104.428
G1 X69.145 Y104.104
G1 X68.460 Y103.771
G1 X67.736 Y103.430
G1 X66.974 Y103.081
G1 X66.175 Y102.724
G1 X65.340 Y102.360
G1 X63.170 Y101.404
G1 X60.985 Y100.402
G1 X58.798 Y99.362
G1 X56.618 Y98.289
G1 X54.456 Y97.191
G1 X52.322 Y96.072
G1 X50.229 Y94.941
G1 X48.184 Y93.802
G1 X46.201 Y92.663
G1 X44.289 Y91.530
G1 X42.458 Y90.409
G1 X40.720 Y89.307
G1 X39.085 Y88.230
G1 X37.564 Y87.185
G1 X36.167 Y86.177
G1 X34.905 Y85.213
G1 X33.789 Y84.301
G1 X32.829 Y83.445
G1 X32.036 Y82.653
G1 X31.420 Y81.930
G1 X31.151 Y81.582
G1 X30.854 Y81.205
G1 X30.529 Y80.803
G1 X30.180 Y80.376
G1 X29.808 Y79.929
G1 X29.417 Y79.463
G1 X29.007 Y78.981
G1 X28.581 Y78.486
G1 X28.142 Y77.980
G1 X27.691 Y77.465
G1 X27.231 Y76.944
G1 X26.764 Y76.420
G1 X26.293 Y75.895
G1 X25.818 Y75.371
G1 X25.344 Y74.851
G1 X24.871 Y74.338
G1 X24.401 Y73.833
G1 X23.939 Y73.341
G1 X23.484 Y72.862
G1 X23.040 Y72.400
G1 X17.730 Y66.900
G1 X12.660 Y37.400
G1 X11.832 Y32.596
G1 X11.064 Y28.192
G1 X10.351 Y24.172
G1 X9.690 Y20.518
G1 X9.075 Y17.216
G1 X8.504 Y14.247
G1 X7.970 Y11.595
G1 X7.471 Y9.243
G1 X7.002 Y7.176
G1 X6.557 Y5.375
G1 X6.135 Y3.825
G1 X5.729 Y2.509
G1 X5.335 Y1.410
G1 X4.950 Y0.511
G1 X4.568 Y-0.203
G1 X4.187 Y-0.750
G1 X3.800 Y-1.147
G1 X3.405 Y-1.410
G1 X2.996 Y-1.555
G1 X2.570 Y-1.600
G1 X2.409 Y-1.595
G1 X2.247 Y-1.579
G1 X2.085 Y-1.553
G1 X1.924 Y-1.518
G1 X1.765 Y-1.474
G1 X1.607 Y-1.421
G1 X1.452 Y-1.359
G1 X1.301 Y-1.290
G1 X1.154 Y-1.214
G1 X1.011 Y-1.130
G1 X0.874 Y-1.040
G1 X0.743 Y-0.943
G1 X0.619 Y-0.841
G1 X0.503 Y-0.734
G1 X0.395 Y-0.621
G1 X0.295 Y-0.504
G1 X0.205 Y-0.383
G1 X0.126 Y-0.259
G1 X0.057 Y-0.131
G1 X-0.000 Y-0.000
G1 X6.313 Y27.702
G1 X6.267 Y27.799
G1 X6.222 Y27.880
G1 X6.180 Y27.946
G1 X6.138 Y27.997
G1 X6.099 Y28.032
G1 X6.061 Y28.053
G1 X6.025 Y28.058
G1 X5.991 Y28.048
G1 X5.959 Y28.024
G1 X5.929 Y27.985
G1 X5.901 Y27.931
G1 X5.875 Y27.862
G1 X5.851 Y27.779
G1 X5.830 Y27.681
G1 X5.811 Y27.570
G1 X5.794 Y27.443
G1 X5.780 Y27.303
G1 X5.769 Y27.149
G1 X5.760 Y26.980
G1 X5.756 Y26.826
G1 X5.756 Y26.679
G1 X5.760 Y26.540
G1 X5.767 Y26.409
G1 X5.778 Y26.286
G1 X5.792 Y26.172
G1 X5.810 Y26.066
G1 X5.831 Y25.970
G1 X5.855 Y25.884
G1 X5.881 Y25.807
G1 X5.911 Y25.741
G1 X5.943 Y25.686
G1 X5.978 Y25.642
G1 X6.015 Y25.609
G1 X6.054 Y25.588
G1 X6.095 Y25.579
G1 X6.139 Y25.582
G1 X6.184 Y25.598
G1 X6.231 Y25.627
G1 X6.280 Y25.670
G1 X6.329 Y25.723
G1 X6.373 Y25.785
G1 X6.412 Y25.853
G1 X6.447 Y25.927
G1 X6.477 Y26.008
G1 X6.502 Y26.094
G1 X6.523 Y26.185
G1 X6.539 Y26.281
G1 X6.550 Y26.381
G1 X6.556 Y26.484
G1 X6.558 Y26.590
G1 X6.555 Y26.698
G1 X6.547 Y26.808
G1 X6.535 Y26.920
G1 X6.518 Y27.033
G1 X6.496 Y27.146
G1 X6.469 Y27.258
G1 X6.437 Y27.370
G1 X6.401 Y27.481
G1 X6.360 Y27.590
G1 X7.298 Y34.744
G1 X7.258 Y34.820
G1 X7.219 Y34.878
G1 X7.180 Y34.917
G1 X7.144 Y34.940
G1 X7.109 Y34.945
G1 X7.075 Y34.934
G1 X7.043 Y34.906
G1 X7.013 Y34.861
G1 X6.985 Y34.801
G1 X6.959 Y34.726
G1 X6.935 Y34.635
G1 X6.914 Y34.529
G1 X6.895 Y34.409
G1 X6.879 Y34.275
G1 X6.865 Y34.126
G1 X6.854 Y33.964
G1 X6.846 Y33.789
G1 X6.842 Y33.601
G1 X6.840 Y33.400
G1 X6.842 Y33.199
G1 X6.846 Y33.011
G1 X6.854 Y32.836
G1 X6.865 Y32.674
G1 X6.879 Y32.525
G1 X6.895 Y32.391
G1 X6.914 Y32.271
G1 X6.935 Y32.165
G1 X6.959 Y32.074
G1 X6.985 Y31.999
G1 X7.013 Y31.939
G1 X7.043 Y31.894
G1 X7.075 Y31.866
G1 X7.109 Y31.855
G1 X7.144 Y31.860
G1 X7.180 Y31.883
G1 X7.219 Y31.922
G1 X7.258 Y31.980
G1 X7.298 Y32.056
G1 X7.340 Y32.150
G1 X7.380 Y32.257
G1 X7.416 Y32.369
G1 X7.447 Y32.487
G1 X7.474 Y32.609
G1 X7.498 Y32.735
G1 X7.516 Y32.864
G1 X7.531 Y32.996
G1 X7.542 Y33.129
G1 X7.548 Y33.264
G1 X7.550 Y33.400
G1 X7.548 Y33.536
G1 X7.542 Y33.671
G1 X7.531 Y33.804
G1 X7.516 Y33.936
G1 X7.498 Y34.065
G1 X7.474 Y34.191
G1 X7.447 Y34.313
G1 X7.416 Y34.431
G1 X7.380 Y34.543
G1 X7.340 Y34.650
G1 X8.333 Y41.264
G1 X8.296 Y41.376
G1 X8.260 Y41.465
G1 X8.225 Y41.533
G1 X8.191 Y41.579
G1 X8.157 Y41.604
G1 X8.125 Y41.608
G1 X8.095 Y41.591
G1 X8.065 Y41.554
G1 X8.038 Y41.497
G1 X8.011 Y41.421
G1 X7.987 Y41.325
G1 X7.964 Y41.210
G1 X7.944 Y41.077
G1 X7.926 Y40.925
G1 X7.910 Y40.755
G1 X7.896 Y40.567
G1 X7.885 Y40.362
G1 X7.876 Y40.139
G1 X7.870 Y39.900
G1 X7.869 Y39.659
G1 X7.871 Y39.431
G1 X7.876 Y39.217
G1 X7.884 Y39.017
G1 X7.896 Y38.832
G1 X7.910 Y38.662
G1 X7.927 Y38.507
G1 X7.946 Y38.368
G1 X7.968 Y38.246
G1 X7.993 Y38.141
G1 X8.019 Y38.054
G1 X8.048 Y37.984
G1 X8.079 Y37.933
G1 X8.111 Y37.901
G1 X8.146 Y37.888
G1 X8.182 Y37.895
G1 X8.219 Y37.922
G1 X8.258 Y37.970
G1 X8.299 Y38.039
G1 X8.340 Y38.130
G1 X8.379 Y38.237
G1 X8.413 Y38.353
G1 X8.445 Y38.478
G1 X8.472 Y38.610
G1 X8.495 Y38.749
G1 X8.515 Y38.895
G1 X8.530 Y39.045
G1 X8.542 Y39.200
G1 X8.550 Y39.359
G1 X8.554 Y39.521
G1 X8.554 Y39.685
G1 X8.550 Y39.851
G1 X8.541 Y40.017
G1 X8.529 Y40.183
G1 X8.513 Y40.348
G1 X8.493 Y40.511
G1 X8.468 Y40.671
G1 X8.440 Y40.829
G1 X8.407 Y40.982
G1 X8.370 Y41.130
G1 X9.313 Y46.702
G1 X9.267 Y46.799
G1 X9.222 Y46.880
G1 X9.180 Y46.946
G1 X9.138 Y46.997
G1 X9.099 Y47.032
G1 X9.061 Y47.053
G1 X9.025 Y47.058
G1 X8.991 Y47.048
G1 X8.959 Y47.024
G1 X8.929 Y46.985
G1 X8.901 Y46.931
G1 X8.875 Y46.862
G1 X8.851 Y46.779
G1 X8.830 Y46.681
G1 X8.811 Y46.570
G1 X8.794 Y46.443
G1 X8.780 Y46.303
G1 X8.769 Y46.149
G1 X8.760 Y45.980
G1 X8.756 Y45.826
G1 X8.756 Y45.679
G1 X8.760 Y45.540
G1 X8.767 Y45.409
G1 X8.778 Y45.286
G1 X8.792 Y45.172
G1 X8.810 Y45.066
G1 X8.831 Y44.970
G1 X8.855 Y44.884
G1 X8.881 Y44.807
G1 X8.911 Y44.741
G1 X8.943 Y44.686
G1 X8.978 Y44.642
G1 X9.015 Y44.609
G1 X9.054 Y44.588
G1 X9.095 Y44.579
G1 X9.139 Y44.582
G1 X9.184 Y44.598
G1 X9.231 Y44.627
G1 X9.280 Y44.670
G1 X9.329 Y44.723
G1 X9.373 Y44.785
G1 X9.412 Y44.853
G1 X9.447 Y44.927
G1 X9.477 Y45.008
G1 X9.502 Y45.094
G1 X9.523 Y45.185
G1 X9.539 Y45.281
G1 X9.550 Y45.381
G1 X9.556 Y45.484
G1 X9.558 Y45.590
G1 X9.555 Y45.698
G1 X9.547 Y45.808
G1 X9.535 Y45.920
G1 X9.518 Y46.033
G1 X9.496 Y46.146
G1 X9.469 Y46.258
G1 X9.437 Y46.370
G1 X9.401 Y46.481
G1 X9.360 Y46.590
G1 X10.298 Y53.744
G1 X10.258 Y53.820
G1 X10.219 Y53.878
G1 X10.180 Y53.917
G1 X10.144 Y53.940
G1 X10.109 Y53.945
G1 X10.075 Y53.934
G1 X10.043 Y53.906
G1 X10.013 Y53.861
G1 X9.985 Y53.801
G1 X9.959 Y53.726
G1 X9.935 Y53.635
G1 X9.914 Y53.529
G1 X9.895 Y53.409
G1 X9.879 Y53.275
G1 X9.865 Y53.126
G1 X9.854 Y52.964
G1 X9.846 Y52.789
G1 X9.842 Y52.601
G1 X9.840 Y52.400
G1 X9.842 Y52.199
G1 X9.846 Y52.011
G1 X9.854 Y51.836
G1 X9.865 Y51.674
G1 X9.879 Y51.525
G1 X9.895 Y51.391
G1 X9.914 Y51.271
G1 X9.935 Y51.165
G1 X9.959 Y51.074
G1 X9.985 Y50.999
G1 X10.013 Y50.939
G1 X10.043 Y50.894
G1 X10.075 Y50.866
G1 X10.109 Y50.855
G1 X10.144 Y50.860
G1 X10.180 Y50.883
G1 X10.219 Y50.922
G1 X10.258 Y50.980
G1 X10.298 Y51.056
G1 X10.340 Y51.150
G1 X10.380 Y51.257
G1 X10.416 Y51.369
G1 X10.447 Y51.487
G1 X10.474 Y51.609
G1 X10.498 Y51.735
G1 X10.516 Y51.864
G1 X10.531 Y51.996
G1 X10.542 Y52.129
G1 X10.548 Y52.264
G1 X10.550 Y52.400
G1 X10.548 Y52.536
G1 X10.542 Y52.671
G1 X10.531 Y52.804
G1 X10.516 Y52.936
G1 X10.498 Y53.065
G1 X10.474 Y53.191
G1 X10.447 Y53.313
G1 X10.416 Y53.431
G1 X10.380 Y53.543
G1 X10.340 Y53.650
G1 X11.333 Y59.264
G1 X11.296 Y59.376
G1 X11.260 Y59.465
G1 X11.225 Y59.533
G1 X11.191 Y59.579
G1 X11.157 Y59.604
G1 X11.125 Y59.608
G1 X11.095 Y59.591
G1 X11.065 Y59.554
G1 X11.038 Y59.497
G1 X11.011 Y59.421
G1 X10.987 Y59.325
G1 X10.964 Y59.210
G1 X10.944 Y59.077
G1 X10.926 Y58.925
G1 X10.910 Y58.755
G1 X10.896 Y58.567
G1 X10.885 Y58.362
G1 X10.876 Y58.139
G1 X10.870 Y57.900
G1 X10.869 Y57.659
G1 X10.871 Y57.431
G1 X10.876 Y57.217
G1 X10.884 Y57.017
G1 X10.896 Y56.832
G1 X10.910 Y56.662
G1 X10.927 Y56.507
G1 X10.946 Y56.368
G1 X10.968 Y56.246
G1 X10.993 Y56.141
G1 X11.019 Y56.054
G1 X11.048 Y55.984
G1 X11.079 Y55.933
G1 X11.111 Y55.901
G1 X11.146 Y55.888
G1 X11.182 Y55.895
G1 X11.219 Y55.922
G1 X11.258 Y55.970
G1 X11.299 Y56.039
G1 X11.340 Y56.130
G1 X11.379 Y56.237
G1 X11.413 Y56.353
G1 X11.445 Y56.478
G1 X11.472 Y56.610
G1 X11.495 Y56.749
G1 X11.515 Y56.895
G1 X11.530 Y57.045
G1 X11.542 Y57.200
G1 X11.550 Y57.359
G1 X11.554 Y57.521
G1 X11.554 Y57.685
G1 X11.550 Y57.851
G1 X11.541 Y58.017
G1 X11.529 Y58.183
G1 X11.513 Y58.348
G1 X11.493 Y58.511
G1 X11.468 Y58.671
G1 X11.440 Y58.829
G1 X11.407 Y58.982
G1 X11.370 Y59.130
G1 X5.379 Y62.090
G1 X5.793 Y62.448
G1 X6.170 Y62.810
G1 X6.510 Y63.171
G1 X6.810 Y63.527
G1 X7.071 Y63.874
G1 X7.291 Y64.209
G1 X7.469 Y64.526
G1 X7.604 Y64.822
G1 X7.695 Y65.092
G1 X7.740 Y65.334
G1 X7.739 Y65.541
G1 X7.691 Y65.710
G1 X7.594 Y65.838
G1 X7.447 Y65.919
G1 X7.250 Y65.951
G1 X7.000 Y65.927
G1 X6.698 Y65.846
G1 X6.342 Y65.701
G1 X5.930 Y65.490
G1 X5.772 Y65.396
G1 X5.589 Y65.277
G1 X5.380 Y65.135
G1 X5.149 Y64.970
G1 X4.897 Y64.785
G1 X4.625 Y64.580
G1 X4.336 Y64.357
G1 X4.030 Y64.117
G1 X3.709 Y63.861
G1 X3.375 Y63.591
G1 X3.030 Y63.309
G1 X2.675 Y63.015
G1 X2.312 Y62.710
G1 X1.942 Y62.397
G1 X1.568 Y62.077
G1 X1.190 Y61.750
G1 X0.811 Y61.419
G1 X0.432 Y61.084
G1 X0.054 Y60.748
G1 X-0.320 Y60.410
G1 X-0.959 Y59.830
G1 X-1.531 Y59.308
G1 X-2.037 Y58.845
G1 X-2.478 Y58.436
G1 X-2.856 Y58.082
G1 X-3.169 Y57.779
G1 X-3.420 Y57.527
G1 X-3.610 Y57.323
G1 X-3.738 Y57.166
G1 X-3.805 Y57.054
G1 X-3.813 Y56.985
G1 X-3.762 Y56.957
G1 X-3.652 Y56.969
G1 X-3.485 Y57.018
G1 X-3.262 Y57.104
G1 X-2.982 Y57.224
G1 X-2.648 Y57.376
G1 X-2.259 Y57.559
G1 X-1.816 Y57.771
G1 X-1.320 Y58.010
G1 X-1.024 Y58.156
G1 X-0.717 Y58.313
G1 X-0.399 Y58.478
G1 X-0.074 Y58.651
G1 X0.258 Y58.832
G1 X0.596 Y59.019
G1 X0.936 Y59.210
G1 X1.279 Y59.406
G1 X1.621 Y59.606
G1 X1.963 Y59.808
G1 X2.300 Y60.011
G1 X2.634 Y60.214
G1 X2.960 Y60.417
G1 X3.279 Y60.618
G1 X3.588 Y60.817
G1 X3.885 Y61.012
G1 X4.170 Y61.203
G1 X4.440 Y61.389
G1 X4.694 Y61.568
G1 X4.930 Y61.740
G1 X35.932 Y97.250
G1 X37.398 Y99.673
G1 X38.795 Y102.136
G1 X40.117 Y104.622
G1 X41.360 Y107.119
G1 X42.518 Y109.610
G1 X43.589 Y112.082
G1 X44.566 Y114.520
G1 X45.446 Y116.910
G1 X46.224 Y119.236
G1 X46.894 Y121.485
G1 X47.454 Y123.642
G1 X47.897 Y125.692
G1 X48.219 Y127.620
G1 X48.416 Y129.413
G1 X48.483 Y131.056
G1 X48.416 Y132.533
G1 X48.209 Y133.831
G1 X47.859 Y134.935
G1 X47.360 Y135.830
G1 X47.179 Y136.072
G1 X47.011 Y136.289
G1 X46.852 Y136.481
G1 X46.699 Y136.648
G1 X46.550 Y136.790
G1 X46.401 Y136.907
G1 X46.251 Y136.999
G1 X46.096 Y137.066
G1 X45.933 Y137.109
G1 X45.760 Y137.127
G1 X45.574 Y137.121
G1 X45.371 Y137.091
G1 X45.150 Y137.036
G1 X44.907 Y136.957
G1 X44.640 Y136.854
G1 X44.346 Y136.727
G1 X44.021 Y136.576
G1 X43.664 Y136.401
G1 X43.271 Y136.202
G1 X42.840 Y135.980
G1 X41.733 Y135.318
G1 X40.637 Y134.484
G1 X39.553 Y133.476
G1 X38.478 Y132.293
G1 X37.414 Y130.934
G1 X36.359 Y129.397
G1 X35.313 Y127.682
G1 X34.275 Y125.787
G1 X33.245 Y123.712
G1 X32.223 Y121.454
G1 X31.207 Y119.012
G1 X30.197 Y116.387
G1 X29.193 Y113.575
G1 X28.194 Y110.576
G1 X27.200 Y107.390
G1 X26.210 Y104.013
G1 X25.223 Y100.446
G1 X24.240 Y96.688
G1 X23.259 Y92.736
G1 X22.280 Y88.590
G1 X20.830 Y82.290
G1 X25.010 Y84.680
G1 X25.437 Y84.938
G1 X25.867 Y85.220
G1 X26.300 Y85.528
G1 X26.735 Y85.860
G1 X27.175 Y86.217
G1 X27.618 Y86.601
G1 X28.065 Y87.011
G1 X28.517 Y87.447
G1 X28.973 Y87.910
G1 X29.435 Y88.400
G1 X29.902 Y88.918
G1 X30.375 Y89.464
G1 X30.853 Y90.038
G1 X31.339 Y90.641
G1 X31.830 Y91.273
G1 X32.329 Y91.934
G1 X32.835 Y92.625
G1 X33.349 Y93.346
G1 X33.870 Y94.098
G1 X34.400 Y94.880
G1 X-48.780 Y111.118
G1 X-48.343 Y111.640
G1 X-47.932 Y112.146
G1 X-47.545 Y112.635
G1 X-47.183 Y113.106
G1 X-46.846 Y113.560
G1 X-46.535 Y113.996
G1 X-46.250 Y114.414
G1 X-45.990 Y114.812
G1 X-45.758 Y115.191
G1 X-45.551 Y115.551
G1 X-45.371 Y115.890
G1 X-45.219 Y116.209
G1 X-45.094 Y116.507
G1 X-44.996 Y116.783
G1 X-44.926 Y117.038
G1 X-44.884 Y117.270
G1 X-44.871 Y117.480
G1 X-44.886 Y117.667
G1 X-44.930 Y117.830
G1 X-45.193 Y118.375
G1 X-45.508 Y118.786
G1 X-45.873 Y119.065
G1 X-46.284 Y119.216
G1 X-46.737 Y119.242
G1 X-47.230 Y119.145
G1 X-47.760 Y118.930
G1 X-48.322 Y118.599
G1 X-48.915 Y118.156
G1 X-49.534 Y117.602
G1 X-50.176 Y116.943
G1 X-50.838 Y116.180
G1 X-51.517 Y115.318
G1 X-52.210 Y114.358
G1 X-52.913 Y113.305
G1 X-53.623 Y112.161
G1 X-54.337 Y110.929
G1 X-55.052 Y109.613
G1 X-55.764 Y108.215
G1 X-56.470 Y106.740
G1 X-56.969 Y105.654
G1 X-57.417 Y104.662
G1 X-57.812 Y103.764
G1 X-58.157 Y102.959
G1 X-58.450 Y102.246
G1 X-58.691 Y101.623
G1 X-58.881 Y101.091
G1 X-59.020 Y100.647
G1 X-59.107 Y100.291
G1 X-59.144 Y100.023
G1 X-59.129 Y99.840
G1 X-59.063 Y99.742
G1 X-58.947 Y99.728
G1 X-58.779 Y99.797
G1 X-58.561 Y99.948
G1 X-58.292 Y100.180
G1 X-57.972 Y100.492
G1 X-57.602 Y100.884
G1 X-57.181 Y101.353
G1 X-56.710 Y101.900
G1 X-56.484 Y102.164
G1 X-56.231 Y102.460
G1 X-55.953 Y102.785
G1 X-55.651 Y103.137
G1 X-55.328 Y103.514
G1 X-54.985 Y103.913
G1 X-54.625 Y104.332
G1 X-54.249 Y104.770
G1 X-53.860 Y105.223
G1 X-53.459 Y105.689
G1 X-53.048 Y106.166
G1 X-52.630 Y106.652
G1 X-52.206 Y107.144
G1 X-51.778 Y107.641
G1 X-51.348 Y108.140
G1 X-50.918 Y108.638
G1 X-50.491 Y109.133
G1 X-50.067 Y109.623
G1 X-49.650 Y110.106
G1 X-49.240 Y110.580
G1 X205.083 Y55.629
G1 X204.912 Y56.405
G1 X204.776 Y57.312
G1 X204.678 Y58.356
G1 X204.616 Y59.539
G1 X204.591 Y60.866
G1 X204.604 Y62.341
G1 X204.654 Y63.969
G1 X204.742 Y65.753
G1 X204.869 Y67.698
G1 X205.034 Y69.807
G1 X205.238 Y72.086
G1 X205.482 Y74.538
G1 X205.765 Y77.167
G1 X206.087 Y79.978
G1 X206.450 Y82.974
G1 X206.854 Y86.160
G1 X207.298 Y89.541
G1 X207.783 Y93.119
G1 X208.310 Y96.900
G1 X209.020 Y101.900
G1 X201.790 Y95.400
G1 X196.726 Y90.947
G1 X191.946 Y86.945
G1 X187.452 Y83.395
G1 X183.250 Y80.296
G1 X179.342 Y77.649
G1 X175.731 Y75.454
G1 X172.421 Y73.712
G1 X169.415 Y72.422
G1 X166.716 Y71.585
G1 X164.329 Y71.201
G1 X162.256 Y71.271
G1 X160.500 Y71.794
G1 X159.066 Y72.771
G1 X157.956 Y74.202
G1 X157.174 Y76.088
G1 X156.723 Y78.428
G1 X156.607 Y81.223
G1 X156.829 Y84.473
G1 X157.392 Y88.179
G1 X158.300 Y92.340
G1 X159.117 Y95.372
G1 X160.048 Y98.316
G1 X161.080 Y101.160
G1 X162.203 Y103.890
G1 X163.407 Y106.494
G1 X164.680 Y108.959
G1 X166.011 Y111.274
G1 X167.390 Y113.424
G1 X168.807 Y115.399
G1 X170.249 Y117.184
G1 X171.706 Y118.767
G1 X173.168 Y120.136
G1 X174.623 Y121.279
G1 X176.061 Y122.181
G1 X177.471 Y122.832
G1 X178.842 Y123.217
G1 X180.164 Y123.326
G1 X181.424 Y123.144
G1 X182.613 Y122.660
G1 X183.720 Y121.860
G1 X184.057 Y121.545
G1 X184.360 Y121.237
G1 X184.629 Y120.934
G1 X184.865 Y120.634
G1 X185.067 Y120.335
G1 X185.235 Y120.034
G1 X185.371 Y119.728
G1 X185.473 Y119.417
G1 X185.542 Y119.096
G1 X185.578 Y118.765
G1 X185.581 Y118.421
G1 X185.551 Y118.061
G1 X185.489 Y117.683
G1 X185.394 Y117.285
G1 X185.267 Y116.865
G1 X185.108 Y116.420
G1 X184.916 Y115.949
G1 X184.693 Y115.448
G1 X184.437 Y114.916
G1 X184.150 Y114.350
G1 X184.004 Y114.080
G1 X183.853 Y113.820
G1 X183.696 Y113.573
G1 X183.535 Y113.337
G1 X183.368 Y113.113
G1 X183.197 Y112.901
G1 X183.022 Y112.703
G1 X182.843 Y112.517
G1 X182.661 Y112.344
G1 X182.476 Y112.185
G1 X182.289 Y112.040
G1 X182.099 Y111.908
G1 X181.907 Y111.792
G1 X181.714 Y111.689
G1 X181.519 Y111.602
G1 X181.323 Y111.530
G1 X181.127 Y111.474
G1 X180.931 Y111.433
G1 X180.735 Y111.408
G1 X180.540 Y111.400
G1 X180.239 Y111.407
G1 X179.968 Y111.428
G1 X179.728 Y111.467
G1 X179.518 Y111.525
G1 X179.339 Y111.603
G1 X179.189 Y111.704
G1 X179.070 Y111.831
G1 X178.980 Y111.984
G1 X178.920 Y112.166
G1 X178.889 Y112.379
G1 X178.887 Y112.625
G1 X178.915 Y112.906
G1 X178.972 Y113.223
G1 X179.057 Y113.580
G1 X179.172 Y113.978
G1 X179.315 Y114.418
G1 X179.486 Y114.904
G1 X179.686 Y115.436
G1 X179.914 Y116.018
G1 X180.170 Y116.650
G1 X180.333 Y117.112
G1 X180.412 Y117.504
G1 X180.415 Y117.829
G1 X180.345 Y118.089
G1 X180.207 Y118.284
G1 X180.007 Y118.416
G1 X179.749 Y118.487
G1 X179.439 Y118.499
G1 X179.081 Y118.453
G1 X178.681 Y118.350
G1 X178.244 Y118.192
G1 X177.774 Y117.981
G1 X177.277 Y117.718
G1 X176.757 Y117.405
G1 X176.220 Y117.044
G1 X175.670 Y116.635
G1 X175.114 Y116.181
G1 X174.555 Y115.682
G1 X173.999 Y115.142
G1 X173.450 Y114.560
G1 X172.335 Y113.220
G1 X171.229 Y111.688
G1 X170.140 Y109.986
G1 X169.075 Y108.136
G1 X168.041 Y106.163
G1 X167.047 Y104.087
G1 X166.098 Y101.931
G1 X165.202 Y99.719
G1 X164.368 Y97.473
G1 X163.601 Y95.215
G1 X162.910 Y92.968
G1 X162.302 Y90.755
G1 X161.783 Y88.599
G1 X161.362 Y86.521
G1 X161.045 Y84.545
G1 X160.841 Y82.693
G1 X160.756 Y80.988
G1 X160.798 Y79.452
G1 X160.973 Y78.109
G1 X161.290 Y76.980
G1 X161.704 Y76.260
G1 X162.307 Y75.755
G1 X163.094 Y75.461
G1 X164.061 Y75.377
G1 X165.203 Y75.499
G1 X166.515 Y75.824
G1 X167.995 Y76.351
G1 X169.635 Y77.076
G1 X171.433 Y77.997
G1 X173.384 Y79.110
G1 X175.482 Y80.414
G1 X177.725 Y81.905
G1 X180.106 Y83.581
G1 X182.622 Y85.439
G1 X185.268 Y87.476
G1 X188.039 Y89.690
G1 X190.932 Y92.079
G1 X193.941 Y94.638
G1 X197.062 Y97.366
G1 X200.290 Y100.260
G1 X210.410 Y109.430
G1 X212.660 Y121.670
G1 X212.858 Y122.739
G1 X213.080 Y123.925
G1 X213.324 Y125.218
G1 X213.588 Y126.610
G1 X213.870 Y128.092
G1 X214.169 Y129.656
G1 X214.483 Y131.292
G1 X214.810 Y132.991
G1 X215.149 Y134.746
G1 X215.497 Y136.546
G1 X215.855 Y138.384
G1 X216.218 Y140.250
G1 X216.587 Y142.136
G1 X216.958 Y144.033
G1 X217.332 Y145.932
G1 X217.704 Y147.824
G1 X218.075 Y149.701
G1 X218.443 Y151.553
G1 X218.805 Y153.373
G1 X219.160 Y155.150
G1 X219.667 Y157.700
G1 X220.129 Y160.050
G1 X220.547 Y162.207
G1 X220.924 Y164.179
G1 X221.258 Y165.976
G1 X221.552 Y167.606
G1 X221.807 Y169.076
G1 X222.024 Y170.396
G1 X222.204 Y171.573
G1 X222.347 Y172.616
G1 X222.456 Y173.534
G1 X222.531 Y174.334
G1 X222.573 Y175.026
G1 X222.583 Y175.617
G1 X222.563 Y176.116
G1 X222.513 Y176.531
G1 X222.435 Y176.870
G1 X222.329 Y177.143
G1 X222.197 Y177.357
G1 X222.040 Y177.520
G1 X221.772 Y177.748
G1 X221.535 Y177.965
G1 X221.330 Y178.176
G1 X221.159 Y178.385
G1 X221.022 Y178.597
G1 X220.920 Y178.816
G1 X220.855 Y179.048
G1 X220.828 Y179.297
G1 X220.840 Y179.568
G1 X220.891 Y179.865
G1 X220.983 Y180.193
G1 X221.118 Y180.558
G1 X221.295 Y180.963
G1 X221.516 Y181.413
G1 X221.783 Y181.913
G1 X222.095 Y182.468
G1 X222.455 Y183.083
G1 X222.864 Y183.761
G1 X223.322 Y184.509
G1 X223.830 Y185.330
G1 X224.272 Y186.027
G1 X224.699 Y186.672
G1 X225.113 Y187.266
G1 X225.513 Y187.807
G1 X225.900 Y188.297
G1 X226.273 Y188.736
G1 X226.633 Y189.123
G1 X226.979 Y189.458
G1 X227.312 Y189.742
G1 X227.632 Y189.975
G1 X227.939 Y190.156
G1 X228.234 Y190.286
G1 X228.515 Y190.365
G1 X228.783 Y190.393
G1 X229.039 Y190.370
G1 X229.282 Y190.296
G1 X229.512 Y190.171
G1 X229.731 Y189.995
G1 X229.936 Y189.768
G1 X230.130 Y189.490
G1 X230.165 Y189.362
G1 X230.176 Y189.132
G1 X230.165 Y188.806
G1 X230.132 Y188.388
G1 X230.078 Y187.882
G1 X230.004 Y187.293
G1 X229.910 Y186.625
G1 X229.798 Y185.882
G1 X229.668 Y185.069
G1 X229.520 Y184.190
G1 X229.356 Y183.249
G1 X229.176 Y182.252
G1 X228.981 Y181.201
G1 X228.772 Y180.103
G1 X228.549 Y178.960
G1 X228.314 Y177.778
G1 X228.067 Y176.560
G1 X227.808 Y175.312
G1 X227.539 Y174.037
G1 X227.260 Y172.740
G1 X225.516 Y164.556
G1 X223.813 Y156.326
G1 X222.160 Y148.103
G1 X220.566 Y139.938
G1 X219.037 Y131.884
G1 X217.583 Y123.992
G1 X216.212 Y116.316
G1 X214.931 Y108.907
G1 X213.749 Y101.818
G1 X212.674 Y95.100
G1 X211.714 Y88.806
G1 X210.877 Y82.988
G1 X210.172 Y77.699
G1 X209.606 Y72.990
G1 X209.188 Y68.914
G1 X208.926 Y65.522
G1 X208.828 Y62.868
G1 X208.902 Y61.003
G1 X209.157 Y59.980
G1 X209.600 Y59.850
G1 X209.706 Y59.955
G1 X209.870 Y60.174
G1 X210.090 Y60.502
G1 X210.361 Y60.935
G1 X210.683 Y61.467
G1 X211.052 Y62.094
G1 X211.465 Y62.811
G1 X211.920 Y63.613
G1 X212.415 Y64.496
G1 X212.946 Y65.454
G1 X213.511 Y66.482
G1 X214.108 Y67.577
G1 X214.733 Y68.733
G1 X215.384 Y69.945
G1 X216.059 Y71.208
G1 X216.754 Y72.518
G1 X217.468 Y73.871
G1 X218.197 Y75.260
G1 X218.938 Y76.681
G1 X219.690 Y78.130
G1 X221.865 Y82.315
G1 X223.905 Y86.201
G1 X225.818 Y89.797
G1 X227.608 Y93.111
G1 X229.282 Y96.154
G1 X230.847 Y98.934
G1 X232.308 Y101.460
G1 X233.671 Y103.742
G1 X234.943 Y105.789
G1 X236.130 Y107.610
G1 X237.237 Y109.214
G1 X238.272 Y110.610
G1 X239.239 Y111.807
G1 X240.146 Y112.816
G1 X240.997 Y113.643
G1 X241.801 Y114.300
G1 X242.561 Y114.795
G1 X243.286 Y115.137
G1 X243.980 Y115.336
G1 X244.650 Y115.400
G1 X245.156 Y115.368
G1 X245.623 Y115.271
G1 X246.052 Y115.109
G1 X246.444 Y114.880
G1 X246.797 Y114.584
G1 X247.113 Y114.219
G1 X247.392 Y113.785
G1 X247.633 Y113.280
G1 X247.837 Y112.704
G1 X248.005 Y112.056
G1 X248.136 Y111.335
G1 X248.231 Y110.540
G1 X248.289 Y109.670
G1 X248.311 Y108.724
G1 X248.298 Y107.701
G1 X248.249 Y106.600
G1 X248.164 Y105.420
G1 X248.044 Y104.161
G1 X247.890 Y102.821
G1 X247.700 Y101.400
G1 X247.406 Y99.297
G1 X247.137 Y97.340
G1 X246.895 Y95.525
G1 X246.678 Y93.848
G1 X246.487 Y92.306
G1 X246.320 Y90.893
G1 X246.178 Y89.605
G1 X246.061 Y88.439
G1 X245.968 Y87.391
G1 X245.899 Y86.455
G1 X245.853 Y85.628
G1 X245.831 Y84.906
G1 X245.832 Y84.285
G1 X245.855 Y83.760
G1 X245.901 Y83.327
G1 X245.970 Y82.982
G1 X246.060 Y82.721
G1 X246.172 Y82.540
G1 X246.305 Y82.434
G1 X246.460 Y82.400
G1 X246.888 Y82.535
G1 X247.467 Y82.926
G1 X248.182 Y83.550
G1 X249.017 Y84.387
G1 X249.956 Y85.415
G1 X250.983 Y86.611
G1 X252.083 Y87.954
G1 X253.240 Y89.423
G1 X254.437 Y90.996
G1 X255.660 Y92.650
G1 X256.892 Y94.365
G1 X258.118 Y96.118
G1 X259.321 Y97.888
G1 X260.486 Y99.654
G1 X261.597 Y101.393
G1 X262.638 Y103.084
G1 X263.594 Y104.704
G1 X264.448 Y106.233
G1 X265.186 Y107.649
G1 X265.790 Y108.930
G1 X266.585 Y110.556
G1 X267.443 Y111.998
G1 X268.354 Y113.259
G1 X269.309 Y114.337
G1 X270.296 Y115.235
G1 X271.307 Y115.953
G1 X272.331 Y116.492
G1 X273.359 Y116.853
G1 X274.381 Y117.036
G1 X275.386 Y117.043
G1 X276.366 Y116.873
G1 X277.309 Y116.528
G1 X278.207 Y116.009
G1 X279.049 Y115.316
G1 X279.826 Y114.451
G1 X280.527 Y113.414
G1 X281.143 Y112.205
G1 X281.664 Y110.826
G1 X282.079 Y109.277
G1 X282.380 Y107.560
G1 X282.940 Y103.400
G1 X289.060 Y103.450
G1 X289.591 Y103.463
G1 X290.169 Y103.492
G1 X290.790 Y103.536
G1 X291.451 Y103.595
G1 X292.148 Y103.668
G1 X292.877 Y103.755
G1 X293.633 Y103.855
G1 X294.412 Y103.966
G1 X295.212 Y104.089
G1 X296.027 Y104.222
G1 X296.855 Y104.366
G1 X297.690 Y104.519
G1 X298.529 Y104.681
G1 X299.368 Y104.851
G1 X300.203 Y105.028
G1 X301.030 Y105.212
G1 X301.845 Y105.401
G1 X302.645 Y105.596
G1 X303.424 Y105.796
G1 X304.180 Y106.000
G1 X304.927 Y106.207
G1 X305.680 Y106.413
G1 X306.435 Y106.617
G1 X307.191 Y106.820
G1 X307.943 Y107.018
G1 X308.688 Y107.213
G1 X309.423 Y107.404
G1 X310.144 Y107.588
G1 X310.849 Y107.766
G1 X311.534 Y107.938
G1 X312.195 Y108.101
G1 X312.831 Y108.255
G1 X313.436 Y108.400
G1 X314.009 Y108.534
G1 X314.545 Y108.658
G1 X315.042 Y108.769
G1 X315.497 Y108.868
G1 X315.905 Y108.953
G1 X316.264 Y109.024
G1 X316.570 Y109.080
G1 X317.130 Y109.180
G1 X317.631 Y109.275
G1 X318.073 Y109.350
G1 X318.456 Y109.394
G1 X318.779 Y109.392
G1 X319.043 Y109.332
G1 X319.246 Y109.201
G1 X319.389 Y108.985
G1 X319.471 Y108.672
G1 X319.493 Y108.248
G1 X319.453 Y107.700
G1 X319.352 Y107.015
G1 X319.190 Y106.180
G1 X318.966 Y105.183
G1 X318.679 Y104.009
G1 X318.331 Y102.646
G1 X317.920 Y101.081
G1 X317.446 Y99.300
G1 X316.910 Y97.291
G1 X316.310 Y95.040
G1 X315.929 Y93.576
G1 X315.576 Y92.155
G1 X315.253 Y90.780
G1 X314.960 Y89.454
G1 X314.697 Y88.180
G1 X314.464 Y86.959
G1 X314.262 Y85.795
G1 X314.090 Y84.690
G1 X313.949 Y83.646
G1 X313.840 Y82.668
G1 X313.762 Y81.756
G1 X313.716 Y80.914
G1 X313.702 Y80.144
G1 X313.720 Y79.449
G1 X313.770 Y78.832
G1 X313.854 Y78.294
G1 X313.970 Y77.840
G1 X314.120 Y77.471
G1 X314.303 Y77.190
G1 X314.520 Y77.000
G1 X314.794 Y76.881
G1 X315.107 Y76.844
G1 X315.464 Y76.895
G1 X315.870 Y77.040
G1 X316.329 Y77.283
G1 X316.847 Y77.629
G1 X317.430 Y78.085
G1 X318.081 Y78.654
G1 X318.806 Y79.342
G1 X319.610 Y80.155
G1 X320.498 Y81.097
G1 X321.475 Y82.175
G1 X322.546 Y83.392
G1 X323.717 Y84.754
G1 X324.991 Y86.267
G1 X326.374 Y87.936
G1 X327.872 Y89.765
G1 X329.489 Y91.760
G1 X331.230 Y93.927
G1 X333.100 Y96.270
G1 X335.795 Y99.640
G1 X338.295 Y102.728
G1 X340.609 Y105.543
G1 X342.748 Y108.094
G1 X344.721 Y110.387
G1 X346.537 Y112.432
G1 X348.207 Y114.235
G1 X349.741 Y115.807
G1 X351.148 Y117.153
G1 X352.437 Y118.284
G1 X353.620 Y119.206
G1 X354.705 Y119.928
G1 X355.702 Y120.458
G1 X356.622 Y120.804
G1 X357.473 Y120.974
G1 X358.266 Y120.976
G1 X359.010 Y120.819
G1 X359.716 Y120.510
G1 X360.393 Y120.058
G1 X361.050 Y119.470
G1 X361.336 Y119.175
G1 X361.595 Y118.886
G1 X361.827 Y118.593
G1 X362.035 Y118.286
G1 X362.219 Y117.955
G1 X362.379 Y117.591
G1 X362.518 Y117.184
G1 X362.637 Y116.723
G1 X362.736 Y116.199
G1 X362.816 Y115.603
G1 X362.879 Y114.923
G1 X362.926 Y114.150
G1 X362.958 Y113.274
G1 X362.976 Y112.286
G1 X362.981 Y111.176
G1 X362.974 Y109.933
G1 X362.956 Y108.548
G1 X362.929 Y107.011
G1 X362.893 Y105.311
G1 X362.850 Y103.440
G1 X362.807 Y101.348
G1 X362.781 Y99.414
G1 X362.774 Y97.633
G1 X362.785 Y96.000
G1 X362.817 Y94.508
G1 X362.871 Y93.153
G1 X362.947 Y91.929
G1 X363.047 Y90.830
G1 X363.173 Y89.851
G1 X363.324 Y88.986
G1 X363.502 Y88.230
G1 X363.709 Y87.577
G1 X363.945 Y87.021
G1 X364.212 Y86.558
G1 X364.511 Y86.181
G1 X364.842 Y85.885
G1 X365.208 Y85.665
G1 X365.609 Y85.514
G1 X366.046 Y85.428
G1 X366.520 Y85.400
G1 X367.036 Y85.442
G1 X367.612 Y85.566
G1 X368.245 Y85.771
G1 X368.933 Y86.055
G1 X369.676 Y86.418
G1 X370.470 Y86.857
G1 X371.313 Y87.372
G1 X372.205 Y87.960
G1 X373.143 Y88.621
G1 X374.125 Y89.352
G1 X375.149 Y90.153
G1 X376.214 Y91.022
G1 X377.317 Y91.958
G1 X378.457 Y92.959
G1 X379.632 Y94.023
G1 X380.839 Y95.150
G1 X382.078 Y96.337
G1 X383.345 Y97.584
G1 X384.640 Y98.889
G1 X385.960 Y100.250
G1 X387.179 Y101.509
G1 X388.325 Y102.671
G1 X389.397 Y103.738
G1 X390.397 Y104.708
G1 X391.327 Y105.584
G1 X392.187 Y106.367
G1 X392.980 Y107.056
G1 X393.706 Y107.654
G1 X394.366 Y108.160
G1 X394.963 Y108.575
G1 X395.496 Y108.901
G1 X395.968 Y109.138
G1 X396.380 Y109.286
G1 X396.732 Y109.348
G1 X397.027 Y109.323
G1 X397.266 Y109.213
G1 X397.449 Y109.017
G1 X397.578 Y108.738
G1 X397.655 Y108.375
G1 X397.680 Y107.930
G1 X397.590 Y107.502
G1 X397.328 Y106.919
G1 X396.907 Y106.198
G1 X396.342 Y105.352
G1 X395.646 Y104.397
G1 X394.832 Y103.348
G1 X393.914 Y102.218
G1 X392.905 Y101.024
G1 X391.819 Y99.780
G1 X390.669 Y98.500
G1 X389.469 Y97.200
G1 X388.232 Y95.894
G1 X386.972 Y94.598
G1 X385.703 Y93.326
G1 X384.437 Y92.093
G1 X383.189 Y90.913
G1 X381.972 Y89.803
G1 X380.799 Y88.775
G1 X379.684 Y87.846
G1 X378.640 Y87.030
G1 X377.337 Y86.078
G1 X376.080 Y85.215
G1 X374.867 Y84.441
G1 X373.699 Y83.755
G1 X372.574 Y83.158
G1 X371.490 Y82.649
G1 X370.449 Y82.228
G1 X369.448 Y81.895
G1 X368.486 Y81.650
G1 X367.564 Y81.492
G1 X366.679 Y81.423
G1 X365.832 Y81.441
G1 X365.021 Y81.547
G1 X364.245 Y81.740
G1 X363.505 Y82.021
G1 X362.797 Y82.389
G1 X362.123 Y82.844
G1 X361.481 Y83.386
G1 X360.870 Y84.014
G1 X360.290 Y84.730
G1 X360.010 Y85.114
G1 X359.755 Y85.489
G1 X359.527 Y85.863
G1 X359.322 Y86.247
G1 X359.141 Y86.650
G1 X358.982 Y87.084
G1 X358.844 Y87.559
G1 X358.726 Y88.083
G1 X358.627 Y88.668
G1 X358.546 Y89.324
G1 X358.482 Y90.060
G1 X358.434 Y90.887
G1 X358.400 Y91.814
G1 X358.380 Y92.853
G1 X358.373 Y94.013
G1 X358.378 Y95.303
G1 X358.393 Y96.735
G1 X358.417 Y98.319
G1 X358.450 Y100.064
G1 X358.490 Y101.980
G1 X358.526 Y103.724
G1 X358.554 Y105.326
G1 X358.575 Y106.793
G1 X358.587 Y108.130
G1 X358.592 Y109.342
G1 X358.587 Y110.435
G1 X358.573 Y111.415
G1 X358.549 Y112.287
G1 X358.515 Y113.058
G1 X358.470 Y113.731
G1 X358.414 Y114.314
G1 X358.347 Y114.812
G1 X358.267 Y115.230
G1 X358.176 Y115.574
G1 X358.071 Y115.850
G1 X357.953 Y116.063
G1 X357.821 Y116.219
G1 X357.676 Y116.323
G1 X357.515 Y116.382
G1 X357.340 Y116.400
G1 X357.010 Y116.340
G1 X356.601 Y116.161
G1 X356.113 Y115.863
G1 X355.548 Y115.447
G1 X354.906 Y114.912
G1 X354.188 Y114.261
G1 X353.392 Y113.493
G1 X352.521 Y112.608
G1 X351.575 Y111.608
G1 X350.554 Y110.492
G1 X349.458 Y109.262
G1 X348.288 Y107.918
G1 X347.045 Y106.459
G1 X345.728 Y104.888
G1 X344.339 Y103.204
G1 X342.878 Y101.407
G1 X341.345 Y99.499
G1 X339.741 Y97.480
G1 X338.065 Y95.350
G1 X336.320 Y93.110
G1 X334.150 Y90.336
G1 X332.113 Y87.781
G1 X330.201 Y85.440
G1 X328.411 Y83.309
G1 X326.734 Y81.382
G1 X325.166 Y79.656
G1 X323.701 Y78.126
G1 X322.332 Y76.787
G1 X321.053 Y75.634
G1 X319.859 Y74.664
G1 X318.743 Y73.871
G1 X317.700 Y73.251
G1 X316.724 Y72.799
G1 X315.808 Y72.512
G1 X314.946 Y72.383
G1 X314.134 Y72.410
G1 X313.364 Y72.586
G1 X312.630 Y72.908
G1 X311.928 Y73.371
G1 X311.250 Y73.970
G1 X310.894 Y74.392
G1 X310.578 Y74.904
G1 X310.302 Y75.501
G1 X310.066 Y76.182
G1 X309.871 Y76.942
G1 X309.715 Y77.779
G1 X309.600 Y78.689
G1 X309.524 Y79.669
G1 X309.488 Y80.717
G1 X309.492 Y81.829
G1 X309.536 Y83.001
G1 X309.620 Y84.231
G1 X309.743 Y85.516
G1 X309.906 Y86.852
G1 X310.108 Y88.236
G1 X310.350 Y89.666
G1 X310.631 Y91.137
G1 X310.951 Y92.647
G1 X311.311 Y94.192
G1 X311.710 Y95.770
G1 X311.860 Y96.349
G1 X312.005 Y96.918
G1 X312.144 Y97.475
G1 X312.277 Y98.018
G1 X312.403 Y98.545
G1 X312.522 Y99.055
G1 X312.633 Y99.544
G1 X312.736 Y100.012
G1 X312.831 Y100.456
G1 X312.917 Y100.874
G1 X312.995 Y101.264
G1 X313.062 Y101.625
G1 X313.120 Y101.954
G1 X313.167 Y102.250
G1 X313.203 Y102.510
G1 X313.229 Y102.733
G1 X313.242 Y102.916
G1 X313.244 Y103.058
G1 X313.233 Y103.157
G1 X313.210 Y103.210
G1 X313.152 Y103.233
G1 X313.041 Y103.242
G1 X312.879 Y103.237
G1 X312.668 Y103.220
G1 X312.410 Y103.189
G1 X312.108 Y103.147
G1 X311.764 Y103.093
G1 X311.380 Y103.028
G1 X310.959 Y102.951
G1 X310.502 Y102.865
G1 X310.013 Y102.769
G1 X309.493 Y102.663
G1 X308.945 Y102.548
G1 X308.371 Y102.425
G1 X307.773 Y102.293
G1 X307.154 Y102.154
G1 X306.516 Y102.008
G1 X305.861 Y101.855
G1 X305.192 Y101.695
G1 X304.510 Y101.530
G1 X303.806 Y101.360
G1 X303.069 Y101.190
G1 X302.305 Y101.019
G1 X301.516 Y100.850
G1 X300.708 Y100.682
G1 X299.884 Y100.516
G1 X299.049 Y100.354
G1 X298.205 Y100.194
G1 X297.359 Y100.040
G1 X296.513 Y99.890
G1 X295.671 Y99.746
G1 X294.838 Y99.608
G1 X294.018 Y99.478
G1 X293.215 Y99.355
G1 X292.433 Y99.241
G1 X291.676 Y99.135
G1 X290.948 Y99.040
G1 X290.253 Y98.955
G1 X289.596 Y98.882
G1 X288.980 Y98.820
G1 X287.992 Y98.727
G1 X287.097 Y98.639
G1 X286.291 Y98.554
G1 X285.566 Y98.468
G1 X284.919 Y98.380
G1 X284.343 Y98.287
G1 X283.833 Y98.186
G1 X283.383 Y98.075
G1 X282.989 Y97.951
G1 X282.644 Y97.812
G1 X282.343 Y97.656
G1 X282.080 Y97.480
G1 X281.851 Y97.281
G1 X281.649 Y97.058
G1 X281.469 Y96.806
G1 X281.306 Y96.525
G1 X281.154 Y96.211
G1 X281.008 Y95.862
G1 X280.862 Y95.476
G1 X280.710 Y95.050
G1 X280.160 Y93.711
G1 X279.478 Y92.447
G1 X278.679 Y91.261
G1 X277.778 Y90.159
G1 X276.787 Y89.147
G1 X275.722 Y88.228
G1 X274.596 Y87.408
G1 X273.423 Y86.693
G1 X272.218 Y86.086
G1 X270.995 Y85.594
G1 X269.768 Y85.220
G1 X268.550 Y84.971
G1 X267.356 Y84.850
G1 X266.201 Y84.864
G1 X265.098 Y85.016
G1 X264.061 Y85.313
G1 X263.105 Y85.759
G1 X262.243 Y86.358
G1 X261.490 Y87.117
G1 X260.860 Y88.040
G1 X260.731 Y88.255
G1 X260.600 Y88.439
G1 X260.464 Y88.588
G1 X260.320 Y88.701
G1 X260.166 Y88.776
G1 X259.997 Y88.811
G1 X259.811 Y88.805
G1 X259.606 Y88.756
G1 X259.377 Y88.661
G1 X259.123 Y88.519
G1 X258.839 Y88.328
G1 X258.524 Y88.086
G1 X258.173 Y87.792
G1 X257.785 Y87.443
G1 X257.356 Y87.037
G1 X256.882 Y86.574
G1 X256.362 Y86.050
G1 X255.792 Y85.464
G1 X255.169 Y84.815
G1 X254.490 Y84.100
G1 X253.856 Y83.433
G1 X253.260 Y82.818
G1 X252.700 Y82.252
G1 X252.172 Y81.733
G1 X251.674 Y81.260
G1 X251.203 Y80.831
G1 X250.757 Y80.444
G1 X250.332 Y80.098
G1 X249.926 Y79.789
G1 X249.536 Y79.517
G1 X249.160 Y79.280
G1 X248.793 Y79.076
G1 X248.435 Y78.902
G1 X248.081 Y78.758
G1 X247.730 Y78.641
G1 X247.378 Y78.549
G1 X247.023 Y78.481
G1 X246.662 Y78.435
G1 X246.292 Y78.408
G1 X245.910 Y78.400
G1 X245.339 Y78.419
G1 X244.815 Y78.477
G1 X244.335 Y78.578
G1 X243.899 Y78.725
G1 X243.506 Y78.920
G1 X243.155 Y79.167
G1 X242.845 Y79.469
G1 X242.575 Y79.828
G1 X242.344 Y80.249
G1 X242.151 Y80.733
G1 X241.995 Y81.283
G1 X241.875 Y81.904
G1 X241.790 Y82.597
G1 X241.739 Y83.366
G1 X241.721 Y84.213
G1 X241.735 Y85.143
G1 X241.779 Y86.157
G1 X241.854 Y87.260
G1 X241.958 Y88.453
G1 X242.090 Y89.740
G1 X242.368 Y92.307
G1 X242.618 Y94.650
G1 X242.839 Y96.778
G1 X243.032 Y98.699
G1 X243.198 Y100.423
G1 X243.335 Y101.957
G1 X243.444 Y103.313
G1 X243.526 Y104.497
G1 X243.580 Y105.519
G1 X243.608 Y106.387
G1 X243.607 Y107.112
G1 X243.580 Y107.700
G1 X243.527 Y108.162
G1 X243.446 Y108.506
G1 X243.339 Y108.741
G1 X243.205 Y108.876
G1 X243.045 Y108.919
G1 X242.860 Y108.880
G1 X242.648 Y108.768
G1 X242.410 Y108.590
G1 X242.040 Y108.242
G1 X241.613 Y107.765
G1 X241.129 Y107.158
G1 X240.589 Y106.422
G1 X239.991 Y105.557
G1 X239.337 Y104.561
G1 X238.625 Y103.436
G1 X237.857 Y102.180
G1 X237.031 Y100.794
G1 X236.148 Y99.277
G1 X235.207 Y97.630
G1 X234.208 Y95.852
G1 X233.153 Y93.944
G1 X232.039 Y91.904
G1 X230.868 Y89.732
G1 X229.638 Y87.429
G1 X228.351 Y84.995
G1 X227.005 Y82.429
G1 X225.602 Y79.730
G1 X224.140 Y76.900
G1 X223.416 Y75.500
G1 X222.692 Y74.109
G1 X221.971 Y72.733
G1 X221.255 Y71.375
G1 X220.548 Y70.043
G1 X219.853 Y68.741
G1 X219.173 Y67.474
G1 X218.510 Y66.248
G1 X217.867 Y65.068
G1 X217.247 Y63.940
G1 X216.654 Y62.868
G1 X216.090 Y61.858
G1 X215.559 Y60.916
G1 X215.062 Y60.046
G1 X214.603 Y59.254
G1 X214.185 Y58.546
G1 X213.811 Y57.926
G1 X213.483 Y57.400
G1 X213.205 Y56.973
G1 X212.980 Y56.650
G1 X212.580 Y56.142
G1 X212.161 Y55.674
G1 X211.727 Y55.247
G1 X211.282 Y54.863
G1 X210.828 Y54.520
G1 X210.369 Y54.221
G1 X209.908 Y53.966
G1 X209.449 Y53.755
G1 X208.996 Y53.590
G1 X208.550 Y53.471
G1 X208.116 Y53.399
G1 X207.697 Y53.375
G1 X207.297 Y53.399
G1 X206.918 Y53.472
G1 X206.565 Y53.594
G1 X206.240 Y53.767
G1 X205.946 Y53.992
G1 X205.688 Y54.268
G1 X205.468 Y54.597
G1 X205.290 Y54.980
G1 X274.343 Y93.132
G1 X274.843 Y93.728
G1 X275.281 Y94.298
G1 X275.656 Y94.843
G1 X275.968 Y95.364
G1 X276.218 Y95.862
G1 X276.404 Y96.339
G1 X276.528 Y96.795
G1 X276.589 Y97.231
G1 X276.586 Y97.649
G1 X276.520 Y98.048
G1 X276.391 Y98.431
G1 X276.199 Y98.798
G1 X275.943 Y99.151
G1 X275.624 Y99.489
G1 X275.240 Y99.815
G1 X274.794 Y100.129
G1 X274.283 Y100.432
G1 X273.708 Y100.725
G1 X273.070 Y101.010
G1 X272.775 Y101.132
G1 X272.484 Y101.250
G1 X272.199 Y101.363
G1 X271.921 Y101.470
G1 X271.650 Y101.572
G1 X271.387 Y101.667
G1 X271.134 Y101.757
G1 X270.892 Y101.840
G1 X270.662 Y101.916
G1 X270.444 Y101.985
G1 X270.240 Y102.046
G1 X270.050 Y102.100
G1 X269.877 Y102.146
G1 X269.720 Y102.183
G1 X269.581 Y102.211
G1 X269.461 Y102.230
G1 X269.361 Y102.240
G1 X269.282 Y102.240
G1 X269.224 Y102.230
G1 X269.190 Y102.210
G1 X268.981 Y101.942
G1 X268.748 Y101.590
G1 X268.493 Y101.164
G1 X268.222 Y100.672
G1 X267.937 Y100.125
G1 X267.643 Y99.531
G1 X267.343 Y98.899
G1 X267.041 Y98.239
G1 X266.741 Y97.560
G1 X266.447 Y96.870
G1 X266.164 Y96.180
G1 X265.893 Y95.497
G1 X265.640 Y94.833
G1 X265.408 Y94.195
G1 X265.202 Y93.593
G1 X265.024 Y93.035
G1 X264.879 Y92.532
G1 X264.771 Y92.093
G1 X264.703 Y91.725
G1 X264.680 Y91.440
G1 X264.721 Y90.962
G1 X264.839 Y90.543
G1 X265.029 Y90.184
G1 X265.286 Y89.884
G1 X265.603 Y89.641
G1 X265.975 Y89.456
G1 X266.396 Y89.327
G1 X266.861 Y89.255
G1 X267.364 Y89.238
G1 X267.899 Y89.275
G1 X268.460 Y89.366
G1 X269.043 Y89.511
G1 X269.641 Y89.709
G1 X270.249 Y89.958
G1 X270.860 Y90.259
G1 X271.470 Y90.610
G1 X272.073 Y91.012
G1 X272.663 Y91.463
G1 X273.233 Y91.962
G1 X273.780 Y92.510
G1 X278.676 Y105.330
G1 X278.665 Y105.430
G1 X278.648 Y105.548
G1 X278.623 Y105.683
G1 X278.592 Y105.834
G1 X278.555 Y106.000
G1 X278.513 Y106.180
G1 X278.464 Y106.372
G1 X278.411 Y106.577
G1 X278.353 Y106.792
G1 X278.289 Y107.018
G1 X278.222 Y107.252
G1 X278.151 Y107.493
G1 X278.075 Y107.741
G1 X277.997 Y107.995
G1 X277.915 Y108.253
G1 X277.830 Y108.515
G1 X277.742 Y108.779
G1 X277.652 Y109.044
G1 X277.560 Y109.310
G1 X277.433 Y109.663
G1 X277.306 Y109.990
G1 X277.180 Y110.293
G1 X277.052 Y110.571
G1 X276.923 Y110.825
G1 X276.791 Y111.056
G1 X276.657 Y111.264
G1 X276.518 Y111.450
G1 X276.375 Y111.616
G1 X276.227 Y111.760
G1 X276.074 Y111.884
G1 X275.913 Y111.989
G1 X275.746 Y112.075
G1 X275.570 Y112.143
G1 X275.386 Y112.193
G1 X275.192 Y112.226
G1 X274.989 Y112.242
G1 X274.774 Y112.243
G1 X274.548 Y112.229
G1 X274.310 Y112.200
G1 X274.067 Y112.161
G1 X273.843 Y112.114
G1 X273.637 Y112.058
G1 X273.449 Y111.994
G1 X273.277 Y111.919
G1 X273.122 Y111.833
G1 X272.983 Y111.736
G1 X272.859 Y111.625
G1 X272.751 Y111.501
G1 X272.656 Y111.363
G1 X272.576 Y111.208
G1 X272.509 Y111.038
G1 X272.454 Y110.850
G1 X272.412 Y110.644
G1 X272.382 Y110.420
G1 X272.363 Y110.175
G1 X272.355 Y109.910
G1 X272.357 Y109.623
G1 X272.369 Y109.313
G1 X272.390 Y108.980
G1 X272.412 Y108.740
G1 X272.442 Y108.499
G1 X272.479 Y108.259
G1 X272.524 Y108.021
G1 X272.575 Y107.785
G1 X272.633 Y107.554
G1 X272.696 Y107.327
G1 X272.765 Y107.105
G1 X272.840 Y106.891
G1 X272.919 Y106.684
G1 X273.002 Y106.485
G1 X273.090 Y106.297
G1 X273.181 Y106.118
G1 X273.276 Y105.952
G1 X273.373 Y105.798
G1 X273.473 Y105.657
G1 X273.575 Y105.531
G1 X273.679 Y105.421
G1 X273.784 Y105.327
G1 X273.890 Y105.250
G1 X274.155 Y105.096
G1 X274.437 Y104.958
G1 X274.734 Y104.837
G1 X275.041 Y104.732
G1 X275.356 Y104.642
G1 X275.674 Y104.570
G1 X275.994 Y104.513
G1 X276.310 Y104.472
G1 X276.621 Y104.448
G1 X276.922 Y104.440
G1 X277.211 Y104.448
G1 X277.484 Y104.472
G1 X277.737 Y104.513
G1 X277.967 Y104.570
G1 X278.171 Y104.643
G1 X278.345 Y104.732
G1 X278.487 Y104.837
G1 X278.592 Y104.958
G1 X278.657 Y105.096
G1 X278.680 Y105.250
G1 X260.490 Y121.151
G1 X260.296 Y121.452
G1 X260.147 Y121.742
G1 X260.043 Y122.020
G1 X259.982 Y122.286
G1 X259.965 Y122.539
G1 X259.991 Y122.779
G1 X260.059 Y123.005
G1 X260.169 Y123.216
G1 X260.320 Y123.411
G1 X260.512 Y123.591
G1 X260.744 Y123.755
G1 X261.016 Y123.901
G1 X261.328 Y124.030
G1 X261.678 Y124.140
G1 X262.066 Y124.232
G1 X262.492 Y124.305
G1 X262.955 Y124.357
G1 X263.454 Y124.389
G1 X263.990 Y124.400
G1 X264.261 Y124.408
G1 X264.548 Y124.429
G1 X264.848 Y124.462
G1 X265.161 Y124.506
G1 X265.484 Y124.562
G1 X265.817 Y124.629
G1 X266.156 Y124.705
G1 X266.501 Y124.792
G1 X266.849 Y124.887
G1 X267.200 Y124.991
G1 X267.551 Y125.104
G1 X267.900 Y125.224
G1 X268.247 Y125.351
G1 X268.588 Y125.485
G1 X268.923 Y125.625
G1 X269.250 Y125.771
G1 X269.567 Y125.921
G1 X269.872 Y126.077
G1 X270.163 Y126.237
G1 X270.440 Y126.400
G1 X270.877 Y126.674
G1 X271.287 Y126.949
G1 X271.674 Y127.231
G1 X272.040 Y127.524
G1 X272.388 Y127.833
G1 X272.722 Y128.163
G1 X273.045 Y128.519
G1 X273.359 Y128.906
G1 X273.667 Y129.329
G1 X273.974 Y129.792
G1 X274.281 Y130.301
G1 X274.592 Y130.860
G1 X274.910 Y131.475
G1 X275.239 Y132.149
G1 X275.580 Y132.888
G1 X275.937 Y133.698
G1 X276.314 Y134.581
G1 X276.713 Y135.545
G1 X277.137 Y136.593
G1 X277.590 Y137.730
G1 X277.851 Y138.343
G1 X278.113 Y138.867
G1 X278.373 Y139.303
G1 X278.631 Y139.651
G1 X278.884 Y139.913
G1 X279.133 Y140.091
G1 X279.374 Y140.186
G1 X279.608 Y140.198
G1 X279.832 Y140.129
G1 X280.046 Y139.980
G1 X280.248 Y139.753
G1 X280.437 Y139.448
G1 X280.611 Y139.067
G1 X280.769 Y138.611
G1 X280.910 Y138.082
G1 X281.033 Y137.479
G1 X281.135 Y136.806
G1 X281.216 Y136.062
G1 X281.275 Y135.250
G1 X281.310 Y134.370
G1 X281.329 Y133.720
G1 X281.355 Y133.116
G1 X281.388 Y132.555
G1 X281.429 Y132.033
G1 X281.480 Y131.549
G1 X281.542 Y131.098
G1 X281.615 Y130.678
G1 X281.702 Y130.286
G1 X281.801 Y129.920
G1 X281.916 Y129.575
G1 X282.047 Y129.250
G1 X282.195 Y128.940
G1 X282.361 Y128.645
G1 X282.546 Y128.359
G1 X282.751 Y128.081
G1 X282.978 Y127.808
G1 X283.227 Y127.536
G1 X283.500 Y127.263
G1 X283.797 Y126.985
G1 X284.120 Y126.700
G1 X284.351 Y126.509
G1 X284.595 Y126.322
G1 X284.852 Y126.141
G1 X285.119 Y125.965
G1 X285.397 Y125.796
G1 X285.682 Y125.634
G1 X285.974 Y125.480
G1 X286.272 Y125.333
G1 X286.573 Y125.195
G1 X286.877 Y125.066
G1 X287.183 Y124.947
G1 X287.489 Y124.838
G1 X287.793 Y124.740
G1 X288.095 Y124.653
G1 X288.392 Y124.578
G1 X288.684 Y124.515
G1 X288.969 Y124.466
G1 X289.246 Y124.430
G1 X289.514 Y124.407
G1 X289.770 Y124.400
G1 X290.227 Y124.383
G1 X290.663 Y124.332
G1 X291.076 Y124.251
G1 X291.465 Y124.141
G1 X291.828 Y124.004
G1 X292.164 Y123.843
G1 X292.470 Y123.660
G1 X292.745 Y123.458
G1 X292.986 Y123.238
G1 X293.194 Y123.002
G1 X293.365 Y122.754
G1 X293.497 Y122.495
G1 X293.590 Y122.227
G1 X293.642 Y121.953
G1 X293.650 Y121.675
G1 X293.613 Y121.395
G1 X293.529 Y121.115
G1 X293.397 Y120.838
G1 X293.214 Y120.565
G1 X292.980 Y120.300
G1 X292.666 Y120.058
G1 X292.271 Y119.872
G1 X291.801 Y119.740
G1 X291.266 Y119.658
G1 X290.673 Y119.626
G1 X290.030 Y119.641
G1 X289.345 Y119.701
G1 X288.627 Y119.804
G1 X287.883 Y119.948
G1 X287.121 Y120.130
G1 X286.350 Y120.349
G1 X285.578 Y120.602
G1 X284.812 Y120.888
G1 X284.060 Y121.204
G1 X283.332 Y121.549
G1 X282.634 Y121.919
G1 X281.975 Y122.314
G1 X281.362 Y122.730
G1 X280.805 Y123.166
G1 X280.310 Y123.620
G1 X279.900 Y124.028
G1 X279.529 Y124.393
G1 X279.194 Y124.718
G1 X278.889 Y125.001
G1 X278.613 Y125.245
G1 X278.361 Y125.450
G1 X278.129 Y125.615
G1 X277.914 Y125.744
G1 X277.712 Y125.834
G1 X277.520 Y125.889
G1 X277.333 Y125.907
G1 X277.148 Y125.891
G1 X276.962 Y125.840
G1 X276.770 Y125.755
G1 X276.569 Y125.638
G1 X276.356 Y125.488
G1 X276.126 Y125.307
G1 X275.876 Y125.094
G1 X275.602 Y124.852
G1 X275.300 Y124.580
G1 X274.588 Y123.971
G1 X273.832 Y123.395
G1 X273.040 Y122.855
G1 X272.219 Y122.353
G1 X271.375 Y121.889
G1 X270.516 Y121.466
G1 X269.648 Y121.086
G1 X268.779 Y120.751
G1 X267.915 Y120.461
G1 X267.062 Y120.220
G1 X266.229 Y120.028
G1 X265.422 Y119.888
G1 X264.648 Y119.802
G1 X263.914 Y119.770
G1 X263.226 Y119.796
G1 X262.592 Y119.880
G1 X262.018 Y120.025
G1 X261.512 Y120.232
G1 X261.080 Y120.503
G1 X260.730 Y120.840
G1 X-45.947 Y127.757
G1 X-46.486 Y128.065
G1 X-47.015 Y128.440
G1 X-47.532 Y128.880
G1 X-48.035 Y129.380
G1 X-48.523 Y129.937
G1 X-48.992 Y130.546
G1 X-49.442 Y131.204
G1 X-49.870 Y131.908
G1 X-50.275 Y132.653
G1 X-50.654 Y133.435
G1 X-51.006 Y134.251
G1 X-51.328 Y135.098
G1 X-51.619 Y135.971
G1 X-51.877 Y136.866
G1 X-52.100 Y137.780
G1 X-52.285 Y138.709
G1 X-52.432 Y139.650
G1 X-52.537 Y140.598
G1 X-52.600 Y141.550
G1 X-52.622 Y142.156
G1 X-52.637 Y142.718
G1 X-52.644 Y143.238
G1 X-52.643 Y143.717
G1 X-52.634 Y144.158
G1 X-52.616 Y144.560
G1 X-52.589 Y144.927
G1 X-52.552 Y145.260
G1 X-52.504 Y145.560
G1 X-52.446 Y145.829
G1 X-52.377 Y146.068
G1 X-52.297 Y146.280
G1 X-52.205 Y146.465
G1 X-52.100 Y146.625
G1 X-51.983 Y146.763
G1 X-51.852 Y146.879
G1 X-51.708 Y146.975
G1 X-51.550 Y147.053
G1 X-51.377 Y147.114
G1 X-51.190 Y147.160
G1 X-51.002 Y147.189
G1 X-50.823 Y147.194
G1 X-50.654 Y147.172
G1 X-50.493 Y147.124
G1 X-50.340 Y147.046
G1 X-50.194 Y146.938
G1 X-50.054 Y146.797
G1 X-49.919 Y146.623
G1 X-49.790 Y146.413
G1 X-49.664 Y146.166
G1 X-49.541 Y145.881
G1 X-49.421 Y145.555
G1 X-49.303 Y145.188
G1 X-49.185 Y144.777
G1 X-49.068 Y144.321
G1 X-48.950 Y143.818
G1 X-48.831 Y143.267
G1 X-48.711 Y142.667
G1 X-48.587 Y142.015
G1 X-48.460 Y141.310
G1 X-48.186 Y139.903
G1 X-47.877 Y138.600
G1 X-47.535 Y137.403
G1 X-47.160 Y136.312
G1 X-46.755 Y135.329
G1 X-46.320 Y134.454
G1 X-45.856 Y133.688
G1 X-45.366 Y133.031
G1 X-44.849 Y132.486
G1 X-44.308 Y132.051
G1 X-43.742 Y131.729
G1 X-43.155 Y131.520
G1 X-42.547 Y131.425
G1 X-41.918 Y131.445
G1 X-41.271 Y131.580
G1 X-40.607 Y131.832
G1 X-39.926 Y132.201
G1 X-39.231 Y132.688
G1 X-38.522 Y133.294
G1 X-37.800 Y134.020
G1 X-37.595 Y134.251
G1 X-37.381 Y134.511
G1 X-37.161 Y134.797
G1 X-36.935 Y135.108
G1 X-36.704 Y135.442
G1 X-36.470 Y135.796
G1 X-36.234 Y136.169
G1 X-35.996 Y136.558
G1 X-35.758 Y136.962
G1 X-35.521 Y137.377
G1 X-35.287 Y137.804
G1 X-35.055 Y138.238
G1 X-34.829 Y138.679
G1 X-34.607 Y139.125
G1 X-34.393 Y139.572
G1 X-34.186 Y140.019
G1 X-33.988 Y140.465
G1 X-33.800 Y140.907
G1 X-33.624 Y141.342
G1 X-33.460 Y141.770
G1 X-33.257 Y142.301
G1 X-33.057 Y142.801
G1 X-32.861 Y143.268
G1 X-32.668 Y143.705
G1 X-32.478 Y144.111
G1 X-32.291 Y144.488
G1 X-32.105 Y144.835
G1 X-31.921 Y145.153
G1 X-31.737 Y145.442
G1 X-31.555 Y145.704
G1 X-31.373 Y145.938
G1 X-31.191 Y146.145
G1 X-31.008 Y146.327
G1 X-30.824 Y146.482
G1 X-30.639 Y146.612
G1 X-30.452 Y146.717
G1 X-30.263 Y146.798
G1 X-30.072 Y146.855
G1 X-29.878 Y146.889
G1 X-29.680 Y146.900
G1 X-29.319 Y146.873
G1 X-29.003 Y146.793
G1 X-28.733 Y146.661
G1 X-28.508 Y146.475
G1 X-28.329 Y146.237
G1 X-28.195 Y145.946
G1 X-28.107 Y145.604
G1 X-28.064 Y145.209
G1 X-28.066 Y144.763
G1 X-28.114 Y144.265
G1 X-28.206 Y143.716
G1 X-28.344 Y143.116
G1 X-28.527 Y142.465
G1 X-28.756 Y141.763
G1 X-29.029 Y141.011
G1 X-29.347 Y140.208
G1 X-29.710 Y139.356
G1 X-30.119 Y138.453
G1 X-30.572 Y137.501
G1 X-31.070 Y136.500
G1 X-31.668 Y135.375
G1 X-32.283 Y134.318
G1 X-32.913 Y133.330
G1 X-33.559 Y132.412
G1 X-34.219 Y131.563
G1 X-34.893 Y130.785
G1 X-35.580 Y130.077
G1 X-36.280 Y129.441
G1 X-36.991 Y128.876
G1 X-37.714 Y128.384
G1 X-38.447 Y127.964
G1 X-39.189 Y127.617
G1 X-39.941 Y127.343
G1 X-40.701 Y127.143
G1 X-41.469 Y127.018
G1 X-42.244 Y126.967
G1 X-43.025 Y126.991
G1 X-43.812 Y127.091
G1 X-44.604 Y127.267
G1 X-45.400 Y127.520
G1 X289.748 Y135.554
G1 X289.945 Y136.213
G1 X290.262 Y136.964
G1 X290.687 Y137.794
G1 X291.211 Y138.693
G1 X291.823 Y139.647
G1 X292.513 Y140.645
G1 X293.272 Y141.674
G1 X294.088 Y142.721
G1 X294.951 Y143.776
G1 X295.852 Y144.826
G1 X296.780 Y145.858
G1 X297.725 Y146.860
G1 X298.676 Y147.820
G1 X299.624 Y148.726
G1 X300.557 Y149.566
G1 X301.467 Y150.328
G1 X302.343 Y150.999
G1 X303.174 Y151.567
G1 X303.950 Y152.020
G1 X304.306 Y152.205
G1 X304.632 Y152.370
G1 X304.930 Y152.515
G1 X305.201 Y152.641
G1 X305.447 Y152.745
G1 X305.670 Y152.830
G1 X305.872 Y152.894
G1 X306.054 Y152.938
G1 X306.218 Y152.961
G1 X306.366 Y152.964
G1 X306.500 Y152.945
G1 X306.621 Y152.906
G1 X306.732 Y152.846
G1 X306.833 Y152.765
G1 X306.927 Y152.663
G1 X307.016 Y152.539
G1 X307.100 Y152.394
G1 X307.183 Y152.228
G1 X307.266 Y152.040
G1 X307.350 Y151.830
G1 X307.404 Y151.653
G1 X307.432 Y151.468
G1 X307.435 Y151.274
G1 X307.412 Y151.071
G1 X307.363 Y150.858
G1 X307.288 Y150.634
G1 X307.186 Y150.400
G1 X307.057 Y150.156
G1 X306.901 Y149.899
G1 X306.718 Y149.631
G1 X306.506 Y149.351
G1 X306.267 Y149.058
G1 X306.000 Y148.752
G1 X305.703 Y148.433
G1 X305.378 Y148.099
G1 X305.024 Y147.752
G1 X304.641 Y147.389
G1 X304.227 Y147.012
G1 X303.784 Y146.619
G1 X303.310 Y146.210
G1 X302.920 Y145.869
G1 X302.518 Y145.506
G1 X302.106 Y145.124
G1 X301.688 Y144.725
G1 X301.263 Y144.311
G1 X300.836 Y143.885
G1 X300.407 Y143.448
G1 X299.978 Y143.003
G1 X299.552 Y142.551
G1 X299.131 Y142.096
G1 X298.717 Y141.639
G1 X298.311 Y141.183
G1 X297.916 Y140.729
G1 X297.534 Y140.280
G1 X297.166 Y139.838
G1 X296.815 Y139.406
G1 X296.483 Y138.984
G1 X296.172 Y138.576
G1 X295.884 Y138.184
G1 X295.620 Y137.810
G1 X295.164 Y137.170
G1 X294.713 Y136.577
G1 X294.268 Y136.031
G1 X293.831 Y135.533
G1 X293.405 Y135.086
G1 X292.992 Y134.689
G1 X292.593 Y134.343
G1 X292.212 Y134.050
G1 X291.848 Y133.811
G1 X291.506 Y133.626
G1 X291.187 Y133.497
G1 X290.892 Y133.424
G1 X290.625 Y133.409
G1 X290.387 Y133.453
G1 X290.179 Y133.556
G1 X290.005 Y133.720
G1 X289.866 Y133.945
G1 X289.764 Y134.233
G1 X289.701 Y134.584
G1 X289.680 Y135.000
G1 X-41.231 Y150.975
G1 X-40.973 Y151.761
G1 X-40.562 Y152.649
G1 X-40.014 Y153.623
G1 X-39.344 Y154.668
G1 X-38.568 Y155.765
G1 X-37.702 Y156.900
G1 X-36.761 Y158.054
G1 X-35.760 Y159.211
G1 X-34.716 Y160.355
G1 X-33.644 Y161.469
G1 X-32.559 Y162.536
G1 X-31.477 Y163.540
G1 X-30.414 Y164.465
G1 X-29.385 Y165.292
G1 X-28.406 Y166.007
G1 X-27.492 Y166.591
G1 X-26.660 Y167.029
G1 X-25.924 Y167.305
G1 X-25.300 Y167.400
G1 X-24.804 Y167.387
G1 X-24.370 Y167.347
G1 X-23.997 Y167.281
G1 X-23.687 Y167.187
G1 X-23.438 Y167.065
G1 X-23.252 Y166.914
G1 X-23.129 Y166.735
G1 X-23.068 Y166.525
G1 X-23.070 Y166.286
G1 X-23.135 Y166.016
G1 X-23.263 Y165.715
G1 X-23.455 Y165.383
G1 X-23.711 Y165.018
G1 X-24.030 Y164.620
G1 X-24.414 Y164.190
G1 X-24.862 Y163.725
G1 X-25.374 Y163.226
G1 X-25.951 Y162.693
G1 X-26.593 Y162.124
G1 X-27.300 Y161.520
G1 X-27.712 Y161.165
G1 X-28.136 Y160.788
G1 X-28.571 Y160.392
G1 X-29.013 Y159.979
G1 X-29.462 Y159.551
G1 X-29.914 Y159.111
G1 X-30.368 Y158.660
G1 X-30.822 Y158.201
G1 X-31.273 Y157.736
G1 X-31.719 Y157.268
G1 X-32.158 Y156.798
G1 X-32.588 Y156.329
G1 X-33.006 Y155.863
G1 X-33.411 Y155.403
G1 X-33.801 Y154.950
G1 X-34.173 Y154.507
G1 X-34.525 Y154.077
G1 X-34.855 Y153.660
G1 X-35.161 Y153.261
G1 X-35.440 Y152.880
G1 X-35.940 Y152.202
G1 X-36.426 Y151.579
G1 X-36.896 Y151.010
G1 X-37.349 Y150.498
G1 X-37.785 Y150.041
G1 X-38.201 Y149.642
G1 X-38.596 Y149.299
G1 X-38.970 Y149.015
G1 X-39.321 Y148.789
G1 X-39.648 Y148.621
G1 X-39.949 Y148.513
G1 X-40.224 Y148.466
G1 X-40.471 Y148.478
G1 X-40.689 Y148.552
G1 X-40.877 Y148.688
G1 X-41.033 Y148.886
G1 X-41.157 Y149.146
G1 X-41.247 Y149.470
G1 X-41.301 Y149.858
G1 X-41.320 Y150.310
G1 X-271.407 Y151.591
G1 X-271.495 Y151.844
G1 X-271.576 Y152.140
G1 X-271.648 Y152.477
G1 X-271.712 Y152.855
G1 X-271.769 Y153.273
G1 X-271.817 Y153.730
G1 X-271.857 Y154.225
G1 X-271.889 Y154.759
G1 X-271.913 Y155.329
G1 X-271.928 Y155.935
G1 X-271.935 Y156.577
G1 X-271.934 Y157.254
G1 X-271.924 Y157.964
G1 X-271.906 Y158.708
G1 X-271.880 Y159.484
G1 X-271.845 Y160.292
G1 X-271.802 Y161.132
G1 X-271.750 Y162.001
G1 X-271.690 Y162.900
G1 X-271.607 Y164.464
G1 X-271.559 Y166.236
G1 X-271.545 Y168.187
G1 X-271.562 Y170.287
G1 X-271.609 Y172.508
G1 X-271.683 Y174.821
G1 X-271.782 Y177.196
G1 X-271.905 Y179.605
G1 X-272.049 Y182.019
G1 X-272.211 Y184.407
G1 X-272.391 Y186.743
G1 X-272.585 Y188.996
G1 X-272.792 Y191.137
G1 X-273.009 Y193.137
G1 X-273.235 Y194.968
G1 X-273.468 Y196.600
G1 X-273.705 Y198.004
G1 X-273.944 Y199.152
G1 X-274.183 Y200.013
G1 X-274.420 Y200.560
G1 X-274.521 Y200.709
G1 X-274.630 Y200.840
G1 X-274.749 Y200.954
G1 X-274.880 Y201.050
G1 X-275.025 Y201.128
G1 X-275.185 Y201.188
G1 X-275.362 Y201.230
G1 X-275.557 Y201.253
G1 X-275.774 Y201.258
G1 X-276.012 Y201.244
G1 X-276.275 Y201.211
G1 X-276.564 Y201.158
G1 X-276.881 Y201.087
G1 X-277.227 Y200.996
G1 X-277.604 Y200.885
G1 X-278.014 Y200.754
G1 X-278.459 Y200.604
G1 X-278.940 Y200.433
G1 X-279.460 Y200.242
G1 X-280.020 Y200.030
G1 X-280.931 Y199.686
G1 X-281.770 Y199.377
G1 X-282.541 Y199.103
G1 X-283.246 Y198.863
G1 X-283.888 Y198.659
G1 X-284.471 Y198.488
G1 X-284.998 Y198.352
G1 X-285.471 Y198.250
G1 X-285.893 Y198.183
G1 X-286.269 Y198.149
G1 X-286.600 Y198.149
G1 X-286.890 Y198.182
G1 X-287.142 Y198.250
G1 X-287.360 Y198.350
G1 X-287.545 Y198.485
G1 X-287.701 Y198.652
G1 X-287.832 Y198.852
G1 X-287.940 Y199.085
G1 X-288.028 Y199.351
G1 X-288.100 Y199.650
G1 X-288.130 Y199.825
G1 X-288.143 Y199.995
G1 X-288.141 Y200.162
G1 X-288.124 Y200.324
G1 X-288.090 Y200.482
G1 X-288.040 Y200.636
G1 X-287.974 Y200.786
G1 X-287.892 Y200.933
G1 X-287.794 Y201.075
G1 X-287.680 Y201.214
G1 X-287.550 Y201.349
G1 X-287.403 Y201.480
G1 X-287.240 Y201.608
G1 X-287.061 Y201.733
G1 X-286.865 Y201.854
G1 X-286.653 Y201.971
G1 X-286.425 Y202.086
G1 X-286.180 Y202.197
G1 X-285.918 Y202.305
G1 X-285.640 Y202.410
G1 X-285.397 Y202.499
G1 X-285.133 Y202.597
G1 X-284.851 Y202.704
G1 X-284.552 Y202.819
G1 X-284.239 Y202.940
G1 X-283.912 Y203.069
G1 X-283.573 Y203.203
G1 X-283.225 Y203.342
G1 X-282.870 Y203.485
G1 X-282.507 Y203.631
G1 X-282.141 Y203.781
G1 X-281.772 Y203.932
G1 X-281.402 Y204.085
G1 X-281.034 Y204.238
G1 X-280.668 Y204.391
G1 X-280.306 Y204.544
G1 X-279.951 Y204.695
G1 X-279.603 Y204.843
G1 X-279.266 Y204.988
G1 X-278.940 Y205.130
G1 X-275.060 Y206.820
G1 X-275.750 Y217.630
G1 X-275.889 Y220.069
G1 X-276.010 Y222.675
G1 X-276.112 Y225.425
G1 X-276.196 Y228.296
G1 X-276.263 Y231.264
G1 X-276.311 Y234.305
G1 X-276.343 Y237.396
G1 X-276.357 Y240.513
G1 X-276.354 Y243.634
G1 X-276.334 Y246.734
G1 X-276.297 Y249.790
G1 X-276.245 Y252.779
G1 X-276.176 Y255.677
G1 X-276.091 Y258.461
G1 X-275.990 Y261.107
G1 X-275.874 Y263.592
G1 X-275.743 Y265.892
G1 X-275.597 Y267.984
G1 X-275.436 Y269.845
G1 X-275.260 Y271.450
G1 X-274.626 Y276.118
G1 X-273.899 Y280.649
G1 X-273.080 Y285.041
G1 X-272.169 Y289.295
G1 X-271.167 Y293.409
G1 X-270.073 Y297.383
G1 X-268.889 Y301.216
G1 X-267.613 Y304.908
G1 X-266.247 Y308.458
G1 X-264.791 Y311.865
G1 X-263.245 Y315.129
G1 X-261.610 Y318.250
G1 X-259.884 Y321.226
G1 X-258.070 Y324.058
G1 X-256.167 Y326.744
G1 X-254.176 Y329.284
G1 X-252.096 Y331.677
G1 X-249.928 Y333.923
G1 X-247.673 Y336.021
G1 X-245.330 Y337.970
G1 X-244.595 Y338.552
G1 X-243.922 Y339.095
G1 X-243.306 Y339.604
G1 X-242.746 Y340.082
G1 X-242.238 Y340.535
G1 X-241.778 Y340.966
G1 X-241.363 Y341.380
G1 X-240.991 Y341.782
G1 X-240.657 Y342.175
G1 X-240.360 Y342.565
G1 X-240.095 Y342.955
G1 X-239.860 Y343.351
G1 X-239.651 Y343.755
G1 X-239.466 Y344.174
G1 X-239.300 Y344.610
G1 X-239.151 Y345.070
G1 X-239.016 Y345.556
G1 X-238.891 Y346.073
G1 X-238.773 Y346.627
G1 X-238.660 Y347.220
G1 X-238.559 Y347.758
G1 X-238.458 Y348.255
G1 X-238.356 Y348.714
G1 X-238.254 Y349.135
G1 X-238.150 Y349.521
G1 X-238.043 Y349.871
G1 X-237.933 Y350.189
G1 X-237.818 Y350.474
G1 X-237.698 Y350.729
G1 X-237.572 Y350.955
G1 X-237.440 Y351.153
G1 X-237.300 Y351.324
G1 X-237.151 Y351.470
G1 X-236.994 Y351.592
G1 X-236.826 Y351.692
G1 X-236.648 Y351.770
G1 X-236.458 Y351.829
G1 X-236.255 Y351.869
G1 X-236.040 Y351.893
G1 X-235.810 Y351.900
G1 X-235.575 Y351.895
G1 X-235.360 Y351.881
G1 X-235.163 Y351.855
G1 X-234.984 Y351.817
G1 X-234.822 Y351.766
G1 X-234.678 Y351.701
G1 X-234.549 Y351.620
G1 X-234.436 Y351.522
G1 X-234.338 Y351.407
G1 X-234.254 Y351.272
G1 X-234.184 Y351.118
G1 X-234.127 Y350.943
G1 X-234.082 Y350.746
G1 X-234.050 Y350.525
G1 X-234.028 Y350.280
G1 X-234.018 Y350.009
G1 X-234.017 Y349.712
G1 X-234.026 Y349.387
G1 X-234.044 Y349.034
G1 X-234.070 Y348.650
G1 X-234.090 Y348.384
G1 X-234.106 Y348.124
G1 X-234.120 Y347.871
G1 X-234.131 Y347.625
G1 X-234.140 Y347.387
G1 X-234.146 Y347.159
G1 X-234.148 Y346.940
G1 X-234.149 Y346.733
G1 X-234.146 Y346.537
G1 X-234.141 Y346.354
G1 X-234.134 Y346.184
G1 X-234.123 Y346.028
G1 X-234.110 Y345.888
G1 X-234.095 Y345.764
G1 X-234.077 Y345.656
G1 X-234.057 Y345.566
G1 X-234.034 Y345.495
G1 X-234.008 Y345.443
G1 X-233.980 Y345.411
G1 X-233.950 Y345.400
G1 X-233.904 Y345.406
G1 X-233.831 Y345.425
G1 X-233.731 Y345.456
G1 X-233.606 Y345.499
G1 X-233.457 Y345.553
G1 X-233.285 Y345.617
G1 X-233.092 Y345.691
G1 X-232.878 Y345.774
G1 X-232.646 Y345.867
G1 X-232.396 Y345.967
G1 X-232.130 Y346.076
G1 X-231.848 Y346.193
G1 X-231.553 Y346.316
G1 X-231.245 Y346.446
G1 X-230.925 Y346.581
G1 X-230.595 Y346.722
G1 X-230.257 Y346.868
G1 X-229.911 Y347.018
G1 X-229.558 Y347.173
G1 X-229.200 Y347.330
G1 X-227.798 Y347.921
G1 X-226.371 Y348.470
G1 X-224.914 Y348.979
G1 X-223.420 Y349.448
G1 X-221.884 Y349.877
G1 X-220.297 Y350.268
G1 X-218.656 Y350.621
G1 X-216.953 Y350.936
G1 X-215.181 Y351.216
G1 X-213.336 Y351.460
G1 X-211.411 Y351.669
G1 X-209.399 Y351.844
G1 X-207.294 Y351.986
G1 X-205.090 Y352.096
G1 X-202.781 Y352.173
G1 X-200.360 Y352.220
G1 X-197.822 Y352.236
G1 X-195.160 Y352.222
G1 X-192.368 Y352.180
G1 X-189.440 Y352.110
G1 X-187.641 Y352.056
G1 X-185.896 Y351.996
G1 X-184.205 Y351.931
G1 X-182.569 Y351.860
G1 X-180.990 Y351.783
G1 X-179.467 Y351.701
G1 X-178.001 Y351.613
G1 X-176.593 Y351.519
G1 X-175.244 Y351.420
G1 X-173.955 Y351.316
G1 X-172.726 Y351.207
G1 X-171.558 Y351.092
G1 X-170.452 Y350.972
G1 X-169.408 Y350.847
G1 X-168.428 Y350.716
G1 X-167.511 Y350.581
G1 X-166.660 Y350.441
G1 X-165.873 Y350.295
G1 X-165.153 Y350.145
G1 X-164.500 Y349.990
G1 X-162.514 Y349.456
G1 X-160.583 Y348.875
G1 X-158.710 Y348.248
G1 X-156.894 Y347.577
G1 X-155.140 Y346.862
G1 X-153.447 Y346.104
G1 X-151.818 Y345.305
G1 X-150.254 Y344.466
G1 X-148.758 Y343.588
G1 X-147.330 Y342.671
G1 X-145.973 Y341.718
G1 X-144.688 Y340.729
G1 X-143.477 Y339.706
G1 X-142.341 Y338.649
G1 X-141.283 Y337.560
G1 X-140.304 Y336.440
G1 X-139.405 Y335.290
G1 X-138.589 Y334.110
G1 X-137.856 Y332.904
G1 X-137.210 Y331.670
G1 X-136.709 Y330.549
G1 X-136.266 Y329.374
G1 X-135.881 Y328.149
G1 X-135.553 Y326.877
G1 X-135.282 Y325.564
G1 X-135.068 Y324.214
G1 X-134.911 Y322.831
G1 X-134.810 Y321.418
G1 X-134.767 Y319.982
G1 X-134.780 Y318.525
G1 X-134.849 Y317.052
G1 X-134.975 Y315.568
G1 X-135.157 Y314.076
G1 X-135.395 Y312.582
G1 X-135.688 Y311.088
G1 X-136.038 Y309.600
G1 X-136.443 Y308.122
G1 X-136.903 Y306.658
G1 X-137.419 Y305.213
G1 X-137.990 Y303.790
G1 X-140.009 Y299.460
G1 X-142.402 Y295.102
G1 X-145.163 Y290.718
G1 X-148.288 Y286.313
G1 X-151.774 Y281.889
G1 X-155.615 Y277.451
G1 X-159.808 Y273.001
G1 X-164.348 Y268.545
G1 X-169.231 Y264.084
G1 X-174.452 Y259.623
G1 X-180.008 Y255.164
G1 X-185.894 Y250.713
G1 X-192.106 Y246.272
G1 X-198.640 Y241.845
G1 X-205.490 Y237.435
G1 X-212.653 Y233.046
G1 X-220.125 Y228.681
G1 X-227.902 Y224.345
G1 X-235.978 Y220.040
G1 X-244.350 Y215.770
G1 X-245.830 Y215.027
G1 X-247.263 Y214.299
G1 X-248.645 Y213.587
G1 X-249.974 Y212.894
G1 X-251.248 Y212.221
G1 X-252.462 Y211.569
G1 X-253.615 Y210.941
G1 X-254.703 Y210.337
G1 X-255.724 Y209.760
G1 X-256.675 Y209.211
G1 X-257.553 Y208.692
G1 X-258.355 Y208.204
G1 X-259.079 Y207.750
G1 X-259.722 Y207.329
G1 X-260.280 Y206.946
G1 X-260.751 Y206.600
G1 X-261.133 Y206.294
G1 X-261.422 Y206.029
G1 X-261.615 Y205.807
G1 X-261.710 Y205.630
G1 X-261.874 Y205.024
G1 X-262.059 Y204.238
G1 X-262.261 Y203.292
G1 X-262.479 Y202.200
G1 X-262.709 Y200.981
G1 X-262.948 Y199.651
G1 X-263.196 Y198.227
G1 X-263.447 Y196.726
G1 X-263.701 Y195.166
G1 X-263.954 Y193.562
G1 X-264.203 Y191.933
G1 X-264.447 Y190.295
G1 X-264.682 Y188.664
G1 X-264.905 Y187.059
G1 X-265.115 Y185.495
G1 X-265.307 Y183.991
G1 X-265.481 Y182.562
G1 X-265.633 Y181.226
G1 X-265.760 Y180.000
G1 X-265.860 Y178.900
G1 X-265.906 Y178.298
G1 X-265.944 Y177.651
G1 X-265.975 Y176.962
G1 X-265.999 Y176.235
G1 X-266.016 Y175.475
G1 X-266.026 Y174.687
G1 X-266.029 Y173.873
G1 X-266.025 Y173.039
G1 X-266.015 Y172.188
G1 X-265.998 Y171.325
G1 X-265.974 Y170.454
G1 X-265.944 Y169.579
G1 X-265.908 Y168.704
G1 X-265.866 Y167.834
G1 X-265.818 Y166.972
G1 X-265.764 Y166.123
G1 X-265.704 Y165.292
G1 X-265.638 Y164.481
G1 X-265.567 Y163.696
G1 X-265.490 Y162.940
G1 X-265.410 Y162.167
G1 X-265.338 Y161.402
G1 X-265.273 Y160.649
G1 X-265.217 Y159.909
G1 X-265.168 Y159.184
G1 X-265.127 Y158.477
G1 X-265.094 Y157.790
G1 X-265.070 Y157.125
G1 X-265.053 Y156.485
G1 X-265.044 Y155.871
G1 X-265.043 Y155.286
G1 X-265.050 Y154.733
G1 X-265.065 Y154.212
G1 X-265.089 Y153.728
G1 X-265.120 Y153.280
G1 X-265.160 Y152.873
G1 X-265.208 Y152.509
G1 X-265.263 Y152.188
G1 X-265.328 Y151.915
G1 X-265.400 Y151.690
G1 X-265.579 Y151.285
G1 X-265.789 Y150.921
G1 X-266.027 Y150.596
G1 X-266.290 Y150.312
G1 X-266.575 Y150.068
G1 X-266.879 Y149.865
G1 X-267.198 Y149.702
G1 X-267.529 Y149.581
G1 X-267.870 Y149.500
G1 X-268.216 Y149.461
G1 X-268.565 Y149.464
G1 X-268.914 Y149.508
G1 X-269.260 Y149.594
G1 X-269.598 Y149.721
G1 X-269.927 Y149.891
G1 X-270.242 Y150.104
G1 X-270.542 Y150.359
G1 X-270.821 Y150.656
G1 X-271.079 Y150.997
G1 X-271.310 Y151.380
G1 X-267.248 Y200.378
G1 X-267.187 Y200.833
G1 X-267.136 Y201.256
G1 X-267.094 Y201.649
G1 X-267.064 Y202.012
G1 X-267.043 Y202.346
G1 X-267.033 Y202.651
G1 X-267.034 Y202.929
G1 X-267.046 Y203.180
G1 X-267.069 Y203.405
G1 X-267.102 Y203.605
G1 X-267.147 Y203.780
G1 X-267.203 Y203.932
G1 X-267.271 Y204.061
G1 X-267.350 Y204.168
G1 X-267.440 Y204.254
G1 X-267.542 Y204.319
G1 X-267.656 Y204.364
G1 X-267.782 Y204.391
G1 X-267.920 Y204.400
G1 X-268.202 Y204.391
G1 X-268.461 Y204.361
G1 X-268.696 Y204.311
G1 X-268.909 Y204.237
G1 X-269.100 Y204.139
G1 X-269.269 Y204.014
G1 X-269.417 Y203.861
G1 X-269.544 Y203.678
G1 X-269.650 Y203.464
G1 X-269.738 Y203.217
G1 X-269.805 Y202.936
G1 X-269.854 Y202.618
G1 X-269.884 Y202.262
G1 X-269.897 Y201.867
G1 X-269.892 Y201.430
G1 X-269.869 Y200.950
G1 X-269.831 Y200.426
G1 X-269.776 Y199.856
G1 X-269.706 Y199.238
G1 X-269.620 Y198.570
G1 X-269.516 Y197.845
G1 X-269.413 Y197.202
G1 X-269.309 Y196.643
G1 X-269.204 Y196.166
G1 X-269.099 Y195.772
G1 X-268.993 Y195.462
G1 X-268.886 Y195.235
G1 X-268.777 Y195.090
G1 X-268.668 Y195.030
G1 X-268.556 Y195.052
G1 X-268.443 Y195.159
G1 X-268.328 Y195.349
G1 X-268.211 Y195.622
G1 X-268.092 Y195.980
G1 X-267.970 Y196.421
G1 X-267.846 Y196.947
G1 X-267.719 Y197.556
G1 X-267.589 Y198.250
G1 X-267.456 Y199.028
G1 X-267.320 Y199.890
G1 X-263.973 Y220.875
G1 X-263.757 Y221.993
G1 X-263.494 Y223.352
G1 X-263.186 Y224.938
G1 X-262.836 Y226.737
G1 X-262.447 Y228.738
G1 X-262.022 Y230.926
G1 X-261.562 Y233.288
G1 X-261.070 Y235.811
G1 X-260.550 Y238.481
G1 X-260.003 Y241.286
G1 X-259.433 Y244.213
G1 X-258.841 Y247.247
G1 X-258.230 Y250.376
G1 X-257.604 Y253.587
G1 X-256.964 Y256.866
G1 X-256.313 Y260.200
G1 X-255.653 Y263.576
G1 X-254.988 Y266.980
G1 X-254.320 Y270.400
G1 X-253.651 Y273.830
G1 X-252.982 Y277.263
G1 X-252.315 Y280.685
G1 X-251.653 Y284.081
G1 X-250.998 Y287.438
G1 X-250.354 Y290.742
G1 X-249.722 Y293.978
G1 X-249.107 Y297.134
G1 X-248.510 Y300.194
G1 X-247.934 Y303.145
G1 X-247.382 Y305.973
G1 X-246.856 Y308.664
G1 X-246.361 Y311.205
G1 X-245.897 Y313.580
G1 X-245.468 Y315.777
G1 X-245.076 Y317.781
G1 X-244.725 Y319.578
G1 X-244.417 Y321.155
G1 X-244.154 Y322.497
G1 X-243.940 Y323.590
G1 X-243.632 Y325.181
G1 X-243.356 Y326.620
G1 X-243.111 Y327.913
G1 X-242.898 Y329.068
G1 X-242.716 Y330.091
G1 X-242.564 Y330.989
G1 X-242.443 Y331.769
G1 X-242.352 Y332.438
G1 X-242.291 Y333.003
G1 X-242.260 Y333.470
G1 X-242.258 Y333.847
G1 X-242.285 Y334.139
G1 X-242.342 Y334.355
G1 X-242.426 Y334.501
G1 X-242.539 Y334.584
G1 X-242.680 Y334.610
G1 X-242.849 Y334.587
G1 X-243.046 Y334.522
G1 X-243.269 Y334.420
G1 X-243.520 Y334.290
G1 X-244.077 Y333.931
G1 X-244.728 Y333.402
G1 X-245.462 Y332.718
G1 X-246.269 Y331.893
G1 X-247.140 Y330.939
G1 X-248.064 Y329.871
G1 X-249.031 Y328.703
G1 X-250.031 Y327.448
G1 X-251.053 Y326.120
G1 X-252.089 Y324.732
G1 X-253.127 Y323.300
G1 X-254.157 Y321.835
G1 X-255.170 Y320.353
G1 X-256.155 Y318.867
G1 X-257.103 Y317.390
G1 X-258.003 Y315.936
G1 X-258.844 Y314.520
G1 X-259.618 Y313.154
G1 X-260.313 Y311.853
G1 X-260.920 Y310.630
G1 X-261.625 Y309.086
G1 X-262.320 Y307.448
G1 X-263.003 Y305.723
G1 X-263.673 Y303.916
G1 X-264.329 Y302.034
G1 X-264.968 Y300.083
G1 X-265.590 Y298.069
G1 X-266.192 Y295.997
G1 X-266.774 Y293.875
G1 X-267.334 Y291.707
G1 X-267.869 Y289.501
G1 X-268.380 Y287.262
G1 X-268.864 Y284.997
G1 X-269.319 Y282.710
G1 X-269.744 Y280.410
G1 X-270.138 Y278.100
G1 X-270.499 Y275.789
G1 X-270.826 Y273.481
G1 X-271.117 Y271.182
G1 X-271.370 Y268.900
G1 X-271.539 Y266.934
G1 X-271.684 Y264.596
G1 X-271.804 Y261.933
G1 X-271.901 Y258.990
G1 X-271.975 Y255.813
G1 X-272.027 Y252.448
G1 X-272.057 Y248.939
G1 X-272.065 Y245.334
G1 X-272.053 Y241.677
G1 X-272.020 Y238.014
G1 X-271.967 Y234.391
G1 X-271.896 Y230.853
G1 X-271.805 Y227.447
G1 X-271.696 Y224.217
G1 X-271.570 Y221.210
G1 X-271.426 Y218.471
G1 X-271.266 Y216.046
G1 X-271.089 Y213.980
G1 X-270.897 Y212.320
G1 X-270.690 Y211.110
G1 X-270.607 Y210.741
G1 X-270.528 Y210.409
G1 X-270.451 Y210.112
G1 X-270.375 Y209.850
G1 X-270.299 Y209.622
G1 X-270.219 Y209.426
G1 X-270.136 Y209.263
G1 X-270.047 Y209.132
G1 X-269.951 Y209.031
G1 X-269.846 Y208.960
G1 X-269.731 Y208.918
G1 X-269.604 Y208.905
G1 X-269.463 Y208.919
G1 X-269.306 Y208.959
G1 X-269.133 Y209.026
G1 X-268.942 Y209.118
G1 X-268.730 Y209.234
G1 X-268.497 Y209.373
G1 X-268.241 Y209.536
G1 X-267.960 Y209.720
G1 X-267.726 Y209.890
G1 X-267.502 Y210.084
G1 X-267.286 Y210.304
G1 X-267.077 Y210.551
G1 X-266.875 Y210.829
G1 X-266.679 Y211.138
G1 X-266.489 Y211.482
G1 X-266.303 Y211.862
G1 X-266.121 Y212.280
G1 X-265.941 Y212.739
G1 X-265.764 Y213.240
G1 X-265.588 Y213.786
G1 X-265.413 Y214.378
G1 X-265.238 Y215.020
G1 X-265.062 Y215.712
G1 X-264.884 Y216.457
G1 X-264.704 Y217.258
G1 X-264.520 Y218.115
G1 X-264.332 Y219.032
G1 X-264.140 Y220.010
G1 X-232.364 Y227.075
G1 X-227.947 Y229.444
G1 X-223.629 Y231.826
G1 X-219.410 Y234.223
G1 X-215.288 Y236.633
G1 X-211.262 Y239.059
G1 X-207.334 Y241.500
G1 X-203.500 Y243.956
G1 X-199.762 Y246.429
G1 X-196.119 Y248.919
G1 X-192.569 Y251.425
G1 X-189.112 Y253.949
G1 X-185.748 Y256.491
G1 X-182.476 Y259.051
G1 X-179.295 Y261.630
G1 X-176.205 Y264.228
G1 X-173.206 Y266.845
G1 X-170.295 Y269.483
G1 X-167.473 Y272.141
G1 X-164.740 Y274.820
G1 X-160.525 Y279.181
G1 X-156.687 Y283.457
G1 X-153.226 Y287.646
G1 X-150.143 Y291.741
G1 X-147.439 Y295.740
G1 X-145.115 Y299.636
G1 X-143.171 Y303.427
G1 X-141.608 Y307.106
G1 X-140.427 Y310.670
G1 X-139.629 Y314.115
G1 X-139.214 Y317.435
G1 X-139.184 Y320.627
G1 X-139.540 Y323.686
G1 X-140.281 Y326.607
G1 X-141.409 Y329.385
G1 X-142.925 Y332.017
G1 X-144.829 Y334.498
G1 X-147.122 Y336.824
G1 X-149.806 Y338.989
G1 X-152.880 Y340.990
G1 X-154.212 Y341.742
G1 X-155.559 Y342.441
G1 X-156.931 Y343.089
G1 X-158.336 Y343.688
G1 X-159.783 Y344.238
G1 X-161.282 Y344.743
G1 X-162.842 Y345.202
G1 X-164.472 Y345.619
G1 X-166.181 Y345.994
G1 X-167.979 Y346.329
G1 X-169.874 Y346.625
G1 X-171.875 Y346.885
G1 X-173.992 Y347.109
G1 X-176.234 Y347.299
G1 X-178.610 Y347.457
G1 X-181.129 Y347.585
G1 X-183.801 Y347.683
G1 X-186.634 Y347.754
G1 X-189.637 Y347.799
G1 X-192.820 Y347.820
G1 X-195.904 Y347.822
G1 X-198.758 Y347.810
G1 X-201.401 Y347.780
G1 X-203.849 Y347.729
G1 X-206.120 Y347.656
G1 X-208.232 Y347.557
G1 X-210.201 Y347.429
G1 X-212.045 Y347.271
G1 X-213.781 Y347.079
G1 X-215.426 Y346.851
G1 X-216.999 Y346.584
G1 X-218.515 Y346.276
G1 X-219.994 Y345.923
G1 X-221.451 Y345.523
G1 X-222.904 Y345.074
G1 X-224.371 Y344.572
G1 X-225.868 Y344.016
G1 X-227.414 Y343.401
G1 X-229.026 Y342.727
G1 X-230.720 Y341.990
G1 X-235.950 Y339.670
G1 X-237.690 Y331.790
G1 X-238.685 Y327.199
G1 X-239.816 Y321.858
G1 X-241.061 Y315.869
G1 X-242.401 Y309.336
G1 X-243.816 Y302.363
G1 X-245.286 Y295.054
G1 X-246.790 Y287.511
G1 X-248.308 Y279.838
G1 X-249.821 Y272.140
G1 X-251.308 Y264.519
G1 X-252.748 Y257.079
G1 X-254.123 Y249.924
G1 X-255.411 Y243.157
G1 X-256.592 Y236.882
G1 X-257.647 Y231.202
G1 X-258.556 Y226.222
G1 X-259.298 Y222.044
G1 X-259.852 Y218.772
G1 X-260.200 Y216.509
G1 X-260.320 Y215.360
G1 X-260.318 Y215.089
G1 X-260.312 Y214.846
G1 X-260.298 Y214.631
G1 X-260.275 Y214.442
G1 X-260.240 Y214.281
G1 X-260.190 Y214.147
G1 X-260.124 Y214.039
G1 X-260.038 Y213.957
G1 X-259.930 Y213.902
G1 X-259.799 Y213.871
G1 X-259.641 Y213.866
G1 X-259.454 Y213.886
G1 X-259.236 Y213.931
G1 X-258.984 Y214.000
G1 X-258.696 Y214.093
G1 X-258.369 Y214.210
G1 X-258.002 Y214.350
G1 X-257.591 Y214.514
G1 X-257.135 Y214.701
G1 X-256.630 Y214.910
G1 X-256.276 Y215.064
G1 X-255.825 Y215.268
G1 X-255.281 Y215.521
G1 X-254.649 Y215.820
G1 X-253.935 Y216.162
G1 X-253.144 Y216.544
G1 X-252.281 Y216.964
G1 X-251.351 Y217.420
G1 X-250.360 Y217.909
G1 X-249.312 Y218.427
G1 X-248.214 Y218.974
G1 X-247.069 Y219.546
G1 X-245.884 Y220.141
G1 X-244.663 Y220.755
G1 X-243.411 Y221.387
G1 X-242.135 Y222.034
G1 X-240.838 Y222.693
G1 X-239.527 Y223.363
G1 X-238.206 Y224.039
G1 X-236.880 Y224.720
G1 X170.847 Y191.480
G1 X170.649 Y191.596
G1 X170.447 Y191.737
G1 X170.242 Y191.903
G1 X170.034 Y192.092
G1 X169.824 Y192.303
G1 X169.612 Y192.536
G1 X169.400 Y192.790
G1 X169.188 Y193.062
G1 X168.976 Y193.354
G1 X168.766 Y193.663
G1 X168.557 Y193.988
G1 X168.352 Y194.330
G1 X168.149 Y194.686
G1 X167.950 Y195.056
G1 X167.756 Y195.439
G1 X167.568 Y195.834
G1 X167.385 Y196.239
G1 X167.209 Y196.655
G1 X167.040 Y197.080
G1 X166.685 Y198.195
G1 X166.368 Y199.593
G1 X166.088 Y201.251
G1 X165.845 Y203.150
G1 X165.639 Y205.269
G1 X165.471 Y207.587
G1 X165.340 Y210.084
G1 X165.247 Y212.739
G1 X165.190 Y215.531
G1 X165.171 Y218.440
G1 X165.190 Y221.445
G1 X165.245 Y224.525
G1 X165.338 Y227.660
G1 X165.468 Y230.829
G1 X165.635 Y234.011
G1 X165.840 Y237.186
G1 X166.081 Y240.333
G1 X166.360 Y243.431
G1 X166.677 Y246.461
G1 X167.030 Y249.400
G1 X167.517 Y253.014
G1 X168.098 Y257.070
G1 X168.762 Y261.508
G1 X169.499 Y266.265
G1 X170.297 Y271.280
G1 X171.146 Y276.492
G1 X172.034 Y281.839
G1 X172.951 Y287.260
G1 X173.886 Y292.692
G1 X174.829 Y298.075
G1 X175.767 Y303.347
G1 X176.692 Y308.446
G1 X177.591 Y313.312
G1 X178.453 Y317.882
G1 X179.269 Y322.095
G1 X180.026 Y325.889
G1 X180.715 Y329.203
G1 X181.324 Y331.976
G1 X181.843 Y334.145
G1 X182.260 Y335.650
G1 X182.309 Y335.817
G1 X182.347 Y335.976
G1 X182.376 Y336.127
G1 X182.394 Y336.270
G1 X182.401 Y336.404
G1 X182.399 Y336.531
G1 X182.386 Y336.649
G1 X182.363 Y336.758
G1 X182.330 Y336.860
G1 X182.288 Y336.952
G1 X182.234 Y337.037
G1 X182.171 Y337.112
G1 X182.098 Y337.179
G1 X182.015 Y337.237
G1 X181.923 Y337.287
G1 X181.820 Y337.327
G1 X181.707 Y337.359
G1 X181.584 Y337.382
G1 X181.452 Y337.395
G1 X181.310 Y337.400
G1 X180.918 Y337.416
G1 X180.566 Y337.462
G1 X180.252 Y337.538
G1 X179.978 Y337.642
G1 X179.743 Y337.774
G1 X179.547 Y337.931
G1 X179.390 Y338.114
G1 X179.273 Y338.320
G1 X179.195 Y338.548
G1 X179.157 Y338.799
G1 X179.159 Y339.069
G1 X179.201 Y339.359
G1 X179.283 Y339.667
G1 X179.404 Y339.992
G1 X179.566 Y340.332
G1 X179.768 Y340.687
G1 X180.011 Y341.055
G1 X180.293 Y341.436
G1 X180.616 Y341.828
G1 X180.980 Y342.230
G1 X181.190 Y342.461
G1 X181.406 Y342.713
G1 X181.627 Y342.982
G1 X181.852 Y343.269
G1 X182.079 Y343.571
G1 X182.308 Y343.886
G1 X182.537 Y344.212
G1 X182.765 Y344.549
G1 X182.992 Y344.894
G1 X183.216 Y345.245
G1 X183.437 Y345.601
G1 X183.652 Y345.960
G1 X183.861 Y346.321
G1 X184.064 Y346.681
G1 X184.258 Y347.039
G1 X184.443 Y347.394
G1 X184.618 Y347.743
G1 X184.781 Y348.085
G1 X184.932 Y348.418
G1 X185.070 Y348.740
G1 X185.346 Y349.369
G1 X185.628 Y349.932
G1 X185.913 Y350.429
G1 X186.200 Y350.860
G1 X186.484 Y351.226
G1 X186.766 Y351.526
G1 X187.042 Y351.760
G1 X187.309 Y351.928
G1 X187.567 Y352.030
G1 X187.812 Y352.066
G1 X188.043 Y352.037
G1 X188.257 Y351.941
G1 X188.453 Y351.780
G1 X188.626 Y351.552
G1 X188.777 Y351.259
G1 X188.902 Y350.899
G1 X188.999 Y350.473
G1 X189.065 Y349.982
G1 X189.100 Y349.424
G1 X189.100 Y348.800
G1 X189.078 Y348.489
G1 X189.026 Y348.037
G1 X188.945 Y347.450
G1 X188.835 Y346.736
G1 X188.699 Y345.901
G1 X188.537 Y344.952
G1 X188.351 Y343.895
G1 X188.142 Y342.738
G1 X187.911 Y341.486
G1 X187.660 Y340.146
G1 X187.390 Y338.726
G1 X187.101 Y337.231
G1 X186.796 Y335.669
G1 X186.476 Y334.045
G1 X186.141 Y332.368
G1 X185.794 Y330.643
G1 X185.435 Y328.877
G1 X185.065 Y327.077
G1 X184.686 Y325.249
G1 X184.300 Y323.400
G1 X182.840 Y316.356
G1 X181.456 Y309.499
G1 X180.146 Y302.829
G1 X178.911 Y296.346
G1 X177.751 Y290.048
G1 X176.665 Y283.936
G1 X175.654 Y278.007
G1 X174.717 Y272.263
G1 X173.854 Y266.701
G1 X173.066 Y261.321
G1 X172.352 Y256.123
G1 X171.712 Y251.106
G1 X171.146 Y246.269
G1 X170.654 Y241.612
G1 X170.236 Y237.134
G1 X169.892 Y232.833
G1 X169.621 Y228.710
G1 X169.424 Y224.764
G1 X169.300 Y220.994
G1 X169.250 Y217.400
G1 X169.248 Y214.931
G1 X169.263 Y212.650
G1 X169.299 Y210.550
G1 X169.355 Y208.623
G1 X169.434 Y206.862
G1 X169.538 Y205.261
G1 X169.669 Y203.811
G1 X169.827 Y202.507
G1 X170.016 Y201.340
G1 X170.236 Y200.304
G1 X170.490 Y199.391
G1 X170.779 Y198.595
G1 X171.104 Y197.908
G1 X171.468 Y197.323
G1 X171.873 Y196.834
G1 X172.319 Y196.432
G1 X172.809 Y196.110
G1 X173.345 Y195.863
G1 X173.928 Y195.682
G1 X174.560 Y195.560
G1 X175.455 Y195.582
G1 X176.466 Y195.882
G1 X177.591 Y196.456
G1 X178.826 Y197.299
G1 X180.167 Y198.408
G1 X181.613 Y199.777
G1 X183.158 Y201.403
G1 X184.800 Y203.280
G1 X186.536 Y205.406
G1 X188.362 Y207.775
G1 X190.276 Y210.383
G1 X192.273 Y213.226
G1 X194.351 Y216.299
G1 X196.507 Y219.599
G1 X198.736 Y223.120
G1 X201.036 Y226.858
G1 X203.404 Y230.810
G1 X205.836 Y234.970
G1 X208.329 Y239.335
G1 X210.880 Y243.900
G1 X211.922 Y245.778
G1 X212.900 Y247.525
G1 X213.816 Y249.146
G1 X214.672 Y250.645
G1 X215.470 Y252.024
G1 X216.214 Y253.287
G1 X216.905 Y254.439
G1 X217.546 Y255.483
G1 X218.140 Y256.422
G1 X218.689 Y257.260
G1 X219.195 Y258.001
G1 X219.660 Y258.648
G1 X220.088 Y259.206
G1 X220.481 Y259.677
G1 X220.840 Y260.066
G1 X221.170 Y260.376
G1 X221.471 Y260.611
G1 X221.746 Y260.774
G1 X221.998 Y260.869
G1 X222.230 Y260.900
G1 X222.539 Y260.901
G1 X222.816 Y260.897
G1 X223.060 Y260.878
G1 X223.273 Y260.836
G1 X223.454 Y260.759
G1 X223.604 Y260.638
G1 X223.722 Y260.463
G1 X223.809 Y260.226
G1 X223.866 Y259.915
G1 X223.892 Y259.521
G1 X223.889 Y259.035
G1 X223.855 Y258.446
G1 X223.792 Y257.745
G1 X223.699 Y256.923
G1 X223.577 Y255.968
G1 X223.426 Y254.872
G1 X223.247 Y253.626
G1 X223.039 Y252.218
G1 X222.804 Y250.639
G1 X222.540 Y248.880
G1 X222.108 Y245.546
G1 X221.871 Y242.659
G1 X221.828 Y240.216
G1 X221.974 Y238.216
G1 X222.307 Y236.658
G1 X222.824 Y235.538
G1 X223.521 Y234.856
G1 X224.398 Y234.610
G1 X225.449 Y234.797
G1 X226.673 Y235.416
G1 X228.065 Y236.465
G1 X229.625 Y237.942
G1 X231.348 Y239.846
G1 X233.231 Y242.174
G1 X235.272 Y244.924
G1 X237.468 Y248.095
G1 X239.816 Y251.685
G1 X242.312 Y255.692
G1 X244.955 Y260.115
G1 X247.740 Y264.950
G1 X248.931 Y267.041
G1 X250.052 Y268.992
G1 X251.107 Y270.806
G1 X252.098 Y272.488
G1 X253.028 Y274.043
G1 X253.901 Y275.473
G1 X254.718 Y276.785
G1 X255.484 Y277.981
G1 X256.201 Y279.067
G1 X256.873 Y280.046
G1 X257.501 Y280.923
G1 X258.090 Y281.702
G1 X258.642 Y282.388
G1 X259.161 Y282.983
G1 X259.648 Y283.494
G1 X260.108 Y283.924
G1 X260.543 Y284.277
G1 X260.957 Y284.558
G1 X261.351 Y284.771
G1 X261.730 Y284.920
G1 X262.118 Y285.023
G1 X262.500 Y285.086
G1 X262.876 Y285.110
G1 X263.243 Y285.097
G1 X263.600 Y285.048
G1 X263.946 Y284.965
G1 X264.278 Y284.848
G1 X264.596 Y284.699
G1 X264.897 Y284.519
G1 X265.180 Y284.310
G1 X265.444 Y284.073
G1 X265.686 Y283.808
G1 X265.906 Y283.518
G1 X266.102 Y283.204
G1 X266.272 Y282.867
G1 X266.415 Y282.508
G1 X266.528 Y282.128
