; --- CNC G-CODE GENERATED BY PYTHON ---
G21 ; Thiết lập đơn vị: Milimet (mm)
G90 ; Thiết lập tọa độ tuyệt đối
M3 S10000 ; Bật trục chính (Spindle) quay thuận, tốc độ 10000 RPM
G0 Z5.00 ; Nhấc dao lên độ cao an toàn
G0 F2000 ; Thiết lập tốc độ di chuyển nhanh
G0 X330.320 Y-409.400
G1 Z-1.500 F1000
G1 X330.197 Y-408.931
G1 X330.107 Y-408.257
G1 X330.048 Y-407.391
G1 X330.021 Y-406.346
G1 X330.023 Y-405.132
G1 X330.054 Y-403.762
G1 X330.113 Y-402.248
G1 X330.199 Y-400.603
G1 X330.311 Y-398.838
G1 X330.449 Y-396.966
G1 X330.610 Y-394.999
G1 X330.795 Y-392.948
G1 X331.002 Y-390.826
G1 X331.231 Y-388.645
G1 X331.480 Y-386.418
G1 X331.749 Y-384.155
G1 X332.036 Y-381.870
G1 X332.341 Y-379.574
G1 X332.663 Y-377.280
G1 X333.000 Y-375.000
G1 X333.169 Y-373.882
G1 X333.338 Y-372.759
G1 X333.507 Y-371.637
G1 X333.675 Y-370.520
G1 X333.842 Y-369.412
G1 X334.006 Y-368.319
G1 X334.168 Y-367.246
G1 X334.326 Y-366.195
G1 X334.479 Y-365.174
G1 X334.627 Y-364.185
G1 X334.770 Y-363.234
G1 X334.906 Y-362.326
G1 X335.034 Y-361.465
G1 X335.155 Y-360.655
G1 X335.267 Y-359.902
G1 X335.369 Y-359.211
G1 X335.462 Y-358.585
G1 X335.543 Y-358.030
G1 X335.613 Y-357.550
G1 X335.670 Y-357.150
G1 X336.300 Y-352.800
G1 X328.560 Y-356.900
G1 X327.261 Y-357.575
G1 X326.025 Y-358.189
G1 X324.852 Y-358.742
G1 X323.744 Y-359.235
G1 X322.699 Y-359.666
G1 X321.719 Y-360.037
G1 X320.805 Y-360.347
G1 X319.955 Y-360.596
G1 X319.171 Y-360.783
G1 X318.454 Y-360.910
G1 X317.803 Y-360.975
G1 X317.219 Y-360.980
G1 X316.702 Y-360.922
G1 X316.253 Y-360.804
G1 X315.871 Y-360.624
G1 X315.559 Y-360.382
G1 X315.315 Y-360.079
G1 X315.140 Y-359.714
G1 X315.035 Y-359.288
G1 X315.000 Y-358.800
G1 X315.043 Y-358.417
G1 X315.173 Y-357.983
G1 X315.389 Y-357.496
G1 X315.692 Y-356.957
G1 X316.082 Y-356.366
G1 X316.559 Y-355.722
G1 X317.124 Y-355.025
G1 X317.776 Y-354.276
G1 X318.516 Y-353.473
G1 X319.344 Y-352.616
G1 X320.260 Y-351.706
G1 X321.264 Y-350.742
G1 X322.357 Y-349.725
G1 X323.538 Y-348.653
G1 X324.809 Y-347.526
G1 X326.168 Y-346.345
G1 X327.617 Y-345.109
G1 X329.155 Y-343.818
G1 X330.782 Y-342.472
G1 X332.500 Y-341.070
G1 X339.490 Y-335.390
G1 X341.700 Y-323.450
G1 X342.142 Y-321.063
G1 X342.537 Y-318.924
G1 X342.882 Y-317.023
G1 X343.176 Y-315.350
G1 X343.417 Y-313.896
G1 X343.602 Y-312.651
G1 X343.730 Y-311.605
G1 X343.798 Y-310.749
G1 X343.805 Y-310.072
G1 X343.749 Y-309.566
G1 X343.627 Y-309.221
G1 X343.437 Y-309.026
G1 X343.178 Y-308.973
G1 X342.848 Y-309.051
G1 X342.444 Y-309.251
G1 X341.964 Y-309.563
G1 X341.407 Y-309.978
G1 X340.770 Y-310.485
G1 X340.052 Y-311.076
G1 X339.250 Y-311.740
G1 X336.602 Y-313.874
G1 X334.027 Y-315.850
G1 X331.524 Y-317.666
G1 X329.094 Y-319.322
G1 X326.738 Y-320.819
G1 X324.457 Y-322.155
G1 X322.250 Y-323.332
G1 X320.118 Y-324.348
G1 X318.063 Y-325.204
G1 X316.084 Y-325.899
G1 X314.182 Y-326.433
G1 X312.357 Y-326.806
G1 X310.611 Y-327.018
G1 X308.943 Y-327.068
G1 X307.355 Y-326.957
G1 X305.846 Y-326.684
G1 X304.418 Y-326.249
G1 X303.070 Y-325.652
G1 X301.804 Y-324.892
G1 X300.620 Y-323.970
G1 X300.011 Y-323.405
G1 X299.430 Y-322.801
G1 X298.877 Y-322.159
G1 X298.350 Y-321.476
G1 X297.851 Y-320.752
G1 X297.378 Y-319.988
G1 X296.931 Y-319.181
G1 X296.510 Y-318.331
G1 X296.116 Y-317.438
G1 X295.746 Y-316.500
G1 X295.402 Y-315.517
G1 X295.083 Y-314.489
G1 X294.789 Y-313.414
G1 X294.519 Y-312.292
G1 X294.274 Y-311.123
G1 X294.052 Y-309.904
G1 X293.854 Y-308.636
G1 X293.680 Y-307.319
G1 X293.528 Y-305.950
G1 X293.400 Y-304.530
G1 X293.293 Y-303.239
G1 X293.187 Y-302.053
G1 X293.083 Y-300.971
G1 X292.979 Y-299.990
G1 X292.875 Y-299.109
G1 X292.770 Y-298.327
G1 X292.665 Y-297.641
G1 X292.557 Y-297.050
G1 X292.447 Y-296.552
G1 X292.335 Y-296.145
G1 X292.219 Y-295.828
G1 X292.100 Y-295.599
G1 X291.976 Y-295.456
G1 X291.847 Y-295.398
G1 X291.713 Y-295.423
G1 X291.572 Y-295.529
G1 X291.425 Y-295.714
G1 X291.271 Y-295.977
G1 X291.110 Y-296.317
G1 X290.940 Y-296.730
G1 X290.859 Y-296.926
G1 X290.773 Y-297.112
G1 X290.681 Y-297.287
G1 X290.585 Y-297.452
G1 X290.484 Y-297.606
G1 X290.379 Y-297.749
G1 X290.271 Y-297.880
G1 X290.159 Y-297.999
G1 X290.044 Y-298.107
G1 X289.926 Y-298.202
G1 X289.806 Y-298.285
G1 X289.684 Y-298.356
G1 X289.561 Y-298.413
G1 X289.436 Y-298.457
G1 X289.310 Y-298.488
G1 X289.184 Y-298.505
G1 X289.057 Y-298.508
G1 X288.931 Y-298.496
G1 X288.805 Y-298.471
G1 X288.680 Y-298.430
G1 X288.520 Y-298.412
G1 X288.313 Y-298.461
G1 X288.060 Y-298.578
G1 X287.761 Y-298.762
G1 X287.416 Y-299.013
G1 X287.026 Y-299.330
G1 X286.592 Y-299.712
G1 X286.113 Y-300.160
G1 X285.591 Y-300.672
G1 X285.025 Y-301.249
G1 X284.416 Y-301.889
G1 X283.765 Y-302.593
G1 X283.072 Y-303.360
G1 X282.337 Y-304.189
G1 X281.562 Y-305.080
G1 X280.745 Y-306.033
G1 X279.888 Y-307.047
G1 X278.991 Y-308.121
G1 X278.055 Y-309.256
G1 X277.080 Y-310.450
G1 X275.684 Y-312.160
G1 X274.392 Y-313.727
G1 X273.199 Y-315.155
G1 X272.100 Y-316.447
G1 X271.090 Y-317.607
G1 X270.165 Y-318.640
G1 X269.320 Y-319.550
G1 X268.550 Y-320.339
G1 X267.851 Y-321.014
G1 X267.217 Y-321.576
G1 X266.645 Y-322.031
G1 X266.129 Y-322.383
G1 X265.664 Y-322.634
G1 X265.246 Y-322.790
G1 X264.871 Y-322.855
G1 X264.533 Y-322.831
G1 X264.227 Y-322.724
G1 X263.950 Y-322.537
G1 X263.696 Y-322.274
G1 X263.460 Y-321.940
G1 X263.389 Y-321.865
G1 X263.290 Y-321.824
G1 X263.164 Y-321.816
G1 X263.013 Y-321.840
G1 X262.837 Y-321.894
G1 X262.637 Y-321.979
G1 X262.415 Y-322.094
G1 X262.172 Y-322.238
G1 X261.908 Y-322.410
G1 X261.625 Y-322.609
G1 X261.324 Y-322.835
G1 X261.005 Y-323.086
G1 X260.670 Y-323.363
G1 X260.320 Y-323.664
G1 X259.956 Y-323.989
G1 X259.578 Y-324.336
G1 X259.189 Y-324.706
G1 X258.789 Y-325.097
G1 X258.379 Y-325.509
G1 X257.960 Y-325.940
G1 X257.409 Y-326.510
G1 X256.887 Y-327.039
G1 X256.390 Y-327.528
G1 X255.918 Y-327.979
G1 X255.468 Y-328.393
G1 X255.038 Y-328.771
G1 X254.627 Y-329.114
G1 X254.231 Y-329.423
G1 X253.850 Y-329.701
G1 X253.481 Y-329.948
G1 X253.123 Y-330.165
G1 X252.772 Y-330.354
G1 X252.428 Y-330.516
G1 X252.089 Y-330.652
G1 X251.751 Y-330.763
G1 X251.414 Y-330.852
G1 X251.076 Y-330.919
G1 X250.733 Y-330.965
G1 X250.386 Y-330.991
G1 X250.030 Y-331.000
G1 X249.334 Y-330.975
G1 X248.699 Y-330.896
G1 X248.123 Y-330.760
G1 X247.605 Y-330.561
G1 X247.144 Y-330.296
G1 X246.739 Y-329.960
G1 X246.389 Y-329.548
G1 X246.093 Y-329.057
G1 X245.851 Y-328.482
G1 X245.660 Y-327.819
G1 X245.520 Y-327.063
G1 X245.431 Y-326.209
G1 X245.390 Y-325.254
G1 X245.397 Y-324.193
G1 X245.451 Y-323.022
G1 X245.551 Y-321.737
G1 X245.696 Y-320.332
G1 X245.885 Y-318.804
G1 X246.117 Y-317.148
G1 X246.390 Y-315.360
G1 X246.655 Y-313.673
G1 X246.894 Y-312.101
G1 X247.109 Y-310.642
G1 X247.299 Y-309.293
G1 X247.463 Y-308.049
G1 X247.603 Y-306.909
G1 X247.719 Y-305.869
G1 X247.810 Y-304.925
G1 X247.876 Y-304.075
G1 X247.919 Y-303.315
G1 X247.937 Y-302.643
G1 X247.932 Y-302.054
G1 X247.902 Y-301.547
G1 X247.849 Y-301.118
G1 X247.772 Y-300.763
G1 X247.672 Y-300.480
G1 X247.549 Y-300.265
G1 X247.402 Y-300.116
G1 X247.233 Y-300.028
G1 X247.040 Y-300.000
G1 X246.794 Y-300.102
G1 X246.450 Y-300.406
G1 X246.012 Y-300.904
G1 X245.482 Y-301.593
G1 X244.865 Y-302.465
G1 X244.164 Y-303.516
G1 X243.381 Y-304.740
G1 X242.521 Y-306.132
G1 X241.585 Y-307.685
G1 X240.579 Y-309.394
G1 X239.504 Y-311.253
G1 X238.364 Y-313.258
G1 X237.163 Y-315.402
G1 X235.903 Y-317.680
G1 X234.588 Y-320.085
G1 X233.221 Y-322.614
G1 X231.805 Y-325.259
G1 X230.345 Y-328.015
G1 X228.842 Y-330.878
G1 X227.300 Y-333.840
G1 X225.734 Y-336.858
G1 X224.310 Y-339.593
G1 X223.018 Y-342.057
G1 X221.849 Y-344.265
G1 X220.794 Y-346.229
G1 X219.842 Y-347.964
G1 X218.985 Y-349.484
G1 X218.214 Y-350.801
G1 X217.519 Y-351.930
G1 X216.890 Y-352.884
G1 X216.319 Y-353.677
G1 X215.795 Y-354.322
G1 X215.310 Y-354.833
G1 X214.855 Y-355.224
G1 X214.419 Y-355.509
G1 X213.993 Y-355.700
G1 X213.569 Y-355.813
G1 X213.137 Y-355.859
G1 X212.687 Y-355.854
G1 X212.210 Y-355.810
G1 X211.934 Y-355.771
G1 X211.672 Y-355.721
G1 X211.423 Y-355.660
G1 X211.188 Y-355.589
G1 X210.965 Y-355.505
G1 X210.755 Y-355.409
G1 X210.556 Y-355.301
G1 X210.368 Y-355.179
G1 X210.191 Y-355.044
G1 X210.024 Y-354.894
G1 X209.866 Y-354.729
G1 X209.717 Y-354.549
G1 X209.577 Y-354.354
G1 X209.445 Y-354.142
G1 X209.320 Y-353.913
G1 X209.202 Y-353.667
G1 X209.091 Y-353.403
G1 X208.985 Y-353.121
G1 X208.885 Y-352.820
G1 X208.790 Y-352.500
G1 X208.672 Y-351.916
G1 X208.586 Y-351.127
G1 X208.531 Y-350.146
G1 X208.507 Y-348.989
G1 X208.513 Y-347.670
G1 X208.546 Y-346.201
G1 X208.607 Y-344.599
G1 X208.694 Y-342.876
G1 X208.806 Y-341.046
G1 X208.942 Y-339.125
G1 X209.102 Y-337.126
G1 X209.282 Y-335.062
G1 X209.484 Y-332.949
G1 X209.706 Y-330.801
G1 X209.946 Y-328.630
G1 X210.204 Y-326.453
G1 X210.478 Y-324.282
G1 X210.768 Y-322.131
G1 X211.072 Y-320.016
G1 X211.390 Y-317.950
G1 X211.492 Y-317.301
G1 X211.588 Y-316.665
G1 X211.677 Y-316.046
G1 X211.760 Y-315.445
G1 X211.837 Y-314.864
G1 X211.906 Y-314.306
G1 X211.969 Y-313.771
G1 X212.024 Y-313.264
G1 X212.072 Y-312.785
G1 X212.113 Y-312.336
G1 X212.145 Y-311.921
G1 X212.170 Y-311.540
G1 X212.188 Y-311.196
G1 X212.197 Y-310.891
G1 X212.197 Y-310.628
G1 X212.189 Y-310.407
G1 X212.173 Y-310.232
G1 X212.148 Y-310.105
G1 X212.113 Y-310.027
G1 X212.070 Y-310.000
G1 X212.002 Y-310.018
G1 X211.897 Y-310.069
G1 X211.754 Y-310.154
G1 X211.577 Y-310.270
G1 X211.368 Y-310.415
G1 X211.127 Y-310.590
G1 X210.856 Y-310.792
G1 X210.558 Y-311.019
G1 X210.234 Y-311.271
G1 X209.886 Y-311.546
G1 X209.516 Y-311.843
G1 X209.124 Y-312.160
G1 X208.714 Y-312.496
G1 X208.287 Y-312.849
G1 X207.844 Y-313.219
G1 X207.388 Y-313.603
G1 X206.919 Y-314.001
G1 X206.441 Y-314.410
G1 X205.954 Y-314.831
G1 X205.460 Y-315.260
G1 X203.344 Y-317.077
G1 X201.266 Y-318.806
G1 X199.226 Y-320.445
G1 X197.226 Y-321.994
G1 X195.265 Y-323.454
G1 X193.344 Y-324.823
G1 X191.464 Y-326.102
G1 X189.627 Y-327.289
G1 X187.831 Y-328.386
G1 X186.079 Y-329.390
G1 X184.370 Y-330.302
G1 X182.706 Y-331.122
G1 X181.087 Y-331.849
G1 X179.513 Y-332.483
G1 X177.986 Y-333.024
G1 X176.506 Y-333.470
G1 X175.074 Y-333.822
G1 X173.690 Y-334.080
G1 X172.355 Y-334.243
G1 X171.070 Y-334.310
G1 X166.240 Y-334.380
G1 X161.370 Y-344.440
G1 X160.765 Y-345.684
G1 X160.204 Y-346.824
G1 X159.684 Y-347.863
G1 X159.202 Y-348.808
G1 X158.756 Y-349.661
G1 X158.340 Y-350.428
G1 X157.954 Y-351.112
G1 X157.592 Y-351.718
G1 X157.253 Y-352.250
G1 X156.932 Y-352.714
G1 X156.628 Y-353.112
G1 X156.336 Y-353.450
G1 X156.053 Y-353.732
G1 X155.777 Y-353.962
G1 X155.503 Y-354.145
G1 X155.230 Y-354.284
G1 X154.953 Y-354.385
G1 X154.669 Y-354.452
G1 X154.376 Y-354.489
G1 X154.070 Y-354.500
G1 X153.673 Y-354.475
G1 X153.296 Y-354.401
G1 X152.938 Y-354.279
G1 X152.602 Y-354.110
G1 X152.286 Y-353.897
G1 X151.993 Y-353.640
G1 X151.721 Y-353.341
G1 X151.473 Y-353.001
G1 X151.249 Y-352.622
G1 X151.049 Y-352.205
G1 X150.873 Y-351.751
G1 X150.723 Y-351.262
G1 X150.600 Y-350.739
G1 X150.502 Y-350.184
G1 X150.432 Y-349.598
G1 X150.390 Y-348.982
G1 X150.376 Y-348.338
G1 X150.391 Y-347.667
G1 X150.435 Y-346.970
G1 X150.510 Y-346.250
G1 X150.540 Y-345.997
G1 X150.574 Y-345.694
G1 X150.611 Y-345.344
G1 X150.650 Y-344.949
G1 X150.692 Y-344.513
G1 X150.737 Y-344.039
G1 X150.783 Y-343.528
G1 X150.831 Y-342.986
G1 X150.881 Y-342.413
G1 X150.933 Y-341.814
G1 X150.985 Y-341.191
G1 X151.038 Y-340.547
G1 X151.091 Y-339.885
G1 X151.145 Y-339.208
G1 X151.199 Y-338.520
G1 X151.253 Y-337.822
G1 X151.306 Y-337.118
G1 X151.358 Y-336.411
G1 X151.410 Y-335.704
G1 X151.460 Y-335.000
G1 X151.598 Y-333.255
G1 X151.778 Y-331.307
G1 X152.000 Y-329.160
G1 X152.263 Y-326.818
G1 X152.565 Y-324.285
G1 X152.908 Y-321.566
G1 X153.290 Y-318.664
G1 X153.710 Y-315.583
G1 X154.168 Y-312.327
G1 X154.664 Y-308.900
G1 X155.196 Y-305.307
G1 X155.765 Y-301.550
G1 X156.369 Y-297.635
G1 X157.009 Y-293.565
G1 X157.683 Y-289.345
G1 X158.391 Y-284.977
G1 X159.132 Y-280.467
G1 X159.906 Y-275.818
G1 X160.712 Y-271.034
G1 X161.550 Y-266.120
G1 X162.150 Y-262.609
G1 X162.692 Y-259.420
G1 X163.178 Y-256.534
G1 X163.608 Y-253.937
G1 X163.986 Y-251.610
G1 X164.312 Y-249.538
G1 X164.588 Y-247.703
G1 X164.817 Y-246.090
G1 X164.999 Y-244.681
G1 X165.136 Y-243.460
G1 X165.231 Y-242.410
G1 X165.285 Y-241.515
G1 X165.299 Y-240.759
G1 X165.275 Y-240.123
G1 X165.216 Y-239.593
G1 X165.122 Y-239.150
G1 X164.996 Y-238.779
G1 X164.839 Y-238.463
G1 X164.653 Y-238.186
G1 X164.440 Y-237.930
G1 X164.224 Y-237.687
G1 X164.032 Y-237.462
G1 X163.865 Y-237.250
G1 X163.723 Y-237.049
G1 X163.607 Y-236.855
G1 X163.518 Y-236.667
G1 X163.456 Y-236.479
G1 X163.420 Y-236.291
G1 X163.413 Y-236.097
G1 X163.435 Y-235.896
G1 X163.486 Y-235.685
G1 X163.566 Y-235.459
G1 X163.676 Y-235.217
G1 X163.818 Y-234.954
G1 X163.990 Y-234.669
G1 X164.194 Y-234.358
G1 X164.431 Y-234.017
G1 X164.700 Y-233.644
G1 X165.003 Y-233.236
G1 X165.340 Y-232.790
G1 X165.551 Y-232.504
G1 X165.764 Y-232.195
G1 X165.979 Y-231.866
G1 X166.193 Y-231.518
G1 X166.406 Y-231.154
G1 X166.618 Y-230.776
G1 X166.826 Y-230.385
G1 X167.031 Y-229.984
G1 X167.232 Y-229.575
G1 X167.426 Y-229.160
G1 X167.614 Y-228.740
G1 X167.795 Y-228.319
G1 X167.968 Y-227.897
G1 X168.131 Y-227.477
G1 X168.283 Y-227.061
G1 X168.425 Y-226.651
G1 X168.554 Y-226.249
G1 X168.670 Y-225.856
G1 X168.773 Y-225.476
G1 X168.860 Y-225.110
G1 X169.054 Y-224.285
G1 X169.249 Y-223.525
G1 X169.447 Y-222.830
G1 X169.647 Y-222.199
G1 X169.850 Y-221.632
G1 X170.058 Y-221.127
G1 X170.270 Y-220.685
G1 X170.487 Y-220.304
G1 X170.710 Y-219.984
G1 X170.940 Y-219.725
G1 X171.177 Y-219.525
G1 X171.422 Y-219.385
G1 X171.675 Y-219.302
G1 X171.937 Y-219.278
G1 X172.210 Y-219.311
G1 X172.492 Y-219.400
G1 X172.786 Y-219.545
G1 X173.091 Y-219.746
G1 X173.409 Y-220.001
G1 X173.740 Y-220.310
G1 X173.971 Y-220.544
G1 X174.177 Y-220.764
G1 X174.360 Y-220.973
G1 X174.518 Y-221.176
G1 X174.652 Y-221.376
G1 X174.762 Y-221.577
G1 X174.847 Y-221.783
G1 X174.909 Y-221.999
G1 X174.946 Y-222.228
G1 X174.960 Y-222.475
G1 X174.950 Y-222.743
G1 X174.915 Y-223.036
G1 X174.857 Y-223.358
G1 X174.774 Y-223.714
G1 X174.668 Y-224.107
G1 X174.538 Y-224.541
G1 X174.384 Y-225.020
G1 X174.207 Y-225.549
G1 X174.005 Y-226.131
G1 X173.780 Y-226.770
G1 X173.148 Y-228.872
G1 X172.388 Y-231.942
G1 X171.517 Y-235.880
G1 X170.551 Y-240.587
G1 X169.506 Y-245.962
G1 X168.398 Y-251.905
G1 X167.245 Y-258.317
G1 X166.061 Y-265.097
G1 X164.864 Y-272.145
G1 X163.670 Y-279.361
G1 X162.495 Y-286.646
G1 X161.356 Y-293.898
G1 X160.268 Y-301.019
G1 X159.249 Y-307.908
G1 X158.314 Y-314.465
G1 X157.480 Y-320.590
G1 X156.763 Y-326.183
G1 X156.180 Y-331.144
G1 X155.747 Y-335.373
G1 X155.480 Y-338.770
G1 X154.950 Y-347.500
G1 X157.680 Y-341.500
G1 X158.738 Y-339.197
G1 X159.881 Y-336.753
G1 X161.096 Y-334.193
G1 X162.371 Y-331.538
G1 X163.697 Y-328.811
G1 X165.060 Y-326.034
G1 X166.449 Y-323.230
G1 X167.854 Y-320.421
G1 X169.262 Y-317.630
G1 X170.661 Y-314.880
G1 X172.041 Y-312.193
G1 X173.390 Y-309.591
G1 X174.695 Y-307.097
G1 X175.947 Y-304.734
G1 X177.133 Y-302.524
G1 X178.241 Y-300.490
G1 X179.260 Y-298.654
G1 X180.179 Y-297.039
G1 X180.986 Y-295.666
G1 X181.670 Y-294.560
G1 X182.809 Y-292.817
G1 X183.927 Y-291.176
G1 X185.020 Y-289.638
G1 X186.087 Y-288.206
G1 X187.124 Y-286.881
G1 X188.129 Y-285.667
G1 X189.099 Y-284.564
G1 X190.032 Y-283.577
G1 X190.925 Y-282.706
G1 X191.775 Y-281.954
G1 X192.580 Y-281.323
G1 X193.337 Y-280.815
G1 X194.043 Y-280.433
G1 X194.696 Y-280.179
G1 X195.294 Y-280.055
G1 X195.833 Y-280.062
G1 X196.310 Y-280.205
G1 X196.724 Y-280.484
G1 X197.072 Y-280.901
G1 X197.350 Y-281.460
G1 X197.429 Y-281.873
G1 X197.403 Y-282.419
G1 X197.273 Y-283.097
G1 X197.039 Y-283.906
G1 X196.704 Y-284.843
G1 X196.267 Y-285.906
G1 X195.730 Y-287.093
G1 X195.095 Y-288.403
G1 X194.361 Y-289.834
G1 X193.530 Y-291.384
G1 X192.603 Y-293.050
G1 X191.581 Y-294.832
G1 X190.466 Y-296.727
G1 X189.257 Y-298.733
G1 X187.956 Y-300.848
G1 X186.565 Y-303.071
G1 X185.083 Y-305.399
G1 X183.513 Y-307.832
G1 X181.855 Y-310.366
G1 X180.110 Y-313.000
G1 X178.605 Y-315.263
G1 X177.247 Y-317.309
G1 X176.030 Y-319.151
G1 X174.950 Y-320.798
G1 X174.001 Y-322.263
G1 X173.177 Y-323.556
G1 X172.472 Y-324.688
G1 X171.881 Y-325.670
G1 X171.399 Y-326.514
G1 X171.019 Y-327.230
G1 X170.736 Y-327.830
G1 X170.545 Y-328.324
G1 X170.440 Y-328.725
G1 X170.415 Y-329.042
G1 X170.465 Y-329.287
G1 X170.584 Y-329.471
G1 X170.766 Y-329.606
G1 X171.007 Y-329.701
G1 X171.300 Y-329.769
G1 X171.640 Y-329.820
G1 X172.595 Y-329.855
G1 X173.689 Y-329.735
G1 X174.913 Y-329.465
G1 X176.262 Y-329.049
G1 X177.727 Y-328.493
G1 X179.301 Y-327.799
G1 X180.977 Y-326.974
G1 X182.749 Y-326.021
G1 X184.607 Y-324.946
G1 X186.546 Y-323.752
G1 X188.558 Y-322.445
G1 X190.636 Y-321.030
G1 X192.772 Y-319.509
G1 X194.959 Y-317.889
G1 X197.190 Y-316.174
G1 X199.458 Y-314.368
G1 X201.755 Y-312.476
G1 X204.074 Y-310.503
G1 X206.408 Y-308.452
G1 X208.750 Y-306.330
G1 X214.010 Y-301.500
G1 X217.510 Y-282.500
G1 X217.809 Y-280.897
G1 X218.121 Y-279.228
G1 X218.446 Y-277.502
G1 X218.782 Y-275.729
G1 X219.126 Y-273.918
G1 X219.477 Y-272.077
G1 X219.834 Y-270.215
G1 X220.194 Y-268.341
G1 X220.556 Y-266.465
G1 X220.919 Y-264.595
G1 X221.280 Y-262.740
G1 X221.637 Y-260.910
G1 X221.989 Y-259.113
G1 X222.335 Y-257.358
G1 X222.672 Y-255.655
G1 X222.999 Y-254.011
G1 X223.314 Y-252.437
G1 X223.616 Y-250.941
G1 X223.901 Y-249.533
G1 X224.170 Y-248.220
G1 X224.594 Y-246.151
G1 X224.975 Y-244.275
G1 X225.315 Y-242.583
G1 X225.613 Y-241.062
G1 X225.872 Y-239.704
G1 X226.092 Y-238.497
G1 X226.273 Y-237.431
G1 X226.417 Y-236.496
G1 X226.524 Y-235.680
G1 X226.596 Y-234.975
G1 X226.633 Y-234.369
G1 X226.637 Y-233.852
G1 X226.607 Y-233.413
G1 X226.545 Y-233.042
G1 X226.452 Y-232.729
G1 X226.329 Y-232.463
G1 X226.176 Y-232.233
G1 X225.995 Y-232.030
G1 X225.786 Y-231.842
G1 X225.550 Y-231.660
G1 X225.317 Y-231.485
G1 X225.113 Y-231.316
G1 X224.936 Y-231.150
G1 X224.790 Y-230.982
G1 X224.675 Y-230.809
G1 X224.592 Y-230.625
G1 X224.542 Y-230.428
G1 X224.526 Y-230.212
G1 X224.546 Y-229.973
G1 X224.602 Y-229.709
G1 X224.697 Y-229.413
G1 X224.829 Y-229.083
G1 X225.002 Y-228.714
G1 X225.216 Y-228.302
G1 X225.471 Y-227.842
G1 X225.770 Y-227.331
G1 X226.113 Y-226.764
G1 X226.502 Y-226.138
G1 X226.937 Y-225.448
G1 X227.420 Y-224.690
G1 X227.935 Y-223.908
G1 X228.443 Y-223.178
G1 X228.941 Y-222.501
G1 X229.429 Y-221.879
G1 X229.904 Y-221.312
G1 X230.363 Y-220.802
G1 X230.804 Y-220.351
G1 X231.227 Y-219.960
G1 X231.627 Y-219.630
G1 X232.004 Y-219.362
G1 X232.355 Y-219.159
G1 X232.677 Y-219.021
G1 X232.970 Y-218.950
G1 X233.231 Y-218.948
G1 X233.457 Y-219.014
G1 X233.647 Y-219.152
G1 X233.798 Y-219.362
G1 X233.909 Y-219.646
G1 X233.977 Y-220.005
G1 X234.000 Y-220.440
G1 X233.978 Y-220.665
G1 X233.915 Y-221.097
G1 X233.811 Y-221.727
G1 X233.669 Y-222.546
G1 X233.490 Y-223.546
G1 X233.276 Y-224.718
G1 X233.028 Y-226.052
G1 X232.748 Y-227.541
G1 X232.439 Y-229.174
G1 X232.101 Y-230.944
G1 X231.737 Y-232.841
G1 X231.348 Y-234.857
G1 X230.935 Y-236.982
G1 X230.501 Y-239.208
G1 X230.047 Y-241.527
G1 X229.575 Y-243.928
G1 X229.087 Y-246.404
G1 X228.584 Y-248.946
G1 X228.067 Y-251.544
G1 X227.540 Y-254.190
G1 X226.062 Y-261.628
G1 X224.664 Y-268.761
G1 X223.346 Y-275.590
G1 X222.108 Y-282.114
G1 X220.950 Y-288.334
G1 X219.872 Y-294.248
G1 X218.874 Y-299.858
G1 X217.956 Y-305.163
G1 X217.118 Y-310.163
G1 X216.360 Y-314.857
G1 X215.682 Y-319.247
G1 X215.085 Y-323.331
G1 X214.567 Y-327.109
G1 X214.130 Y-330.583
G1 X213.773 Y-333.750
G1 X213.496 Y-336.612
G1 X213.299 Y-339.168
G1 X213.182 Y-341.418
G1 X213.146 Y-343.362
G1 X213.190 Y-345.000
G1 X213.500 Y-350.500
G1 X223.160 Y-331.920
G1 X225.378 Y-327.668
G1 X227.460 Y-323.719
G1 X229.411 Y-320.064
G1 X231.237 Y-316.694
G1 X232.945 Y-313.600
G1 X234.540 Y-310.773
G1 X236.030 Y-308.202
G1 X237.420 Y-305.880
G1 X238.715 Y-303.796
G1 X239.924 Y-301.942
G1 X241.051 Y-300.309
G1 X242.102 Y-298.886
G1 X243.085 Y-297.666
G1 X244.005 Y-296.638
G1 X244.868 Y-295.793
G1 X245.681 Y-295.123
G1 X246.449 Y-294.618
G1 X247.179 Y-294.269
G1 X247.878 Y-294.066
G1 X248.550 Y-294.000
G1 X248.995 Y-294.022
G1 X249.406 Y-294.090
G1 X249.784 Y-294.204
G1 X250.130 Y-294.369
G1 X250.444 Y-294.584
G1 X250.726 Y-294.853
G1 X250.977 Y-295.176
G1 X251.197 Y-295.557
G1 X251.388 Y-295.997
G1 X251.549 Y-296.497
G1 X251.681 Y-297.061
G1 X251.785 Y-297.689
G1 X251.861 Y-298.384
G1 X251.910 Y-299.148
G1 X251.932 Y-299.982
G1 X251.928 Y-300.889
G1 X251.898 Y-301.870
G1 X251.843 Y-302.928
G1 X251.764 Y-304.064
G1 X251.660 Y-305.280
G1 X251.610 Y-305.815
G1 X251.558 Y-306.390
G1 X251.502 Y-307.003
G1 X251.444 Y-307.650
G1 X251.383 Y-308.326
G1 X251.321 Y-309.028
G1 X251.257 Y-309.753
G1 X251.192 Y-310.496
G1 X251.126 Y-311.254
G1 X251.059 Y-312.022
G1 X250.991 Y-312.799
G1 X250.924 Y-313.579
G1 X250.857 Y-314.359
G1 X250.791 Y-315.134
G1 X250.725 Y-315.903
G1 X250.660 Y-316.660
G1 X250.597 Y-317.402
G1 X250.536 Y-318.125
G1 X250.477 Y-318.826
G1 X250.420 Y-319.500
G1 X249.770 Y-327.500
G1 X253.450 Y-324.000
G1 X254.099 Y-323.353
G1 X254.806 Y-322.589
G1 X255.565 Y-321.718
G1 X256.372 Y-320.746
G1 X257.221 Y-319.681
G1 X258.106 Y-318.531
G1 X259.023 Y-317.305
G1 X259.965 Y-316.010
G1 X260.927 Y-314.653
G1 X261.905 Y-313.244
G1 X262.892 Y-311.789
G1 X263.884 Y-310.296
G1 X264.874 Y-308.774
G1 X265.857 Y-307.230
G1 X266.829 Y-305.672
G1 X267.783 Y-304.108
G1 X268.715 Y-302.546
G1 X269.619 Y-300.994
G1 X270.489 Y-299.459
G1 X271.320 Y-297.950
G1 X271.892 Y-296.916
G1 X272.464 Y-295.921
G1 X273.036 Y-294.966
G1 X273.608 Y-294.050
G1 X274.178 Y-293.176
G1 X274.746 Y-292.343
G1 X275.311 Y-291.553
G1 X275.874 Y-290.805
G1 X276.432 Y-290.102
G1 X276.986 Y-289.442
G1 X277.535 Y-288.828
G1 X278.079 Y-288.260
G1 X278.616 Y-287.739
G1 X279.146 Y-287.264
G1 X279.669 Y-286.838
G1 X280.184 Y-286.460
G1 X280.690 Y-286.132
G1 X281.187 Y-285.853
G1 X281.674 Y-285.626
G1 X282.150 Y-285.450
G1 X282.476 Y-285.377
G1 X282.838 Y-285.349
G1 X283.229 Y-285.361
G1 X283.646 Y-285.412
G1 X284.081 Y-285.499
G1 X284.529 Y-285.618
G1 X284.985 Y-285.766
G1 X285.442 Y-285.941
G1 X285.896 Y-286.139
G1 X286.340 Y-286.357
G1 X286.769 Y-286.594
G1 X287.176 Y-286.845
G1 X287.557 Y-287.107
G1 X287.906 Y-287.378
G1 X288.217 Y-287.655
G1 X288.483 Y-287.934
G1 X288.701 Y-288.214
G1 X288.863 Y-288.490
G1 X288.965 Y-288.759
G1 X289.000 Y-289.020
G1 X289.008 Y-289.100
G1 X289.031 Y-289.179
G1 X289.069 Y-289.255
G1 X289.121 Y-289.329
G1 X289.186 Y-289.401
G1 X289.264 Y-289.470
G1 X289.354 Y-289.536
G1 X289.456 Y-289.598
G1 X289.568 Y-289.657
G1 X289.691 Y-289.712
G1 X289.824 Y-289.764
G1 X289.966 Y-289.811
G1 X290.116 Y-289.853
G1 X290.274 Y-289.890
G1 X290.439 Y-289.923
G1 X290.610 Y-289.950
G1 X290.788 Y-289.971
G1 X290.971 Y-289.987
G1 X291.158 Y-289.997
G1 X291.350 Y-290.000
G1 X291.903 Y-290.022
G1 X292.424 Y-290.088
G1 X292.912 Y-290.201
G1 X293.370 Y-290.362
G1 X293.799 Y-290.574
G1 X294.199 Y-290.839
G1 X294.571 Y-291.158
G1 X294.917 Y-291.534
G1 X295.238 Y-291.969
G1 X295.535 Y-292.464
G1 X295.809 Y-293.022
G1 X296.060 Y-293.644
G1 X296.291 Y-294.333
G1 X296.502 Y-295.091
G1 X296.694 Y-295.919
G1 X296.868 Y-296.820
G1 X297.026 Y-297.795
G1 X297.168 Y-298.848
G1 X297.296 Y-299.978
G1 X297.410 Y-301.190
G1 X297.826 Y-305.097
G1 X298.373 Y-308.613
G1 X299.058 Y-311.739
G1 X299.888 Y-314.475
G1 X300.871 Y-316.824
G1 X302.015 Y-318.786
G1 X303.328 Y-320.361
G1 X304.818 Y-321.550
G1 X306.492 Y-322.356
G1 X308.358 Y-322.778
G1 X310.423 Y-322.817
G1 X312.696 Y-322.474
G1 X315.183 Y-321.750
G1 X317.894 Y-320.647
G1 X320.835 Y-319.165
G1 X324.015 Y-317.304
G1 X327.440 Y-315.067
G1 X331.120 Y-312.453
G1 X335.060 Y-309.464
G1 X339.270 Y-306.100
G1 X340.083 Y-305.431
G1 X340.834 Y-304.804
G1 X341.523 Y-304.216
G1 X342.155 Y-303.663
G1 X342.732 Y-303.142
G1 X343.257 Y-302.650
G1 X343.732 Y-302.182
G1 X344.160 Y-301.736
G1 X344.545 Y-301.308
G1 X344.887 Y-300.895
G1 X345.192 Y-300.493
G1 X345.461 Y-300.098
G1 X345.696 Y-299.708
G1 X345.901 Y-299.318
G1 X346.079 Y-298.925
G1 X346.232 Y-298.527
G1 X346.363 Y-298.118
G1 X346.474 Y-297.697
G1 X346.569 Y-297.258
G1 X346.650 Y-296.800
G1 X346.764 Y-296.158
G1 X346.893 Y-295.552
G1 X347.038 Y-294.983
G1 X347.197 Y-294.453
G1 X347.370 Y-293.963
G1 X347.554 Y-293.514
G1 X347.748 Y-293.107
G1 X347.953 Y-292.744
G1 X348.166 Y-292.426
G1 X348.386 Y-292.154
G1 X348.613 Y-291.929
G1 X348.845 Y-291.753
G1 X349.082 Y-291.626
G1 X349.321 Y-291.551
G1 X349.562 Y-291.528
G1 X349.805 Y-291.558
G1 X350.047 Y-291.644
G1 X350.287 Y-291.785
G1 X350.525 Y-291.983
G1 X350.760 Y-292.240
G1 X350.856 Y-292.409
G1 X350.930 Y-292.653
G1 X350.982 Y-292.974
G1 X351.013 Y-293.373
G1 X351.021 Y-293.851
G1 X351.007 Y-294.409
G1 X350.970 Y-295.050
G1 X350.911 Y-295.773
G1 X350.829 Y-296.582
G1 X350.724 Y-297.476
G1 X350.596 Y-298.458
G1 X350.444 Y-299.529
G1 X350.269 Y-300.689
G1 X350.070 Y-301.941
G1 X349.847 Y-303.286
G1 X349.601 Y-304.725
G1 X349.330 Y-306.260
G1 X349.034 Y-307.891
G1 X348.715 Y-309.621
G1 X348.370 Y-311.450
G1 X348.093 Y-312.920
G1 X347.825 Y-314.365
G1 X347.566 Y-315.780
G1 X347.316 Y-317.160
G1 X347.078 Y-318.501
G1 X346.851 Y-319.797
G1 X346.636 Y-321.043
G1 X346.434 Y-322.235
G1 X346.246 Y-323.367
G1 X346.072 Y-324.434
G1 X345.915 Y-325.431
G1 X345.773 Y-326.354
G1 X345.648 Y-327.197
G1 X345.542 Y-327.956
G1 X345.453 Y-328.625
G1 X345.385 Y-329.199
G1 X345.336 Y-329.673
G1 X345.309 Y-330.044
G1 X345.303 Y-330.304
G1 X345.320 Y-330.450
G1 X345.359 Y-330.496
G1 X345.415 Y-330.463
G1 X345.487 Y-330.352
G1 X345.575 Y-330.168
G1 X345.678 Y-329.912
G1 X345.795 Y-329.588
G1 X345.925 Y-329.199
G1 X346.068 Y-328.747
G1 X346.221 Y-328.236
G1 X346.386 Y-327.667
G1 X346.561 Y-327.046
G1 X346.745 Y-326.373
G1 X346.937 Y-325.652
G1 X347.137 Y-324.885
G1 X347.344 Y-324.077
G1 X347.556 Y-323.229
G1 X347.774 Y-322.344
G1 X347.996 Y-321.426
G1 X348.222 Y-320.477
G1 X348.450 Y-319.500
G1 X349.259 Y-316.077
G1 X350.080 Y-312.757
G1 X350.913 Y-309.544
G1 X351.756 Y-306.439
G1 X352.609 Y-303.446
G1 X353.470 Y-300.566
G1 X354.338 Y-297.803
G1 X355.213 Y-295.159
G1 X356.094 Y-292.637
G1 X356.979 Y-290.239
G1 X357.867 Y-287.967
G1 X358.758 Y-285.826
G1 X359.651 Y-283.816
G1 X360.544 Y-281.940
G1 X361.437 Y-280.202
G1 X362.328 Y-278.604
G1 X363.217 Y-277.148
G1 X364.103 Y-275.837
G1 X364.984 Y-274.673
G1 X365.860 Y-273.660
G1 X366.722 Y-272.774
G1 X367.586 Y-271.963
G1 X368.448 Y-271.228
G1 X369.308 Y-270.570
G1 X370.163 Y-269.988
G1 X371.010 Y-269.483
G1 X371.849 Y-269.056
G1 X372.677 Y-268.707
G1 X373.492 Y-268.437
G1 X374.293 Y-268.245
G1 X375.076 Y-268.132
G1 X375.840 Y-268.099
G1 X376.583 Y-268.146
G1 X377.303 Y-268.274
G1 X377.999 Y-268.482
G1 X378.667 Y-268.772
G1 X379.306 Y-269.143
G1 X379.915 Y-269.596
G1 X380.490 Y-270.132
G1 X381.030 Y-270.750
G1 X381.304 Y-271.103
G1 X381.553 Y-271.443
G1 X381.778 Y-271.775
G1 X381.980 Y-272.102
G1 X382.160 Y-272.430
G1 X382.318 Y-272.762
G1 X382.456 Y-273.104
G1 X382.573 Y-273.461
G1 X382.671 Y-273.836
G1 X382.751 Y-274.234
G1 X382.813 Y-274.660
G1 X382.859 Y-275.118
G1 X382.888 Y-275.614
G1 X382.902 Y-276.151
G1 X382.902 Y-276.734
G1 X382.888 Y-277.367
G1 X382.861 Y-278.056
G1 X382.821 Y-278.805
G1 X382.771 Y-279.618
G1 X382.710 Y-280.500
G1 X382.610 Y-281.739
G1 X382.484 Y-282.959
G1 X382.333 Y-284.166
G1 X382.155 Y-285.362
G1 X381.947 Y-286.552
G1 X381.710 Y-287.741
G1 X381.441 Y-288.933
G1 X381.139 Y-290.132
G1 X380.804 Y-291.341
G1 X380.432 Y-292.566
G1 X380.025 Y-293.811
G1 X379.579 Y-295.079
G1 X379.093 Y-296.376
G1 X378.567 Y-297.704
G1 X377.999 Y-299.070
G1 X377.387 Y-300.475
G1 X376.731 Y-301.926
G1 X376.029 Y-303.426
G1 X375.279 Y-304.979
G1 X374.480 Y-306.590
G1 X370.420 Y-314.680
G1 X383.960 Y-307.800
G1 X386.073 Y-306.737
G1 X388.076 Y-305.751
G1 X389.967 Y-304.844
G1 X391.746 Y-304.016
G1 X393.413 Y-303.266
G1 X394.968 Y-302.594
G1 X396.411 Y-302.001
G1 X397.741 Y-301.487
G1 X398.959 Y-301.051
G1 X400.064 Y-300.694
G1 X401.055 Y-300.416
G1 X401.933 Y-300.216
G1 X402.698 Y-300.096
G1 X403.349 Y-300.055
G1 X403.885 Y-300.092
G1 X404.308 Y-300.209
G1 X404.615 Y-300.405
G1 X404.809 Y-300.681
G1 X404.887 Y-301.036
G1 X404.850 Y-301.470
G1 X404.794 Y-301.647
G1 X404.693 Y-301.837
G1 X404.547 Y-302.038
G1 X404.356 Y-302.252
G1 X404.121 Y-302.477
G1 X403.843 Y-302.713
G1 X403.522 Y-302.960
G1 X403.159 Y-303.218
G1 X402.753 Y-303.486
G1 X402.306 Y-303.764
G1 X401.818 Y-304.052
G1 X401.290 Y-304.349
G1 X400.721 Y-304.656
G1 X400.113 Y-304.972
G1 X399.465 Y-305.296
G1 X398.780 Y-305.629
G1 X398.056 Y-305.970
G1 X397.294 Y-306.319
G1 X396.495 Y-306.676
G1 X395.660 Y-307.040
G1 X393.490 Y-307.996
G1 X391.305 Y-308.998
G1 X389.118 Y-310.038
G1 X386.938 Y-311.111
G1 X384.776 Y-312.209
G1 X382.642 Y-313.328
G1 X380.549 Y-314.459
G1 X378.504 Y-315.598
G1 X376.521 Y-316.737
G1 X374.609 Y-317.870
G1 X372.778 Y-318.991
G1 X371.040 Y-320.093
G1 X369.405 Y-321.170
G1 X367.884 Y-322.215
G1 X366.487 Y-323.223
G1 X365.225 Y-324.187
G1 X364.109 Y-325.099
G1 X363.149 Y-325.955
G1 X362.356 Y-326.747
G1 X361.740 Y-327.470
G1 X361.471 Y-327.818
G1 X361.174 Y-328.195
G1 X360.849 Y-328.597
G1 X360.500 Y-329.024
G1 X360.128 Y-329.471
G1 X359.737 Y-329.937
G1 X359.327 Y-330.419
G1 X358.901 Y-330.914
G1 X358.462 Y-331.420
G1 X358.011 Y-331.935
G1 X357.551 Y-332.456
G1 X357.084 Y-332.980
G1 X356.613 Y-333.505
G1 X356.138 Y-334.029
G1 X355.664 Y-334.549
G1 X355.191 Y-335.062
G1 X354.721 Y-335.567
G1 X354.259 Y-336.059
G1 X353.804 Y-336.538
G1 X353.360 Y-337.000
G1 X348.050 Y-342.500
G1 X342.980 Y-372.000
G1 X342.152 Y-376.804
G1 X341.384 Y-381.208
G1 X340.671 Y-385.228
G1 X340.010 Y-388.882
G1 X339.395 Y-392.184
G1 X338.824 Y-395.153
G1 X338.290 Y-397.805
G1 X337.791 Y-400.157
G1 X337.322 Y-402.224
G1 X336.877 Y-404.025
G1 X336.455 Y-405.575
G1 X336.049 Y-406.891
G1 X335.655 Y-407.990
G1 X335.270 Y-408.889
G1 X334.888 Y-409.603
G1 X334.507 Y-410.150
G1 X334.120 Y-410.547
G1 X333.725 Y-410.810
G1 X333.316 Y-410.955
G1 X332.890 Y-411.000
G1 X332.729 Y-410.995
G1 X332.567 Y-410.979
G1 X332.405 Y-410.953
G1 X332.244 Y-410.918
G1 X332.085 Y-410.874
G1 X331.927 Y-410.821
G1 X331.772 Y-410.759
G1 X331.621 Y-410.690
G1 X331.474 Y-410.614
G1 X331.331 Y-410.530
G1 X331.194 Y-410.440
G1 X331.063 Y-410.343
G1 X330.939 Y-410.241
G1 X330.823 Y-410.134
G1 X330.715 Y-410.021
G1 X330.615 Y-409.904
G1 X330.525 Y-409.783
G1 X330.446 Y-409.659
G1 X330.377 Y-409.531
G1 X330.320 Y-409.400
G1 X336.633 Y-381.698
G1 X336.587 Y-381.601
G1 X336.542 Y-381.520
G1 X336.500 Y-381.454
G1 X336.458 Y-381.403
G1 X336.419 Y-381.368
G1 X336.381 Y-381.347
G1 X336.345 Y-381.342
G1 X336.311 Y-381.352
G1 X336.279 Y-381.376
G1 X336.249 Y-381.415
G1 X336.221 Y-381.469
G1 X336.195 Y-381.538
G1 X336.171 Y-381.621
G1 X336.150 Y-381.719
G1 X336.131 Y-381.830
G1 X336.114 Y-381.957
G1 X336.100 Y-382.097
G1 X336.089 Y-382.251
G1 X336.080 Y-382.420
G1 X336.076 Y-382.574
G1 X336.076 Y-382.721
G1 X336.080 Y-382.860
G1 X336.087 Y-382.991
G1 X336.098 Y-383.114
G1 X336.112 Y-383.228
G1 X336.130 Y-383.334
G1 X336.151 Y-383.430
G1 X336.175 Y-383.516
G1 X336.201 Y-383.593
G1 X336.231 Y-383.659
G1 X336.263 Y-383.714
G1 X336.298 Y-383.758
G1 X336.335 Y-383.791
G1 X336.374 Y-383.812
G1 X336.415 Y-383.821
G1 X336.459 Y-383.818
G1 X336.504 Y-383.802
G1 X336.551 Y-383.773
G1 X336.600 Y-383.730
G1 X336.649 Y-383.677
G1 X336.693 Y-383.615
G1 X336.732 Y-383.547
G1 X336.767 Y-383.473
G1 X336.797 Y-383.392
G1 X336.822 Y-383.306
G1 X336.843 Y-383.215
G1 X336.859 Y-383.119
G1 X336.870 Y-383.019
G1 X336.876 Y-382.916
G1 X336.878 Y-382.810
G1 X336.875 Y-382.702
G1 X336.867 Y-382.592
G1 X336.855 Y-382.480
G1 X336.838 Y-382.367
G1 X336.816 Y-382.254
G1 X336.789 Y-382.142
G1 X336.757 Y-382.030
G1 X336.721 Y-381.919
G1 X336.680 Y-381.810
G1 X337.618 Y-374.656
G1 X337.578 Y-374.580
G1 X337.539 Y-374.522
G1 X337.500 Y-374.483
G1 X337.464 Y-374.460
G1 X337.429 Y-374.455
G1 X337.395 Y-374.466
G1 X337.363 Y-374.494
G1 X337.333 Y-374.539
G1 X337.305 Y-374.599
G1 X337.279 Y-374.674
G1 X337.255 Y-374.765
G1 X337.234 Y-374.871
G1 X337.215 Y-374.991
G1 X337.199 Y-375.125
G1 X337.185 Y-375.274
G1 X337.174 Y-375.436
G1 X337.166 Y-375.611
G1 X337.162 Y-375.799
G1 X337.160 Y-376.000
G1 X337.162 Y-376.201
G1 X337.166 Y-376.389
G1 X337.174 Y-376.564
G1 X337.185 Y-376.726
G1 X337.199 Y-376.875
G1 X337.215 Y-377.009
G1 X337.234 Y-377.129
G1 X337.255 Y-377.235
G1 X337.279 Y-377.326
G1 X337.305 Y-377.401
G1 X337.333 Y-377.461
G1 X337.363 Y-377.506
G1 X337.395 Y-377.534
G1 X337.429 Y-377.545
G1 X337.464 Y-377.540
G1 X337.500 Y-377.517
G1 X337.539 Y-377.478
G1 X337.578 Y-377.420
G1 X337.618 Y-377.344
G1 X337.660 Y-377.250
G1 X337.700 Y-377.143
G1 X337.736 Y-377.031
G1 X337.767 Y-376.913
G1 X337.794 Y-376.791
G1 X337.817 Y-376.665
G1 X337.836 Y-376.536
G1 X337.851 Y-376.404
G1 X337.862 Y-376.271
G1 X337.868 Y-376.136
G1 X337.870 Y-376.000
G1 X337.868 Y-375.864
G1 X337.862 Y-375.729
G1 X337.851 Y-375.596
G1 X337.836 Y-375.464
G1 X337.818 Y-375.335
G1 X337.794 Y-375.209
G1 X337.767 Y-375.087
G1 X337.736 Y-374.969
G1 X337.700 Y-374.857
G1 X337.660 Y-374.750
G1 X338.653 Y-368.136
G1 X338.616 Y-368.024
G1 X338.580 Y-367.935
G1 X338.545 Y-367.867
G1 X338.511 Y-367.821
G1 X338.477 Y-367.796
G1 X338.445 Y-367.792
G1 X338.415 Y-367.809
G1 X338.385 Y-367.846
G1 X338.358 Y-367.903
G1 X338.331 Y-367.979
G1 X338.307 Y-368.075
G1 X338.284 Y-368.190
G1 X338.264 Y-368.323
G1 X338.246 Y-368.475
G1 X338.230 Y-368.645
G1 X338.216 Y-368.833
G1 X338.205 Y-369.038
G1 X338.196 Y-369.261
G1 X338.190 Y-369.500
G1 X338.189 Y-369.741
G1 X338.191 Y-369.969
G1 X338.196 Y-370.183
G1 X338.204 Y-370.383
G1 X338.216 Y-370.568
G1 X338.230 Y-370.738
G1 X338.247 Y-370.893
G1 X338.266 Y-371.032
G1 X338.288 Y-371.154
G1 X338.312 Y-371.259
G1 X338.339 Y-371.346
G1 X338.368 Y-371.416
G1 X338.399 Y-371.467
G1 X338.431 Y-371.499
G1 X338.466 Y-371.512
G1 X338.502 Y-371.505
G1 X338.539 Y-371.478
G1 X338.578 Y-371.430
G1 X338.619 Y-371.361
G1 X338.660 Y-371.270
G1 X338.699 Y-371.163
G1 X338.733 Y-371.047
G1 X338.765 Y-370.922
G1 X338.792 Y-370.790
G1 X338.815 Y-370.651
G1 X338.835 Y-370.505
G1 X338.850 Y-370.355
G1 X338.862 Y-370.200
G1 X338.870 Y-370.041
G1 X338.874 Y-369.879
G1 X338.874 Y-369.715
G1 X338.870 Y-369.549
G1 X338.861 Y-369.383
G1 X338.849 Y-369.217
G1 X338.833 Y-369.052
G1 X338.813 Y-368.889
G1 X338.788 Y-368.729
G1 X338.760 Y-368.571
G1 X338.727 Y-368.418
G1 X338.690 Y-368.270
G1 X339.633 Y-362.698
G1 X339.587 Y-362.601
G1 X339.542 Y-362.520
G1 X339.500 Y-362.454
G1 X339.458 Y-362.403
G1 X339.419 Y-362.368
G1 X339.381 Y-362.347
G1 X339.345 Y-362.342
G1 X339.311 Y-362.352
G1 X339.279 Y-362.376
G1 X339.249 Y-362.415
G1 X339.221 Y-362.469
G1 X339.195 Y-362.538
G1 X339.171 Y-362.621
G1 X339.150 Y-362.719
G1 X339.131 Y-362.830
G1 X339.114 Y-362.957
G1 X339.100 Y-363.097
G1 X339.089 Y-363.251
G1 X339.080 Y-363.420
G1 X339.076 Y-363.574
G1 X339.076 Y-363.721
G1 X339.080 Y-363.860
G1 X339.087 Y-363.991
G1 X339.098 Y-364.114
G1 X339.112 Y-364.228
G1 X339.130 Y-364.334
G1 X339.151 Y-364.430
G1 X339.175 Y-364.516
G1 X339.201 Y-364.593
G1 X339.231 Y-364.659
G1 X339.263 Y-364.714
G1 X339.298 Y-364.758
G1 X339.335 Y-364.791
G1 X339.374 Y-364.812
G1 X339.415 Y-364.821
G1 X339.459 Y-364.818
G1 X339.504 Y-364.802
G1 X339.551 Y-364.773
G1 X339.600 Y-364.730
G1 X339.649 Y-364.677
G1 X339.693 Y-364.615
G1 X339.732 Y-364.547
G1 X339.767 Y-364.473
G1 X339.797 Y-364.392
G1 X339.822 Y-364.306
G1 X339.843 Y-364.215
G1 X339.859 Y-364.119
G1 X339.870 Y-364.019
G1 X339.876 Y-363.916
G1 X339.878 Y-363.810
G1 X339.875 Y-363.702
G1 X339.867 Y-363.592
G1 X339.855 Y-363.480
G1 X339.838 Y-363.367
G1 X339.816 Y-363.254
G1 X339.789 Y-363.142
G1 X339.757 Y-363.030
G1 X339.721 Y-362.919
G1 X339.680 Y-362.810
G1 X340.618 Y-355.656
G1 X340.578 Y-355.580
G1 X340.539 Y-355.522
G1 X340.500 Y-355.483
G1 X340.464 Y-355.460
G1 X340.429 Y-355.455
G1 X340.395 Y-355.466
G1 X340.363 Y-355.494
G1 X340.333 Y-355.539
G1 X340.305 Y-355.599
G1 X340.279 Y-355.674
G1 X340.255 Y-355.765
G1 X340.234 Y-355.871
G1 X340.215 Y-355.991
G1 X340.199 Y-356.125
G1 X340.185 Y-356.274
G1 X340.174 Y-356.436
G1 X340.166 Y-356.611
G1 X340.162 Y-356.799
G1 X340.160 Y-357.000
G1 X340.162 Y-357.201
G1 X340.166 Y-357.389
G1 X340.174 Y-357.564
G1 X340.185 Y-357.726
G1 X340.199 Y-357.875
G1 X340.215 Y-358.009
G1 X340.234 Y-358.129
G1 X340.255 Y-358.235
G1 X340.279 Y-358.326
G1 X340.305 Y-358.401
G1 X340.333 Y-358.461
G1 X340.363 Y-358.506
G1 X340.395 Y-358.534
G1 X340.429 Y-358.545
G1 X340.464 Y-358.540
G1 X340.500 Y-358.517
G1 X340.539 Y-358.478
G1 X340.578 Y-358.420
G1 X340.618 Y-358.344
G1 X340.660 Y-358.250
G1 X340.700 Y-358.143
G1 X340.736 Y-358.031
G1 X340.767 Y-357.913
G1 X340.794 Y-357.791
G1 X340.817 Y-357.665
G1 X340.836 Y-357.536
G1 X340.851 Y-357.404
G1 X340.862 Y-357.271
G1 X340.868 Y-357.136
G1 X340.870 Y-357.000
G1 X340.868 Y-356.864
G1 X340.862 Y-356.729
G1 X340.851 Y-356.596
G1 X340.836 Y-356.464
G1 X340.818 Y-356.335
G1 X340.794 Y-356.209
G1 X340.767 Y-356.087
G1 X340.736 Y-355.969
G1 X340.700 Y-355.857
G1 X340.660 Y-355.750
G1 X341.653 Y-350.136
G1 X341.616 Y-350.024
G1 X341.580 Y-349.935
G1 X341.545 Y-349.867
G1 X341.511 Y-349.821
G1 X341.477 Y-349.796
G1 X341.445 Y-349.792
G1 X341.415 Y-349.809
G1 X341.385 Y-349.846
G1 X341.358 Y-349.903
G1 X341.331 Y-349.979
G1 X341.307 Y-350.075
G1 X341.284 Y-350.190
G1 X341.264 Y-350.323
G1 X341.246 Y-350.475
G1 X341.230 Y-350.645
G1 X341.216 Y-350.833
G1 X341.205 Y-351.038
G1 X341.196 Y-351.261
G1 X341.190 Y-351.500
G1 X341.189 Y-351.741
G1 X341.191 Y-351.969
G1 X341.196 Y-352.183
G1 X341.204 Y-352.383
G1 X341.216 Y-352.568
G1 X341.230 Y-352.738
G1 X341.247 Y-352.893
G1 X341.266 Y-353.032
G1 X341.288 Y-353.154
G1 X341.312 Y-353.259
G1 X341.339 Y-353.346
G1 X341.368 Y-353.416
G1 X341.399 Y-353.467
G1 X341.431 Y-353.499
G1 X341.466 Y-353.512
G1 X341.502 Y-353.505
G1 X341.539 Y-353.478
G1 X341.578 Y-353.430
G1 X341.619 Y-353.361
G1 X341.660 Y-353.270
G1 X341.699 Y-353.163
G1 X341.733 Y-353.047
G1 X341.765 Y-352.922
G1 X341.792 Y-352.790
G1 X341.815 Y-352.651
G1 X341.835 Y-352.505
G1 X341.850 Y-352.355
G1 X341.862 Y-352.200
G1 X341.870 Y-352.041
G1 X341.874 Y-351.879
G1 X341.874 Y-351.715
G1 X341.870 Y-351.549
G1 X341.861 Y-351.383
G1 X341.849 Y-351.217
G1 X341.833 Y-351.052
G1 X341.813 Y-350.889
G1 X341.788 Y-350.729
G1 X341.760 Y-350.571
G1 X341.727 Y-350.418
G1 X341.690 Y-350.270
G1 X335.699 Y-347.310
G1 X336.113 Y-346.952
G1 X336.490 Y-346.590
G1 X336.830 Y-346.229
G1 X337.130 Y-345.873
G1 X337.391 Y-345.526
G1 X337.611 Y-345.191
G1 X337.789 Y-344.874
G1 X337.924 Y-344.578
G1 X338.015 Y-344.308
G1 X338.060 Y-344.066
G1 X338.059 Y-343.859
G1 X338.011 Y-343.690
G1 X337.914 Y-343.562
G1 X337.767 Y-343.481
G1 X337.570 Y-343.449
G1 X337.320 Y-343.473
G1 X337.018 Y-343.554
G1 X336.662 Y-343.699
G1 X336.250 Y-343.910
G1 X336.092 Y-344.004
G1 X335.909 Y-344.123
G1 X335.700 Y-344.265
G1 X335.469 Y-344.430
G1 X335.217 Y-344.615
G1 X334.945 Y-344.820
G1 X334.656 Y-345.043
G1 X334.350 Y-345.283
G1 X334.029 Y-345.539
G1 X333.695 Y-345.809
G1 X333.350 Y-346.091
G1 X332.995 Y-346.385
G1 X332.632 Y-346.690
G1 X332.262 Y-347.003
G1 X331.888 Y-347.323
G1 X331.510 Y-347.650
G1 X331.131 Y-347.981
G1 X330.752 Y-348.316
G1 X330.374 Y-348.652
G1 X330.000 Y-348.990
G1 X329.361 Y-349.570
G1 X328.789 Y-350.092
G1 X328.283 Y-350.555
G1 X327.842 Y-350.964
G1 X327.464 Y-351.318
G1 X327.151 Y-351.621
G1 X326.900 Y-351.873
G1 X326.710 Y-352.077
G1 X326.582 Y-352.234
G1 X326.515 Y-352.346
G1 X326.507 Y-352.415
G1 X326.558 Y-352.443
G1 X326.668 Y-352.431
G1 X326.835 Y-352.382
G1 X327.058 Y-352.296
G1 X327.338 Y-352.176
G1 X327.672 Y-352.024
G1 X328.061 Y-351.841
G1 X328.504 Y-351.629
G1 X329.000 Y-351.390
G1 X329.296 Y-351.244
G1 X329.603 Y-351.087
G1 X329.921 Y-350.922
G1 X330.246 Y-350.749
G1 X330.578 Y-350.568
G1 X330.916 Y-350.381
G1 X331.256 Y-350.190
G1 X331.599 Y-349.994
G1 X331.941 Y-349.794
G1 X332.283 Y-349.592
G1 X332.620 Y-349.389
G1 X332.954 Y-349.186
G1 X333.280 Y-348.983
G1 X333.599 Y-348.782
G1 X333.908 Y-348.583
G1 X334.205 Y-348.388
G1 X334.490 Y-348.197
G1 X334.760 Y-348.011
G1 X335.014 Y-347.832
G1 X335.250 Y-347.660
G1 X366.252 Y-312.150
G1 X367.718 Y-309.727
G1 X369.115 Y-307.264
G1 X370.437 Y-304.778
G1 X371.680 Y-302.281
G1 X372.838 Y-299.790
G1 X373.909 Y-297.318
G1 X374.886 Y-294.880
G1 X375.766 Y-292.490
G1 X376.544 Y-290.164
G1 X377.214 Y-287.915
G1 X377.774 Y-285.758
G1 X378.217 Y-283.708
G1 X378.539 Y-281.780
G1 X378.736 Y-279.987
G1 X378.803 Y-278.344
G1 X378.736 Y-276.867
G1 X378.529 Y-275.569
G1 X378.179 Y-274.465
G1 X377.680 Y-273.570
G1 X377.499 Y-273.328
G1 X377.331 Y-273.111
G1 X377.172 Y-272.919
G1 X377.019 Y-272.752
G1 X376.870 Y-272.610
G1 X376.721 Y-272.493
G1 X376.571 Y-272.401
G1 X376.416 Y-272.334
G1 X376.253 Y-272.291
G1 X376.080 Y-272.273
G1 X375.894 Y-272.279
G1 X375.691 Y-272.309
G1 X375.470 Y-272.364
G1 X375.227 Y-272.443
G1 X374.960 Y-272.546
G1 X374.666 Y-272.673
G1 X374.341 Y-272.824
G1 X373.984 Y-272.999
G1 X373.591 Y-273.198
G1 X373.160 Y-273.420
G1 X372.053 Y-274.082
G1 X370.957 Y-274.916
G1 X369.873 Y-275.924
G1 X368.798 Y-277.107
G1 X367.734 Y-278.466
G1 X366.679 Y-280.003
G1 X365.633 Y-281.718
G1 X364.595 Y-283.613
G1 X363.565 Y-285.688
G1 X362.543 Y-287.946
G1 X361.527 Y-290.388
G1 X360.517 Y-293.013
G1 X359.513 Y-295.825
G1 X358.514 Y-298.824
G1 X357.520 Y-302.010
G1 X356.530 Y-305.387
G1 X355.543 Y-308.954
G1 X354.560 Y-312.712
G1 X353.579 Y-316.664
G1 X352.600 Y-320.810
G1 X351.150 Y-327.110
G1 X355.330 Y-324.720
G1 X355.757 Y-324.462
G1 X356.187 Y-324.180
G1 X356.620 Y-323.872
G1 X357.055 Y-323.540
G1 X357.495 Y-323.183
G1 X357.938 Y-322.799
G1 X358.385 Y-322.389
G1 X358.837 Y-321.953
G1 X359.293 Y-321.490
G1 X359.755 Y-321.000
G1 X360.222 Y-320.482
G1 X360.695 Y-319.936
G1 X361.173 Y-319.362
G1 X361.659 Y-318.759
G1 X362.150 Y-318.127
G1 X362.649 Y-317.466
G1 X363.155 Y-316.775
G1 X363.669 Y-316.054
G1 X364.190 Y-315.302
G1 X364.720 Y-314.520
G1 X281.540 Y-298.282
G1 X281.977 Y-297.760
G1 X282.388 Y-297.254
G1 X282.775 Y-296.765
G1 X283.137 Y-296.294
G1 X283.474 Y-295.840
G1 X283.785 Y-295.404
G1 X284.070 Y-294.986
G1 X284.330 Y-294.588
G1 X284.562 Y-294.209
G1 X284.769 Y-293.849
G1 X284.949 Y-293.510
G1 X285.101 Y-293.191
G1 X285.226 Y-292.893
G1 X285.324 Y-292.617
G1 X285.394 Y-292.362
G1 X285.436 Y-292.130
G1 X285.449 Y-291.920
G1 X285.434 Y-291.733
G1 X285.390 Y-291.570
G1 X285.127 Y-291.025
G1 X284.812 Y-290.614
G1 X284.447 Y-290.335
G1 X284.036 Y-290.184
G1 X283.583 Y-290.158
G1 X283.090 Y-290.255
G1 X282.560 Y-290.470
G1 X281.998 Y-290.801
G1 X281.405 Y-291.244
G1 X280.786 Y-291.798
G1 X280.144 Y-292.457
G1 X279.482 Y-293.220
G1 X278.803 Y-294.082
G1 X278.110 Y-295.042
G1 X277.407 Y-296.095
G1 X276.697 Y-297.239
G1 X275.983 Y-298.471
G1 X275.268 Y-299.787
G1 X274.556 Y-301.185
G1 X273.850 Y-302.660
G1 X273.351 Y-303.746
G1 X272.903 Y-304.738
G1 X272.508 Y-305.636
G1 X272.163 Y-306.441
G1 X271.870 Y-307.154
G1 X271.629 Y-307.776
G1 X271.439 Y-308.309
G1 X271.300 Y-308.753
G1 X271.213 Y-309.109
G1 X271.176 Y-309.377
G1 X271.191 Y-309.560
G1 X271.257 Y-309.658
G1 X271.373 Y-309.672
G1 X271.541 Y-309.603
G1 X271.759 Y-309.452
G1 X272.028 Y-309.220
G1 X272.348 Y-308.908
G1 X272.718 Y-308.516
G1 X273.139 Y-308.047
G1 X273.610 Y-307.500
G1 X273.836 Y-307.236
G1 X274.089 Y-306.940
G1 X274.367 Y-306.615
G1 X274.669 Y-306.263
G1 X274.992 Y-305.886
G1 X275.335 Y-305.487
G1 X275.695 Y-305.068
G1 X276.071 Y-304.630
G1 X276.460 Y-304.177
G1 X276.861 Y-303.711
G1 X277.272 Y-303.234
G1 X277.690 Y-302.748
G1 X278.114 Y-302.256
G1 X278.542 Y-301.759
G1 X278.972 Y-301.260
G1 X279.402 Y-300.762
G1 X279.829 Y-300.267
G1 X280.253 Y-299.777
G1 X280.670 Y-299.294
G1 X281.080 Y-298.820
G1 X535.403 Y-353.771
G1 X535.232 Y-352.995
G1 X535.096 Y-352.088
G1 X534.998 Y-351.044
G1 X534.936 Y-349.861
G1 X534.911 Y-348.534
G1 X534.924 Y-347.059
G1 X534.974 Y-345.431
G1 X535.062 Y-343.647
G1 X535.189 Y-341.702
G1 X535.354 Y-339.593
G1 X535.558 Y-337.314
G1 X535.802 Y-334.862
G1 X536.085 Y-332.233
G1 X536.407 Y-329.422
G1 X536.770 Y-326.426
G1 X537.174 Y-323.240
G1 X537.618 Y-319.859
G1 X538.103 Y-316.281
G1 X538.630 Y-312.500
G1 X539.340 Y-307.500
G1 X532.110 Y-314.000
G1 X527.046 Y-318.453
G1 X522.266 Y-322.455
G1 X517.772 Y-326.005
G1 X513.570 Y-329.104
G1 X509.662 Y-331.751
G1 X506.051 Y-333.946
G1 X502.741 Y-335.688
G1 X499.735 Y-336.978
G1 X497.036 Y-337.815
G1 X494.649 Y-338.199
G1 X492.576 Y-338.129
G1 X490.820 Y-337.606
G1 X489.386 Y-336.629
G1 X488.276 Y-335.198
G1 X487.494 Y-333.312
G1 X487.043 Y-330.972
G1 X486.927 Y-328.177
G1 X487.149 Y-324.927
G1 X487.712 Y-321.221
G1 X488.620 Y-317.060
G1 X489.437 Y-314.028
G1 X490.368 Y-311.084
G1 X491.400 Y-308.240
G1 X492.523 Y-305.510
G1 X493.727 Y-302.906
G1 X495.000 Y-300.441
G1 X496.331 Y-298.126
G1 X497.710 Y-295.976
G1 X499.127 Y-294.001
G1 X500.569 Y-292.216
G1 X502.026 Y-290.633
G1 X503.488 Y-289.264
G1 X504.943 Y-288.121
G1 X506.381 Y-287.219
G1 X507.791 Y-286.568
G1 X509.162 Y-286.183
G1 X510.484 Y-286.074
G1 X511.744 Y-286.256
G1 X512.933 Y-286.740
G1 X514.040 Y-287.540
G1 X514.377 Y-287.855
G1 X514.680 Y-288.163
G1 X514.949 Y-288.466
G1 X515.185 Y-288.766
G1 X515.387 Y-289.065
G1 X515.555 Y-289.366
G1 X515.691 Y-289.672
G1 X515.793 Y-289.983
G1 X515.862 Y-290.304
G1 X515.898 Y-290.635
G1 X515.901 Y-290.979
G1 X515.871 Y-291.339
G1 X515.809 Y-291.717
G1 X515.714 Y-292.115
G1 X515.587 Y-292.535
G1 X515.428 Y-292.980
G1 X515.236 Y-293.451
G1 X515.013 Y-293.952
G1 X514.757 Y-294.484
G1 X514.470 Y-295.050
G1 X514.324 Y-295.320
G1 X514.173 Y-295.580
G1 X514.016 Y-295.827
G1 X513.855 Y-296.063
G1 X513.688 Y-296.287
G1 X513.517 Y-296.499
G1 X513.342 Y-296.697
G1 X513.163 Y-296.883
G1 X512.981 Y-297.056
G1 X512.796 Y-297.215
G1 X512.609 Y-297.360
G1 X512.419 Y-297.492
G1 X512.227 Y-297.608
G1 X512.034 Y-297.711
G1 X511.839 Y-297.798
G1 X511.643 Y-297.870
G1 X511.447 Y-297.926
G1 X511.251 Y-297.967
G1 X511.055 Y-297.992
G1 X510.860 Y-298.000
G1 X510.559 Y-297.993
G1 X510.288 Y-297.972
G1 X510.048 Y-297.933
G1 X509.838 Y-297.875
G1 X509.659 Y-297.797
G1 X509.509 Y-297.696
G1 X509.390 Y-297.569
G1 X509.300 Y-297.416
G1 X509.240 Y-297.234
G1 X509.209 Y-297.021
G1 X509.207 Y-296.775
G1 X509.235 Y-296.494
G1 X509.292 Y-296.177
G1 X509.377 Y-295.820
G1 X509.492 Y-295.422
G1 X509.635 Y-294.982
G1 X509.806 Y-294.496
G1 X510.006 Y-293.964
G1 X510.234 Y-293.382
G1 X510.490 Y-292.750
G1 X510.653 Y-292.288
G1 X510.732 Y-291.896
G1 X510.735 Y-291.571
G1 X510.665 Y-291.311
G1 X510.527 Y-291.116
G1 X510.327 Y-290.984
G1 X510.069 Y-290.913
G1 X509.759 Y-290.901
G1 X509.401 Y-290.947
G1 X509.001 Y-291.050
G1 X508.564 Y-291.208
G1 X508.094 Y-291.419
G1 X507.597 Y-291.682
G1 X507.077 Y-291.995
G1 X506.540 Y-292.356
G1 X505.990 Y-292.765
G1 X505.434 Y-293.219
G1 X504.875 Y-293.718
G1 X504.319 Y-294.258
G1 X503.770 Y-294.840
G1 X502.655 Y-296.180
G1 X501.549 Y-297.712
G1 X500.460 Y-299.414
G1 X499.395 Y-301.264
G1 X498.361 Y-303.237
G1 X497.367 Y-305.313
G1 X496.418 Y-307.469
G1 X495.522 Y-309.681
G1 X494.688 Y-311.927
G1 X493.921 Y-314.185
G1 X493.230 Y-316.432
G1 X492.622 Y-318.645
G1 X492.103 Y-320.801
G1 X491.682 Y-322.879
G1 X491.365 Y-324.855
G1 X491.161 Y-326.707
G1 X491.076 Y-328.412
G1 X491.118 Y-329.948
G1 X491.293 Y-331.291
G1 X491.610 Y-332.420
G1 X492.024 Y-333.140
G1 X492.627 Y-333.645
G1 X493.414 Y-333.939
G1 X494.381 Y-334.023
G1 X495.523 Y-333.901
G1 X496.835 Y-333.576
G1 X498.315 Y-333.049
G1 X499.955 Y-332.324
G1 X501.753 Y-331.403
G1 X503.704 Y-330.290
G1 X505.802 Y-328.986
G1 X508.045 Y-327.495
G1 X510.426 Y-325.819
G1 X512.942 Y-323.961
G1 X515.588 Y-321.924
G1 X518.359 Y-319.710
G1 X521.252 Y-317.321
G1 X524.261 Y-314.762
G1 X527.382 Y-312.034
G1 X530.610 Y-309.140
G1 X540.730 Y-299.970
G1 X542.980 Y-287.730
G1 X543.178 Y-286.661
G1 X543.400 Y-285.475
G1 X543.644 Y-284.182
G1 X543.908 Y-282.790
G1 X544.190 Y-281.308
G1 X544.489 Y-279.744
G1 X544.803 Y-278.108
G1 X545.130 Y-276.409
G1 X545.469 Y-274.654
G1 X545.817 Y-272.854
G1 X546.175 Y-271.016
G1 X546.538 Y-269.150
G1 X546.907 Y-267.264
G1 X547.278 Y-265.367
G1 X547.652 Y-263.468
G1 X548.024 Y-261.576
G1 X548.395 Y-259.699
G1 X548.763 Y-257.847
G1 X549.125 Y-256.027
G1 X549.480 Y-254.250
G1 X549.987 Y-251.700
G1 X550.449 Y-249.350
G1 X550.867 Y-247.193
G1 X551.244 Y-245.221
G1 X551.578 Y-243.424
G1 X551.872 Y-241.794
G1 X552.127 Y-240.324
G1 X552.344 Y-239.004
G1 X552.524 Y-237.827
G1 X552.667 Y-236.784
G1 X552.776 Y-235.866
G1 X552.851 Y-235.066
G1 X552.893 Y-234.374
G1 X552.903 Y-233.783
G1 X552.883 Y-233.284
G1 X552.833 Y-232.869
G1 X552.755 Y-232.530
G1 X552.649 Y-232.257
G1 X552.517 Y-232.043
G1 X552.360 Y-231.880
G1 X552.092 Y-231.652
G1 X551.855 Y-231.435
G1 X551.650 Y-231.224
G1 X551.479 Y-231.015
G1 X551.342 Y-230.803
G1 X551.240 Y-230.584
G1 X551.175 Y-230.352
G1 X551.148 Y-230.103
G1 X551.160 Y-229.832
G1 X551.211 Y-229.535
G1 X551.303 Y-229.207
G1 X551.438 Y-228.842
G1 X551.615 Y-228.437
G1 X551.836 Y-227.987
G1 X552.103 Y-227.487
G1 X552.415 Y-226.932
G1 X552.775 Y-226.317
G1 X553.184 Y-225.639
G1 X553.642 Y-224.891
G1 X554.150 Y-224.070
G1 X554.592 Y-223.373
G1 X555.019 Y-222.728
G1 X555.433 Y-222.134
G1 X555.833 Y-221.593
G1 X556.220 Y-221.102
G1 X556.593 Y-220.664
G1 X556.953 Y-220.277
G1 X557.299 Y-219.942
G1 X557.632 Y-219.658
G1 X557.952 Y-219.425
G1 X558.259 Y-219.244
G1 X558.554 Y-219.114
G1 X558.835 Y-219.035
G1 X559.103 Y-219.007
G1 X559.359 Y-219.030
G1 X559.602 Y-219.104
G1 X559.832 Y-219.229
G1 X560.051 Y-219.405
G1 X560.256 Y-219.632
G1 X560.450 Y-219.910
G1 X560.485 Y-220.038
G1 X560.496 Y-220.268
G1 X560.485 Y-220.594
G1 X560.452 Y-221.012
G1 X560.398 Y-221.517
G1 X560.324 Y-222.107
G1 X560.230 Y-222.775
G1 X560.118 Y-223.518
G1 X559.988 Y-224.331
G1 X559.840 Y-225.210
G1 X559.676 Y-226.151
G1 X559.496 Y-227.148
G1 X559.301 Y-228.199
G1 X559.092 Y-229.297
G1 X558.869 Y-230.440
G1 X558.634 Y-231.622
G1 X558.387 Y-232.840
G1 X558.128 Y-234.088
G1 X557.859 Y-235.363
G1 X557.580 Y-236.660
G1 X555.836 Y-244.844
G1 X554.133 Y-253.074
G1 X552.480 Y-261.297
G1 X550.886 Y-269.462
G1 X549.357 Y-277.516
G1 X547.903 Y-285.408
G1 X546.532 Y-293.084
G1 X545.251 Y-300.493
G1 X544.069 Y-307.582
G1 X542.994 Y-314.300
G1 X542.034 Y-320.594
G1 X541.197 Y-326.412
G1 X540.492 Y-331.701
G1 X539.926 Y-336.410
G1 X539.508 Y-340.486
G1 X539.246 Y-343.878
G1 X539.148 Y-346.532
G1 X539.222 Y-348.397
G1 X539.477 Y-349.420
G1 X539.920 Y-349.550
G1 X540.026 Y-349.445
G1 X540.190 Y-349.226
G1 X540.410 Y-348.898
G1 X540.681 Y-348.465
G1 X541.003 Y-347.933
G1 X541.372 Y-347.306
G1 X541.785 Y-346.589
G1 X542.240 Y-345.787
G1 X542.735 Y-344.904
G1 X543.266 Y-343.946
G1 X543.831 Y-342.918
G1 X544.428 Y-341.823
G1 X545.053 Y-340.667
G1 X545.704 Y-339.455
G1 X546.379 Y-338.192
G1 X547.074 Y-336.882
G1 X547.788 Y-335.529
G1 X548.517 Y-334.140
G1 X549.258 Y-332.719
G1 X550.010 Y-331.270
G1 X552.185 Y-327.085
G1 X554.225 Y-323.199
G1 X556.138 Y-319.603
G1 X557.928 Y-316.289
G1 X559.602 Y-313.246
G1 X561.167 Y-310.466
G1 X562.628 Y-307.940
G1 X563.991 Y-305.658
G1 X565.263 Y-303.611
G1 X566.450 Y-301.790
G1 X567.557 Y-300.186
G1 X568.592 Y-298.790
G1 X569.559 Y-297.593
G1 X570.466 Y-296.584
G1 X571.317 Y-295.757
G1 X572.121 Y-295.100
G1 X572.881 Y-294.605
G1 X573.606 Y-294.263
G1 X574.300 Y-294.064
G1 X574.970 Y-294.000
G1 X575.476 Y-294.032
G1 X575.943 Y-294.129
G1 X576.372 Y-294.291
G1 X576.764 Y-294.520
G1 X577.117 Y-294.816
G1 X577.433 Y-295.181
G1 X577.712 Y-295.615
G1 X577.953 Y-296.120
G1 X578.157 Y-296.696
G1 X578.325 Y-297.344
G1 X578.456 Y-298.065
G1 X578.551 Y-298.860
G1 X578.609 Y-299.730
G1 X578.631 Y-300.676
G1 X578.618 Y-301.699
G1 X578.569 Y-302.800
G1 X578.484 Y-303.980
G1 X578.364 Y-305.239
G1 X578.210 Y-306.579
G1 X578.020 Y-308.000
G1 X577.726 Y-310.103
G1 X577.457 Y-312.060
G1 X577.215 Y-313.875
G1 X576.998 Y-315.552
G1 X576.807 Y-317.094
G1 X576.640 Y-318.507
G1 X576.498 Y-319.795
G1 X576.381 Y-320.961
G1 X576.288 Y-322.009
G1 X576.219 Y-322.945
G1 X576.173 Y-323.772
G1 X576.151 Y-324.494
G1 X576.152 Y-325.115
G1 X576.175 Y-325.640
G1 X576.221 Y-326.073
G1 X576.290 Y-326.418
G1 X576.380 Y-326.679
G1 X576.492 Y-326.860
G1 X576.625 Y-326.966
G1 X576.780 Y-327.000
G1 X577.208 Y-326.865
G1 X577.787 Y-326.474
G1 X578.502 Y-325.850
G1 X579.337 Y-325.013
G1 X580.276 Y-323.985
G1 X581.303 Y-322.789
G1 X582.403 Y-321.446
G1 X583.560 Y-319.977
G1 X584.757 Y-318.404
G1 X585.980 Y-316.750
G1 X587.212 Y-315.035
G1 X588.438 Y-313.282
G1 X589.641 Y-311.512
G1 X590.806 Y-309.746
G1 X591.917 Y-308.007
G1 X592.958 Y-306.316
G1 X593.914 Y-304.696
G1 X594.768 Y-303.167
G1 X595.506 Y-301.751
G1 X596.110 Y-300.470
G1 X596.905 Y-298.844
G1 X597.763 Y-297.402
G1 X598.674 Y-296.141
G1 X599.629 Y-295.063
G1 X600.616 Y-294.165
G1 X601.627 Y-293.447
G1 X602.651 Y-292.908
G1 X603.679 Y-292.547
G1 X604.701 Y-292.364
G1 X605.706 Y-292.357
G1 X606.686 Y-292.527
G1 X607.629 Y-292.872
G1 X608.527 Y-293.391
G1 X609.369 Y-294.084
G1 X610.146 Y-294.949
G1 X610.847 Y-295.986
G1 X611.463 Y-297.195
G1 X611.984 Y-298.574
G1 X612.399 Y-300.123
G1 X612.700 Y-301.840
G1 X613.260 Y-306.000
G1 X619.380 Y-305.950
G1 X619.911 Y-305.937
G1 X620.489 Y-305.908
G1 X621.110 Y-305.864
G1 X621.771 Y-305.805
G1 X622.468 Y-305.732
G1 X623.197 Y-305.645
G1 X623.953 Y-305.545
G1 X624.732 Y-305.434
G1 X625.532 Y-305.311
G1 X626.347 Y-305.178
G1 X627.175 Y-305.034
G1 X628.010 Y-304.881
G1 X628.849 Y-304.719
G1 X629.688 Y-304.549
G1 X630.523 Y-304.372
G1 X631.350 Y-304.188
G1 X632.165 Y-303.999
G1 X632.965 Y-303.804
G1 X633.744 Y-303.604
G1 X634.500 Y-303.400
G1 X635.247 Y-303.193
G1 X636.000 Y-302.987
G1 X636.755 Y-302.783
G1 X637.511 Y-302.580
G1 X638.263 Y-302.382
G1 X639.008 Y-302.187
G1 X639.743 Y-301.996
G1 X640.464 Y-301.812
G1 X641.169 Y-301.634
G1 X641.854 Y-301.462
G1 X642.515 Y-301.299
G1 X643.151 Y-301.145
G1 X643.756 Y-301.000
G1 X644.329 Y-300.866
G1 X644.865 Y-300.742
G1 X645.362 Y-300.631
G1 X645.817 Y-300.532
G1 X646.225 Y-300.447
G1 X646.584 Y-300.376
G1 X646.890 Y-300.320
G1 X647.450 Y-300.220
G1 X647.951 Y-300.125
G1 X648.393 Y-300.050
G1 X648.776 Y-300.006
G1 X649.099 Y-300.008
G1 X649.363 Y-300.068
G1 X649.566 Y-300.199
G1 X649.709 Y-300.415
G1 X649.791 Y-300.728
G1 X649.813 Y-301.152
G1 X649.773 Y-301.700
G1 X649.672 Y-302.385
G1 X649.510 Y-303.220
G1 X649.286 Y-304.217
G1 X648.999 Y-305.391
G1 X648.651 Y-306.754
G1 X648.240 Y-308.319
G1 X647.766 Y-310.100
G1 X647.230 Y-312.109
G1 X646.630 Y-314.360
G1 X646.249 Y-315.824
G1 X645.896 Y-317.245
G1 X645.573 Y-318.620
G1 X645.280 Y-319.946
G1 X645.017 Y-321.220
G1 X644.784 Y-322.441
G1 X644.582 Y-323.605
G1 X644.410 Y-324.710
G1 X644.269 Y-325.754
G1 X644.160 Y-326.732
G1 X644.082 Y-327.644
G1 X644.036 Y-328.486
G1 X644.022 Y-329.256
G1 X644.040 Y-329.951
G1 X644.090 Y-330.568
G1 X644.174 Y-331.106
G1 X644.290 Y-331.560
G1 X644.440 Y-331.929
G1 X644.623 Y-332.210
G1 X644.840 Y-332.400
G1 X645.114 Y-332.519
G1 X645.427 Y-332.556
G1 X645.784 Y-332.505
G1 X646.190 Y-332.360
G1 X646.649 Y-332.117
G1 X647.167 Y-331.771
G1 X647.750 Y-331.315
G1 X648.401 Y-330.746
G1 X649.126 Y-330.058
G1 X649.930 Y-329.245
G1 X650.818 Y-328.303
G1 X651.795 Y-327.225
G1 X652.866 Y-326.008
G1 X654.037 Y-324.646
G1 X655.311 Y-323.133
G1 X656.694 Y-321.464
G1 X658.192 Y-319.635
G1 X659.809 Y-317.640
G1 X661.550 Y-315.473
G1 X663.420 Y-313.130
G1 X666.115 Y-309.760
G1 X668.615 Y-306.672
G1 X670.929 Y-303.857
G1 X673.068 Y-301.306
G1 X675.041 Y-299.013
G1 X676.857 Y-296.968
G1 X678.527 Y-295.165
G1 X680.061 Y-293.593
G1 X681.468 Y-292.247
G1 X682.757 Y-291.116
G1 X683.940 Y-290.194
G1 X685.025 Y-289.472
G1 X686.022 Y-288.942
G1 X686.942 Y-288.596
G1 X687.793 Y-288.426
G1 X688.586 Y-288.424
G1 X689.330 Y-288.581
G1 X690.036 Y-288.890
G1 X690.713 Y-289.342
G1 X691.370 Y-289.930
G1 X691.656 Y-290.225
G1 X691.915 Y-290.514
G1 X692.147 Y-290.807
G1 X692.355 Y-291.114
G1 X692.539 Y-291.445
G1 X692.699 Y-291.809
G1 X692.838 Y-292.216
G1 X692.957 Y-292.677
G1 X693.056 Y-293.201
G1 X693.136 Y-293.797
G1 X693.199 Y-294.477
G1 X693.246 Y-295.250
G1 X693.278 Y-296.126
G1 X693.296 Y-297.114
G1 X693.301 Y-298.224
G1 X693.294 Y-299.467
G1 X693.276 Y-300.852
G1 X693.249 Y-302.389
G1 X693.213 Y-304.089
G1 X693.170 Y-305.960
G1 X693.127 Y-308.052
G1 X693.101 Y-309.986
G1 X693.094 Y-311.767
G1 X693.105 Y-313.400
G1 X693.137 Y-314.892
G1 X693.191 Y-316.247
G1 X693.267 Y-317.471
G1 X693.367 Y-318.570
G1 X693.493 Y-319.549
G1 X693.644 Y-320.414
G1 X693.822 Y-321.170
G1 X694.029 Y-321.823
G1 X694.265 Y-322.379
G1 X694.532 Y-322.842
G1 X694.831 Y-323.219
G1 X695.162 Y-323.515
G1 X695.528 Y-323.735
G1 X695.929 Y-323.886
G1 X696.366 Y-323.972
G1 X696.840 Y-324.000
G1 X697.356 Y-323.958
G1 X697.932 Y-323.834
G1 X698.565 Y-323.629
G1 X699.253 Y-323.345
G1 X699.996 Y-322.982
G1 X700.790 Y-322.543
G1 X701.633 Y-322.028
G1 X702.525 Y-321.440
G1 X703.463 Y-320.779
G1 X704.445 Y-320.048
G1 X705.469 Y-319.247
G1 X706.534 Y-318.378
G1 X707.637 Y-317.442
G1 X708.777 Y-316.441
G1 X709.952 Y-315.377
G1 X711.159 Y-314.250
G1 X712.398 Y-313.063
G1 X713.665 Y-311.816
G1 X714.960 Y-310.511
G1 X716.280 Y-309.150
G1 X717.499 Y-307.891
G1 X718.644 Y-306.729
G1 X719.717 Y-305.662
G1 X720.717 Y-304.692
G1 X721.647 Y-303.816
G1 X722.507 Y-303.033
G1 X723.300 Y-302.344
G1 X724.026 Y-301.746
G1 X724.686 Y-301.240
G1 X725.283 Y-300.825
G1 X725.816 Y-300.499
G1 X726.288 Y-300.262
G1 X726.700 Y-300.114
G1 X727.052 Y-300.052
G1 X727.347 Y-300.077
G1 X727.586 Y-300.187
G1 X727.769 Y-300.383
G1 X727.898 Y-300.662
G1 X727.975 Y-301.025
G1 X728.000 Y-301.470
G1 X727.910 Y-301.898
G1 X727.648 Y-302.481
G1 X727.227 Y-303.202
G1 X726.662 Y-304.048
G1 X725.966 Y-305.003
G1 X725.152 Y-306.052
G1 X724.234 Y-307.182
G1 X723.225 Y-308.376
G1 X722.139 Y-309.620
G1 X720.989 Y-310.900
G1 X719.789 Y-312.200
G1 X718.552 Y-313.506
G1 X717.292 Y-314.802
G1 X716.023 Y-316.074
G1 X714.757 Y-317.307
G1 X713.509 Y-318.487
G1 X712.292 Y-319.597
G1 X711.119 Y-320.625
G1 X710.004 Y-321.554
G1 X708.960 Y-322.370
G1 X707.657 Y-323.322
G1 X706.400 Y-324.185
G1 X705.187 Y-324.959
G1 X704.019 Y-325.645
G1 X702.894 Y-326.242
G1 X701.810 Y-326.751
G1 X700.769 Y-327.172
G1 X699.768 Y-327.505
G1 X698.806 Y-327.750
G1 X697.884 Y-327.908
G1 X696.999 Y-327.977
G1 X696.152 Y-327.959
G1 X695.341 Y-327.853
G1 X694.565 Y-327.660
G1 X693.825 Y-327.379
G1 X693.117 Y-327.011
G1 X692.443 Y-326.556
G1 X691.801 Y-326.014
G1 X691.190 Y-325.386
G1 X690.610 Y-324.670
G1 X690.330 Y-324.286
G1 X690.075 Y-323.911
G1 X689.847 Y-323.537
G1 X689.642 Y-323.153
G1 X689.461 Y-322.750
G1 X689.302 Y-322.316
G1 X689.164 Y-321.841
G1 X689.046 Y-321.317
G1 X688.947 Y-320.732
G1 X688.866 Y-320.076
G1 X688.802 Y-319.340
G1 X688.754 Y-318.513
G1 X688.720 Y-317.586
G1 X688.700 Y-316.547
G1 X688.693 Y-315.387
G1 X688.698 Y-314.097
G1 X688.713 Y-312.665
G1 X688.737 Y-311.081
G1 X688.770 Y-309.336
G1 X688.810 Y-307.420
G1 X688.846 Y-305.676
G1 X688.874 Y-304.074
G1 X688.895 Y-302.607
G1 X688.907 Y-301.270
G1 X688.912 Y-300.058
G1 X688.907 Y-298.965
G1 X688.893 Y-297.985
G1 X688.869 Y-297.113
G1 X688.835 Y-296.342
G1 X688.790 Y-295.669
G1 X688.734 Y-295.086
G1 X688.667 Y-294.588
G1 X688.587 Y-294.170
G1 X688.496 Y-293.826
G1 X688.391 Y-293.550
G1 X688.273 Y-293.337
G1 X688.141 Y-293.181
G1 X687.996 Y-293.077
G1 X687.835 Y-293.018
G1 X687.660 Y-293.000
G1 X687.330 Y-293.060
G1 X686.921 Y-293.239
G1 X686.433 Y-293.537
G1 X685.868 Y-293.953
G1 X685.226 Y-294.488
G1 X684.508 Y-295.139
G1 X683.712 Y-295.907
G1 X682.841 Y-296.792
G1 X681.895 Y-297.792
G1 X680.874 Y-298.908
G1 X679.778 Y-300.138
G1 X678.608 Y-301.482
G1 X677.365 Y-302.941
G1 X676.048 Y-304.512
G1 X674.659 Y-306.196
G1 X673.198 Y-307.993
G1 X671.665 Y-309.901
G1 X670.061 Y-311.920
G1 X668.385 Y-314.050
G1 X666.640 Y-316.290
G1 X664.470 Y-319.064
G1 X662.433 Y-321.619
G1 X660.521 Y-323.960
G1 X658.731 Y-326.091
G1 X657.054 Y-328.018
G1 X655.486 Y-329.744
G1 X654.021 Y-331.274
G1 X652.652 Y-332.613
G1 X651.373 Y-333.766
G1 X650.179 Y-334.736
G1 X649.063 Y-335.529
G1 X648.020 Y-336.149
G1 X647.044 Y-336.601
G1 X646.128 Y-336.888
G1 X645.266 Y-337.017
G1 X644.454 Y-336.990
G1 X643.684 Y-336.814
G1 X642.950 Y-336.492
G1 X642.248 Y-336.029
G1 X641.570 Y-335.430
G1 X641.214 Y-335.008
G1 X640.898 Y-334.496
G1 X640.622 Y-333.899
G1 X640.386 Y-333.218
G1 X640.191 Y-332.458
G1 X640.035 Y-331.621
G1 X639.920 Y-330.711
G1 X639.844 Y-329.731
G1 X639.808 Y-328.683
G1 X639.812 Y-327.571
G1 X639.856 Y-326.399
G1 X639.940 Y-325.169
G1 X640.063 Y-323.884
G1 X640.226 Y-322.548
G1 X640.428 Y-321.164
G1 X640.670 Y-319.734
G1 X640.951 Y-318.263
G1 X641.271 Y-316.753
G1 X641.631 Y-315.208
G1 X642.030 Y-313.630
G1 X642.180 Y-313.051
G1 X642.325 Y-312.482
G1 X642.464 Y-311.925
G1 X642.597 Y-311.382
G1 X642.723 Y-310.855
G1 X642.842 Y-310.345
G1 X642.953 Y-309.856
G1 X643.056 Y-309.388
G1 X643.151 Y-308.944
G1 X643.237 Y-308.526
G1 X643.315 Y-308.136
G1 X643.382 Y-307.775
G1 X643.440 Y-307.446
G1 X643.487 Y-307.150
G1 X643.523 Y-306.890
G1 X643.549 Y-306.667
G1 X643.562 Y-306.484
G1 X643.564 Y-306.342
G1 X643.553 Y-306.243
G1 X643.530 Y-306.190
G1 X643.472 Y-306.167
G1 X643.361 Y-306.158
G1 X643.199 Y-306.163
G1 X642.988 Y-306.180
G1 X642.730 Y-306.211
G1 X642.428 Y-306.253
G1 X642.084 Y-306.307
G1 X641.700 Y-306.372
G1 X641.279 Y-306.449
G1 X640.822 Y-306.535
G1 X640.333 Y-306.631
G1 X639.813 Y-306.737
G1 X639.265 Y-306.852
G1 X638.691 Y-306.975
G1 X638.093 Y-307.107
G1 X637.474 Y-307.246
G1 X636.836 Y-307.392
G1 X636.181 Y-307.545
G1 X635.512 Y-307.705
G1 X634.830 Y-307.870
G1 X634.126 Y-308.040
G1 X633.389 Y-308.210
G1 X632.625 Y-308.381
G1 X631.836 Y-308.550
G1 X631.028 Y-308.718
G1 X630.204 Y-308.884
G1 X629.369 Y-309.046
G1 X628.525 Y-309.206
G1 X627.679 Y-309.360
G1 X626.833 Y-309.510
G1 X625.991 Y-309.654
G1 X625.158 Y-309.792
G1 X624.338 Y-309.922
G1 X623.535 Y-310.045
G1 X622.753 Y-310.159
G1 X621.996 Y-310.265
G1 X621.268 Y-310.360
G1 X620.573 Y-310.445
G1 X619.916 Y-310.518
G1 X619.300 Y-310.580
G1 X618.312 Y-310.673
G1 X617.417 Y-310.761
G1 X616.611 Y-310.846
G1 X615.886 Y-310.932
G1 X615.239 Y-311.020
G1 X614.663 Y-311.113
G1 X614.153 Y-311.214
G1 X613.703 Y-311.325
G1 X613.309 Y-311.449
G1 X612.964 Y-311.588
G1 X612.663 Y-311.744
G1 X612.400 Y-311.920
G1 X612.171 Y-312.119
G1 X611.969 Y-312.342
G1 X611.789 Y-312.594
G1 X611.626 Y-312.875
G1 X611.474 Y-313.189
G1 X611.328 Y-313.538
G1 X611.182 Y-313.924
G1 X611.030 Y-314.350
G1 X610.480 Y-315.689
G1 X609.798 Y-316.953
G1 X608.999 Y-318.139
G1 X608.098 Y-319.241
G1 X607.107 Y-320.253
G1 X606.042 Y-321.172
G1 X604.916 Y-321.992
G1 X603.743 Y-322.707
G1 X602.538 Y-323.314
G1 X601.315 Y-323.806
G1 X600.088 Y-324.180
G1 X598.870 Y-324.429
G1 X597.676 Y-324.550
G1 X596.521 Y-324.536
G1 X595.418 Y-324.384
G1 X594.381 Y-324.087
G1 X593.425 Y-323.641
G1 X592.563 Y-323.042
G1 X591.810 Y-322.283
G1 X591.180 Y-321.360
G1 X591.051 Y-321.145
G1 X590.920 Y-320.961
G1 X590.784 Y-320.812
G1 X590.640 Y-320.699
G1 X590.486 Y-320.624
G1 X590.317 Y-320.589
G1 X590.131 Y-320.595
G1 X589.926 Y-320.644
G1 X589.697 Y-320.739
G1 X589.443 Y-320.881
G1 X589.159 Y-321.072
G1 X588.844 Y-321.314
G1 X588.493 Y-321.608
G1 X588.105 Y-321.957
G1 X587.676 Y-322.363
G1 X587.202 Y-322.826
G1 X586.682 Y-323.350
G1 X586.112 Y-323.936
G1 X585.489 Y-324.585
G1 X584.810 Y-325.300
G1 X584.176 Y-325.967
G1 X583.580 Y-326.582
G1 X583.020 Y-327.148
G1 X582.492 Y-327.667
G1 X581.994 Y-328.140
G1 X581.523 Y-328.569
G1 X581.077 Y-328.956
G1 X580.652 Y-329.302
G1 X580.246 Y-329.611
G1 X579.856 Y-329.882
G1 X579.480 Y-330.120
G1 X579.113 Y-330.324
G1 X578.755 Y-330.498
G1 X578.401 Y-330.642
G1 X578.050 Y-330.759
G1 X577.698 Y-330.851
G1 X577.343 Y-330.919
G1 X576.982 Y-330.965
G1 X576.612 Y-330.992
G1 X576.230 Y-331.000
G1 X575.659 Y-330.981
G1 X575.135 Y-330.923
G1 X574.655 Y-330.822
G1 X574.219 Y-330.675
G1 X573.826 Y-330.480
G1 X573.475 Y-330.233
G1 X573.165 Y-329.931
G1 X572.895 Y-329.572
G1 X572.664 Y-329.151
G1 X572.471 Y-328.667
G1 X572.315 Y-328.117
G1 X572.195 Y-327.496
G1 X572.110 Y-326.803
G1 X572.059 Y-326.034
G1 X572.041 Y-325.187
G1 X572.055 Y-324.257
G1 X572.099 Y-323.243
G1 X572.174 Y-322.140
G1 X572.278 Y-320.947
G1 X572.410 Y-319.660
G1 X572.688 Y-317.093
G1 X572.938 Y-314.750
G1 X573.159 Y-312.622
G1 X573.352 Y-310.701
G1 X573.518 Y-308.977
G1 X573.655 Y-307.442
G1 X573.764 Y-306.087
G1 X573.846 Y-304.903
G1 X573.900 Y-303.881
G1 X573.928 Y-303.012
G1 X573.927 Y-302.288
G1 X573.900 Y-301.700
G1 X573.847 Y-301.238
G1 X573.766 Y-300.894
G1 X573.659 Y-300.659
G1 X573.525 Y-300.524
G1 X573.365 Y-300.481
G1 X573.180 Y-300.520
G1 X572.968 Y-300.632
G1 X572.730 Y-300.810
G1 X572.360 Y-301.158
G1 X571.933 Y-301.635
G1 X571.449 Y-302.242
G1 X570.909 Y-302.978
G1 X570.311 Y-303.843
G1 X569.657 Y-304.839
G1 X568.945 Y-305.964
G1 X568.177 Y-307.220
G1 X567.351 Y-308.606
G1 X566.468 Y-310.123
G1 X565.527 Y-311.770
G1 X564.528 Y-313.548
G1 X563.473 Y-315.456
G1 X562.359 Y-317.496
G1 X561.188 Y-319.668
G1 X559.958 Y-321.971
G1 X558.671 Y-324.405
G1 X557.325 Y-326.971
G1 X555.922 Y-329.670
G1 X554.460 Y-332.500
G1 X553.736 Y-333.900
G1 X553.012 Y-335.291
G1 X552.291 Y-336.667
G1 X551.575 Y-338.025
G1 X550.868 Y-339.357
G1 X550.173 Y-340.659
G1 X549.493 Y-341.926
G1 X548.830 Y-343.152
G1 X548.187 Y-344.332
G1 X547.567 Y-345.460
G1 X546.974 Y-346.532
G1 X546.410 Y-347.542
G1 X545.879 Y-348.484
G1 X545.382 Y-349.354
G1 X544.923 Y-350.146
G1 X544.505 Y-350.854
G1 X544.131 Y-351.474
G1 X543.803 Y-352.000
G1 X543.525 Y-352.427
G1 X543.300 Y-352.750
G1 X542.900 Y-353.258
G1 X542.481 Y-353.726
G1 X542.047 Y-354.153
G1 X541.602 Y-354.537
G1 X541.148 Y-354.880
G1 X540.689 Y-355.179
G1 X540.228 Y-355.434
G1 X539.769 Y-355.645
G1 X539.316 Y-355.810
G1 X538.870 Y-355.929
G1 X538.436 Y-356.001
G1 X538.017 Y-356.025
G1 X537.617 Y-356.001
G1 X537.238 Y-355.928
G1 X536.885 Y-355.806
G1 X536.560 Y-355.633
G1 X536.266 Y-355.408
G1 X536.008 Y-355.132
G1 X535.788 Y-354.803
G1 X535.610 Y-354.420
G1 X604.663 Y-316.268
G1 X605.163 Y-315.672
G1 X605.601 Y-315.102
G1 X605.976 Y-314.557
G1 X606.288 Y-314.036
G1 X606.538 Y-313.538
G1 X606.724 Y-313.061
G1 X606.848 Y-312.605
G1 X606.909 Y-312.169
G1 X606.906 Y-311.751
G1 X606.840 Y-311.352
G1 X606.711 Y-310.969
G1 X606.519 Y-310.602
G1 X606.263 Y-310.249
G1 X605.944 Y-309.911
G1 X605.560 Y-309.585
G1 X605.114 Y-309.271
G1 X604.603 Y-308.968
G1 X604.028 Y-308.675
G1 X603.390 Y-308.390
G1 X603.095 Y-308.268
G1 X602.804 Y-308.150
G1 X602.519 Y-308.037
G1 X602.241 Y-307.930
G1 X601.970 Y-307.828
G1 X601.707 Y-307.733
G1 X601.454 Y-307.643
G1 X601.212 Y-307.560
G1 X600.982 Y-307.484
G1 X600.764 Y-307.415
G1 X600.560 Y-307.354
G1 X600.370 Y-307.300
G1 X600.197 Y-307.254
G1 X600.040 Y-307.217
G1 X599.901 Y-307.189
G1 X599.781 Y-307.170
G1 X599.681 Y-307.160
G1 X599.602 Y-307.160
G1 X599.544 Y-307.170
G1 X599.510 Y-307.190
G1 X599.301 Y-307.458
G1 X599.068 Y-307.810
G1 X598.813 Y-308.236
G1 X598.542 Y-308.728
G1 X598.257 Y-309.275
G1 X597.963 Y-309.869
G1 X597.663 Y-310.501
G1 X597.361 Y-311.161
G1 X597.061 Y-311.840
G1 X596.767 Y-312.530
G1 X596.484 Y-313.220
G1 X596.213 Y-313.903
G1 X595.960 Y-314.567
G1 X595.728 Y-315.205
G1 X595.522 Y-315.807
G1 X595.344 Y-316.365
G1 X595.199 Y-316.868
G1 X595.091 Y-317.307
G1 X595.023 Y-317.675
G1 X595.000 Y-317.960
G1 X595.041 Y-318.438
G1 X595.159 Y-318.857
G1 X595.349 Y-319.216
G1 X595.606 Y-319.516
G1 X595.923 Y-319.759
G1 X596.295 Y-319.944
G1 X596.716 Y-320.073
G1 X597.181 Y-320.145
G1 X597.684 Y-320.162
G1 X598.219 Y-320.125
G1 X598.780 Y-320.034
G1 X599.363 Y-319.889
G1 X599.961 Y-319.691
G1 X600.569 Y-319.442
G1 X601.180 Y-319.141
G1 X601.790 Y-318.790
G1 X602.393 Y-318.388
G1 X602.983 Y-317.937
G1 X603.553 Y-317.438
G1 X604.100 Y-316.890
G1 X608.996 Y-304.070
G1 X608.985 Y-303.970
G1 X608.968 Y-303.852
G1 X608.943 Y-303.717
G1 X608.912 Y-303.566
G1 X608.875 Y-303.400
G1 X608.833 Y-303.220
G1 X608.784 Y-303.028
G1 X608.731 Y-302.823
G1 X608.673 Y-302.608
G1 X608.609 Y-302.382
G1 X608.542 Y-302.148
G1 X608.471 Y-301.907
G1 X608.395 Y-301.659
G1 X608.317 Y-301.405
G1 X608.235 Y-301.147
G1 X608.150 Y-300.885
G1 X608.062 Y-300.621
G1 X607.972 Y-300.356
G1 X607.880 Y-300.090
G1 X607.753 Y-299.737
G1 X607.626 Y-299.410
G1 X607.500 Y-299.107
G1 X607.372 Y-298.829
G1 X607.243 Y-298.575
G1 X607.111 Y-298.344
G1 X606.977 Y-298.136
G1 X606.838 Y-297.950
G1 X606.695 Y-297.784
G1 X606.547 Y-297.640
G1 X606.394 Y-297.516
G1 X606.233 Y-297.411
G1 X606.066 Y-297.325
G1 X605.890 Y-297.257
G1 X605.706 Y-297.207
G1 X605.512 Y-297.174
G1 X605.309 Y-297.158
G1 X605.094 Y-297.157
G1 X604.868 Y-297.171
G1 X604.630 Y-297.200
G1 X604.387 Y-297.239
G1 X604.163 Y-297.286
G1 X603.957 Y-297.342
G1 X603.769 Y-297.406
G1 X603.597 Y-297.481
G1 X603.442 Y-297.567
G1 X603.303 Y-297.664
G1 X603.179 Y-297.775
G1 X603.071 Y-297.899
G1 X602.976 Y-298.037
G1 X602.896 Y-298.192
G1 X602.829 Y-298.362
G1 X602.774 Y-298.550
G1 X602.732 Y-298.756
G1 X602.702 Y-298.980
G1 X602.683 Y-299.225
G1 X602.675 Y-299.490
G1 X602.677 Y-299.777
G1 X602.689 Y-300.087
G1 X602.710 Y-300.420
G1 X602.732 Y-300.660
G1 X602.762 Y-300.901
G1 X602.799 Y-301.141
G1 X602.844 Y-301.379
G1 X602.895 Y-301.615
G1 X602.953 Y-301.846
G1 X603.016 Y-302.073
G1 X603.085 Y-302.295
G1 X603.160 Y-302.509
G1 X603.239 Y-302.716
G1 X603.322 Y-302.915
G1 X603.410 Y-303.103
G1 X603.501 Y-303.282
G1 X603.596 Y-303.448
G1 X603.693 Y-303.602
G1 X603.793 Y-303.743
G1 X603.895 Y-303.869
G1 X603.999 Y-303.979
G1 X604.104 Y-304.073
G1 X604.210 Y-304.150
G1 X604.475 Y-304.304
G1 X604.757 Y-304.442
G1 X605.054 Y-304.563
G1 X605.361 Y-304.668
G1 X605.676 Y-304.757
G1 X605.994 Y-304.830
G1 X606.314 Y-304.887
G1 X606.630 Y-304.928
G1 X606.941 Y-304.952
G1 X607.242 Y-304.960
G1 X607.531 Y-304.952
G1 X607.804 Y-304.928
G1 X608.057 Y-304.887
G1 X608.287 Y-304.830
G1 X608.491 Y-304.757
G1 X608.665 Y-304.668
G1 X608.807 Y-304.563
G1 X608.912 Y-304.442
G1 X608.977 Y-304.304
G1 X609.000 Y-304.150
G1 X590.810 Y-288.249
G1 X590.616 Y-287.948
G1 X590.467 Y-287.658
G1 X590.363 Y-287.380
G1 X590.302 Y-287.114
G1 X590.285 Y-286.861
G1 X590.311 Y-286.621
G1 X590.379 Y-286.395
G1 X590.489 Y-286.184
G1 X590.640 Y-285.989
G1 X590.832 Y-285.809
G1 X591.064 Y-285.645
G1 X591.336 Y-285.499
G1 X591.648 Y-285.370
G1 X591.998 Y-285.260
G1 X592.386 Y-285.168
G1 X592.812 Y-285.095
G1 X593.275 Y-285.043
G1 X593.774 Y-285.011
G1 X594.310 Y-285.000
G1 X594.581 Y-284.992
G1 X594.868 Y-284.971
G1 X595.168 Y-284.938
G1 X595.481 Y-284.894
G1 X595.804 Y-284.838
G1 X596.137 Y-284.771
G1 X596.476 Y-284.695
G1 X596.821 Y-284.608
G1 X597.169 Y-284.513
G1 X597.520 Y-284.409
G1 X597.871 Y-284.296
G1 X598.220 Y-284.176
G1 X598.567 Y-284.049
G1 X598.908 Y-283.915
G1 X599.243 Y-283.775
G1 X599.570 Y-283.629
G1 X599.887 Y-283.479
G1 X600.192 Y-283.323
G1 X600.483 Y-283.163
G1 X600.760 Y-283.000
G1 X601.197 Y-282.726
G1 X601.607 Y-282.451
G1 X601.994 Y-282.169
G1 X602.360 Y-281.876
G1 X602.708 Y-281.567
G1 X603.042 Y-281.237
G1 X603.365 Y-280.881
G1 X603.679 Y-280.494
G1 X603.987 Y-280.071
G1 X604.294 Y-279.608
G1 X604.601 Y-279.099
G1 X604.912 Y-278.540
G1 X605.230 Y-277.925
G1 X605.559 Y-277.251
G1 X605.900 Y-276.512
G1 X606.257 Y-275.702
G1 X606.634 Y-274.819
G1 X607.033 Y-273.855
G1 X607.457 Y-272.807
G1 X607.910 Y-271.670
G1 X608.171 Y-271.057
G1 X608.433 Y-270.533
G1 X608.693 Y-270.097
G1 X608.951 Y-269.749
G1 X609.204 Y-269.487
G1 X609.453 Y-269.309
G1 X609.694 Y-269.214
G1 X609.928 Y-269.202
G1 X610.152 Y-269.271
G1 X610.366 Y-269.420
G1 X610.568 Y-269.647
G1 X610.757 Y-269.952
G1 X610.931 Y-270.333
G1 X611.089 Y-270.789
G1 X611.230 Y-271.318
G1 X611.353 Y-271.921
G1 X611.455 Y-272.594
G1 X611.536 Y-273.338
G1 X611.595 Y-274.150
G1 X611.630 Y-275.030
G1 X611.649 Y-275.680
G1 X611.675 Y-276.284
G1 X611.708 Y-276.845
G1 X611.749 Y-277.367
G1 X611.800 Y-277.851
G1 X611.862 Y-278.302
G1 X611.935 Y-278.722
G1 X612.022 Y-279.114
G1 X612.121 Y-279.480
G1 X612.236 Y-279.825
G1 X612.367 Y-280.150
G1 X612.515 Y-280.460
G1 X612.681 Y-280.755
G1 X612.866 Y-281.041
G1 X613.071 Y-281.319
G1 X613.298 Y-281.592
G1 X613.547 Y-281.864
G1 X613.820 Y-282.137
G1 X614.117 Y-282.415
G1 X614.440 Y-282.700
G1 X614.671 Y-282.891
G1 X614.915 Y-283.078
G1 X615.172 Y-283.259
G1 X615.439 Y-283.435
G1 X615.717 Y-283.604
G1 X616.002 Y-283.766
G1 X616.294 Y-283.920
G1 X616.592 Y-284.067
G1 X616.893 Y-284.205
G1 X617.197 Y-284.334
G1 X617.503 Y-284.453
G1 X617.809 Y-284.562
G1 X618.113 Y-284.660
G1 X618.415 Y-284.747
G1 X618.712 Y-284.822
G1 X619.004 Y-284.885
G1 X619.289 Y-284.934
G1 X619.566 Y-284.970
G1 X619.834 Y-284.993
G1 X620.090 Y-285.000
G1 X620.547 Y-285.017
G1 X620.983 Y-285.068
G1 X621.396 Y-285.149
G1 X621.785 Y-285.259
G1 X622.148 Y-285.396
G1 X622.484 Y-285.557
G1 X622.790 Y-285.740
G1 X623.065 Y-285.942
G1 X623.306 Y-286.162
G1 X623.514 Y-286.397
G1 X623.685 Y-286.646
G1 X623.817 Y-286.905
G1 X623.910 Y-287.173
G1 X623.962 Y-287.447
G1 X623.970 Y-287.725
G1 X623.933 Y-288.005
G1 X623.849 Y-288.285
G1 X623.717 Y-288.562
G1 X623.534 Y-288.835
G1 X623.300 Y-289.100
G1 X622.986 Y-289.342
G1 X622.591 Y-289.528
G1 X622.121 Y-289.660
G1 X621.586 Y-289.742
G1 X620.993 Y-289.774
G1 X620.350 Y-289.759
G1 X619.665 Y-289.699
G1 X618.947 Y-289.596
G1 X618.203 Y-289.452
G1 X617.441 Y-289.270
G1 X616.670 Y-289.051
G1 X615.898 Y-288.798
G1 X615.132 Y-288.512
G1 X614.380 Y-288.196
G1 X613.652 Y-287.851
G1 X612.954 Y-287.481
G1 X612.295 Y-287.086
G1 X611.682 Y-286.670
G1 X611.125 Y-286.234
G1 X610.630 Y-285.780
G1 X610.220 Y-285.372
G1 X609.849 Y-285.007
G1 X609.514 Y-284.682
G1 X609.209 Y-284.399
G1 X608.933 Y-284.155
G1 X608.681 Y-283.950
G1 X608.449 Y-283.785
G1 X608.234 Y-283.656
G1 X608.032 Y-283.566
G1 X607.840 Y-283.511
G1 X607.653 Y-283.493
G1 X607.468 Y-283.509
G1 X607.282 Y-283.560
G1 X607.090 Y-283.645
G1 X606.889 Y-283.762
G1 X606.676 Y-283.912
G1 X606.446 Y-284.093
G1 X606.196 Y-284.306
G1 X605.922 Y-284.548
G1 X605.620 Y-284.820
G1 X604.908 Y-285.429
G1 X604.152 Y-286.005
G1 X603.360 Y-286.545
G1 X602.539 Y-287.047
G1 X601.695 Y-287.511
G1 X600.836 Y-287.934
G1 X599.968 Y-288.314
G1 X599.099 Y-288.649
G1 X598.235 Y-288.939
G1 X597.382 Y-289.180
G1 X596.549 Y-289.372
G1 X595.742 Y-289.512
G1 X594.968 Y-289.598
G1 X594.234 Y-289.630
G1 X593.546 Y-289.604
G1 X592.912 Y-289.520
G1 X592.338 Y-289.375
G1 X591.832 Y-289.168
G1 X591.400 Y-288.897
G1 X591.050 Y-288.560
G1 X284.373 Y-281.643
G1 X283.834 Y-281.335
G1 X283.305 Y-280.960
G1 X282.788 Y-280.520
G1 X282.285 Y-280.020
G1 X281.797 Y-279.463
G1 X281.328 Y-278.854
G1 X280.878 Y-278.196
G1 X280.450 Y-277.492
G1 X280.045 Y-276.747
G1 X279.666 Y-275.965
G1 X279.314 Y-275.149
G1 X278.992 Y-274.302
G1 X278.701 Y-273.429
G1 X278.443 Y-272.534
G1 X278.220 Y-271.620
G1 X278.035 Y-270.691
G1 X277.888 Y-269.750
G1 X277.783 Y-268.802
G1 X277.720 Y-267.850
G1 X277.698 Y-267.244
G1 X277.683 Y-266.682
G1 X277.676 Y-266.162
G1 X277.677 Y-265.683
G1 X277.686 Y-265.242
G1 X277.704 Y-264.840
G1 X277.731 Y-264.473
G1 X277.768 Y-264.140
G1 X277.816 Y-263.840
G1 X277.874 Y-263.571
G1 X277.943 Y-263.332
G1 X278.023 Y-263.120
G1 X278.115 Y-262.935
G1 X278.220 Y-262.775
G1 X278.337 Y-262.637
G1 X278.468 Y-262.521
G1 X278.612 Y-262.425
G1 X278.770 Y-262.347
G1 X278.943 Y-262.286
G1 X279.130 Y-262.240
G1 X279.318 Y-262.211
G1 X279.497 Y-262.206
G1 X279.666 Y-262.228
G1 X279.827 Y-262.276
G1 X279.980 Y-262.354
G1 X280.126 Y-262.462
G1 X280.266 Y-262.603
G1 X280.401 Y-262.777
G1 X280.530 Y-262.987
G1 X280.656 Y-263.234
G1 X280.779 Y-263.519
G1 X280.899 Y-263.845
G1 X281.017 Y-264.212
G1 X281.135 Y-264.623
G1 X281.252 Y-265.079
G1 X281.370 Y-265.582
G1 X281.489 Y-266.133
G1 X281.609 Y-266.733
G1 X281.733 Y-267.385
G1 X281.860 Y-268.090
G1 X282.134 Y-269.497
G1 X282.443 Y-270.800
G1 X282.785 Y-271.997
G1 X283.160 Y-273.088
G1 X283.565 Y-274.071
G1 X284.000 Y-274.946
G1 X284.464 Y-275.712
G1 X284.954 Y-276.369
G1 X285.471 Y-276.914
G1 X286.012 Y-277.349
G1 X286.578 Y-277.671
G1 X287.165 Y-277.880
G1 X287.773 Y-277.975
G1 X288.402 Y-277.955
G1 X289.049 Y-277.820
G1 X289.713 Y-277.568
G1 X290.394 Y-277.199
G1 X291.089 Y-276.712
G1 X291.798 Y-276.106
G1 X292.520 Y-275.380
G1 X292.725 Y-275.149
G1 X292.939 Y-274.889
G1 X293.159 Y-274.603
G1 X293.385 Y-274.292
G1 X293.616 Y-273.958
G1 X293.850 Y-273.604
G1 X294.086 Y-273.231
G1 X294.324 Y-272.842
G1 X294.562 Y-272.438
G1 X294.799 Y-272.022
G1 X295.033 Y-271.596
G1 X295.265 Y-271.162
G1 X295.491 Y-270.721
G1 X295.713 Y-270.275
G1 X295.927 Y-269.828
G1 X296.134 Y-269.381
G1 X296.332 Y-268.935
G1 X296.520 Y-268.493
G1 X296.696 Y-268.058
G1 X296.860 Y-267.630
G1 X297.063 Y-267.099
G1 X297.263 Y-266.599
G1 X297.459 Y-266.132
G1 X297.652 Y-265.695
G1 X297.842 Y-265.289
G1 X298.029 Y-264.912
G1 X298.215 Y-264.565
G1 X298.399 Y-264.247
G1 X298.583 Y-263.958
G1 X298.765 Y-263.696
G1 X298.947 Y-263.462
G1 X299.129 Y-263.255
G1 X299.312 Y-263.073
G1 X299.496 Y-262.918
G1 X299.681 Y-262.788
G1 X299.868 Y-262.683
G1 X300.057 Y-262.602
G1 X300.248 Y-262.545
G1 X300.442 Y-262.511
G1 X300.640 Y-262.500
G1 X301.001 Y-262.527
G1 X301.317 Y-262.607
G1 X301.587 Y-262.739
G1 X301.812 Y-262.925
G1 X301.991 Y-263.163
G1 X302.125 Y-263.454
G1 X302.213 Y-263.796
G1 X302.256 Y-264.191
G1 X302.254 Y-264.637
G1 X302.206 Y-265.135
G1 X302.114 Y-265.684
G1 X301.976 Y-266.284
G1 X301.793 Y-266.935
G1 X301.564 Y-267.637
G1 X301.291 Y-268.389
G1 X300.973 Y-269.192
G1 X300.610 Y-270.044
G1 X300.201 Y-270.947
G1 X299.748 Y-271.899
G1 X299.250 Y-272.900
G1 X298.652 Y-274.025
G1 X298.037 Y-275.082
G1 X297.407 Y-276.070
G1 X296.761 Y-276.988
G1 X296.101 Y-277.837
G1 X295.427 Y-278.615
G1 X294.740 Y-279.323
G1 X294.040 Y-279.959
G1 X293.329 Y-280.524
G1 X292.606 Y-281.016
G1 X291.873 Y-281.436
G1 X291.131 Y-281.783
G1 X290.379 Y-282.057
G1 X289.619 Y-282.257
G1 X288.851 Y-282.382
G1 X288.076 Y-282.433
G1 X287.295 Y-282.409
G1 X286.508 Y-282.309
G1 X285.716 Y-282.133
G1 X284.920 Y-281.880
G1 X620.068 Y-273.846
G1 X620.265 Y-273.187
G1 X620.582 Y-272.436
G1 X621.007 Y-271.606
G1 X621.531 Y-270.707
G1 X622.143 Y-269.753
G1 X622.833 Y-268.755
G1 X623.592 Y-267.726
G1 X624.408 Y-266.679
G1 X625.271 Y-265.624
G1 X626.172 Y-264.574
G1 X627.100 Y-263.542
G1 X628.045 Y-262.540
G1 X628.996 Y-261.580
G1 X629.944 Y-260.674
G1 X630.877 Y-259.834
G1 X631.787 Y-259.072
G1 X632.663 Y-258.401
G1 X633.494 Y-257.833
G1 X634.270 Y-257.380
G1 X634.626 Y-257.195
G1 X634.952 Y-257.030
G1 X635.250 Y-256.885
G1 X635.521 Y-256.759
G1 X635.767 Y-256.655
G1 X635.990 Y-256.570
G1 X636.192 Y-256.506
G1 X636.374 Y-256.462
G1 X636.538 Y-256.439
G1 X636.686 Y-256.436
G1 X636.820 Y-256.455
G1 X636.941 Y-256.494
G1 X637.052 Y-256.554
G1 X637.153 Y-256.635
G1 X637.247 Y-256.737
G1 X637.336 Y-256.861
G1 X637.420 Y-257.006
G1 X637.503 Y-257.172
G1 X637.586 Y-257.360
G1 X637.670 Y-257.570
G1 X637.724 Y-257.747
G1 X637.752 Y-257.932
G1 X637.755 Y-258.126
G1 X637.732 Y-258.329
G1 X637.683 Y-258.542
G1 X637.608 Y-258.766
G1 X637.506 Y-259.000
G1 X637.377 Y-259.244
G1 X637.221 Y-259.501
G1 X637.038 Y-259.769
G1 X636.826 Y-260.049
G1 X636.587 Y-260.342
G1 X636.320 Y-260.648
G1 X636.023 Y-260.967
G1 X635.698 Y-261.301
G1 X635.344 Y-261.648
G1 X634.961 Y-262.011
G1 X634.547 Y-262.388
G1 X634.104 Y-262.781
G1 X633.630 Y-263.190
G1 X633.240 Y-263.531
G1 X632.838 Y-263.894
G1 X632.426 Y-264.276
G1 X632.008 Y-264.675
G1 X631.583 Y-265.089
G1 X631.156 Y-265.515
G1 X630.727 Y-265.952
G1 X630.298 Y-266.397
G1 X629.872 Y-266.849
G1 X629.451 Y-267.304
G1 X629.037 Y-267.761
G1 X628.631 Y-268.217
G1 X628.236 Y-268.671
G1 X627.854 Y-269.120
G1 X627.486 Y-269.562
G1 X627.135 Y-269.994
G1 X626.803 Y-270.416
G1 X626.492 Y-270.824
G1 X626.204 Y-271.216
G1 X625.940 Y-271.590
G1 X625.484 Y-272.230
G1 X625.033 Y-272.823
G1 X624.588 Y-273.369
G1 X624.151 Y-273.867
G1 X623.725 Y-274.314
G1 X623.312 Y-274.711
G1 X622.913 Y-275.057
G1 X622.532 Y-275.350
G1 X622.168 Y-275.589
G1 X621.826 Y-275.774
G1 X621.507 Y-275.903
G1 X621.212 Y-275.976
G1 X620.945 Y-275.991
G1 X620.707 Y-275.947
G1 X620.499 Y-275.844
G1 X620.325 Y-275.680
G1 X620.186 Y-275.455
G1 X620.084 Y-275.167
G1 X620.021 Y-274.816
G1 X620.000 Y-274.400
G1 X289.089 Y-258.425
G1 X289.347 Y-257.639
G1 X289.758 Y-256.751
G1 X290.306 Y-255.777
G1 X290.976 Y-254.732
G1 X291.752 Y-253.635
G1 X292.618 Y-252.500
G1 X293.559 Y-251.346
G1 X294.560 Y-250.189
G1 X295.604 Y-249.045
G1 X296.676 Y-247.931
G1 X297.761 Y-246.864
G1 X298.843 Y-245.860
G1 X299.906 Y-244.935
G1 X300.935 Y-244.108
G1 X301.914 Y-243.393
G1 X302.828 Y-242.809
G1 X303.660 Y-242.371
G1 X304.396 Y-242.095
G1 X305.020 Y-242.000
G1 X305.516 Y-242.013
G1 X305.950 Y-242.053
G1 X306.323 Y-242.119
G1 X306.633 Y-242.213
G1 X306.882 Y-242.335
G1 X307.068 Y-242.486
G1 X307.191 Y-242.665
G1 X307.252 Y-242.875
G1 X307.250 Y-243.114
G1 X307.185 Y-243.384
G1 X307.057 Y-243.685
G1 X306.865 Y-244.017
G1 X306.609 Y-244.382
G1 X306.290 Y-244.780
G1 X305.906 Y-245.210
G1 X305.458 Y-245.675
G1 X304.946 Y-246.174
G1 X304.369 Y-246.707
G1 X303.727 Y-247.276
G1 X303.020 Y-247.880
G1 X302.608 Y-248.235
G1 X302.184 Y-248.612
G1 X301.749 Y-249.008
G1 X301.307 Y-249.421
G1 X300.858 Y-249.849
G1 X300.406 Y-250.289
G1 X299.952 Y-250.740
G1 X299.498 Y-251.199
G1 X299.047 Y-251.664
G1 X298.601 Y-252.132
G1 X298.162 Y-252.602
G1 X297.732 Y-253.071
G1 X297.314 Y-253.537
G1 X296.909 Y-253.997
G1 X296.519 Y-254.450
G1 X296.147 Y-254.893
G1 X295.795 Y-255.323
G1 X295.465 Y-255.740
G1 X295.159 Y-256.139
G1 X294.880 Y-256.520
G1 X294.380 Y-257.198
G1 X293.894 Y-257.821
G1 X293.424 Y-258.390
G1 X292.971 Y-258.902
G1 X292.535 Y-259.359
G1 X292.119 Y-259.758
G1 X291.724 Y-260.101
G1 X291.350 Y-260.385
G1 X290.999 Y-260.611
G1 X290.672 Y-260.779
G1 X290.371 Y-260.887
G1 X290.096 Y-260.934
G1 X289.849 Y-260.922
G1 X289.631 Y-260.848
G1 X289.443 Y-260.712
G1 X289.287 Y-260.514
G1 X289.163 Y-260.254
G1 X289.073 Y-259.930
G1 X289.019 Y-259.542
G1 X289.000 Y-259.090
G1 X58.913 Y-257.809
G1 X58.825 Y-257.556
G1 X58.744 Y-257.260
G1 X58.672 Y-256.923
G1 X58.608 Y-256.545
G1 X58.551 Y-256.127
G1 X58.503 Y-255.670
G1 X58.463 Y-255.175
G1 X58.431 Y-254.641
G1 X58.407 Y-254.071
G1 X58.392 Y-253.465
G1 X58.385 Y-252.823
G1 X58.386 Y-252.146
G1 X58.396 Y-251.436
G1 X58.414 Y-250.692
G1 X58.440 Y-249.916
G1 X58.475 Y-249.108
G1 X58.518 Y-248.268
G1 X58.570 Y-247.399
G1 X58.630 Y-246.500
G1 X58.713 Y-244.936
G1 X58.761 Y-243.164
G1 X58.775 Y-241.213
G1 X58.758 Y-239.113
G1 X58.711 Y-236.892
G1 X58.637 Y-234.579
G1 X58.538 Y-232.204
G1 X58.415 Y-229.795
G1 X58.271 Y-227.381
G1 X58.109 Y-224.993
G1 X57.929 Y-222.657
G1 X57.735 Y-220.404
G1 X57.528 Y-218.263
G1 X57.311 Y-216.263
G1 X57.085 Y-214.432
G1 X56.852 Y-212.800
G1 X56.615 Y-211.396
G1 X56.376 Y-210.248
G1 X56.137 Y-209.387
G1 X55.900 Y-208.840
G1 X55.799 Y-208.691
G1 X55.690 Y-208.560
G1 X55.571 Y-208.446
G1 X55.440 Y-208.350
G1 X55.295 Y-208.272
G1 X55.135 Y-208.212
G1 X54.958 Y-208.170
G1 X54.763 Y-208.147
G1 X54.546 Y-208.142
G1 X54.307 Y-208.156
G1 X54.045 Y-208.189
G1 X53.756 Y-208.242
G1 X53.439 Y-208.313
G1 X53.093 Y-208.404
G1 X52.716 Y-208.515
G1 X52.306 Y-208.646
G1 X51.861 Y-208.796
G1 X51.380 Y-208.967
G1 X50.860 Y-209.158
G1 X50.300 Y-209.370
G1 X49.389 Y-209.714
G1 X48.550 Y-210.023
G1 X47.779 Y-210.297
G1 X47.074 Y-210.537
G1 X46.432 Y-210.741
G1 X45.849 Y-210.912
G1 X45.322 Y-211.048
G1 X44.849 Y-211.150
G1 X44.427 Y-211.217
G1 X44.051 Y-211.251
G1 X43.720 Y-211.251
G1 X43.430 Y-211.218
G1 X43.178 Y-211.150
G1 X42.960 Y-211.050
G1 X42.775 Y-210.915
G1 X42.619 Y-210.748
G1 X42.488 Y-210.548
G1 X42.380 Y-210.315
G1 X42.292 Y-210.049
G1 X42.220 Y-209.750
G1 X42.190 Y-209.575
G1 X42.177 Y-209.405
G1 X42.179 Y-209.238
G1 X42.196 Y-209.076
G1 X42.230 Y-208.918
G1 X42.280 Y-208.764
G1 X42.346 Y-208.614
G1 X42.428 Y-208.467
G1 X42.526 Y-208.325
G1 X42.640 Y-208.186
G1 X42.770 Y-208.051
G1 X42.917 Y-207.920
G1 X43.080 Y-207.792
G1 X43.259 Y-207.667
G1 X43.455 Y-207.546
G1 X43.667 Y-207.429
G1 X43.895 Y-207.314
G1 X44.140 Y-207.203
G1 X44.402 Y-207.095
G1 X44.680 Y-206.990
G1 X44.923 Y-206.901
G1 X45.187 Y-206.803
G1 X45.469 Y-206.696
G1 X45.768 Y-206.581
G1 X46.081 Y-206.460
G1 X46.408 Y-206.331
G1 X46.747 Y-206.197
G1 X47.095 Y-206.058
G1 X47.450 Y-205.915
G1 X47.812 Y-205.769
G1 X48.179 Y-205.619
G1 X48.548 Y-205.468
G1 X48.918 Y-205.315
G1 X49.286 Y-205.162
G1 X49.653 Y-205.009
G1 X50.014 Y-204.856
G1 X50.369 Y-204.705
G1 X50.717 Y-204.557
G1 X51.054 Y-204.412
G1 X51.380 Y-204.270
G1 X55.260 Y-202.580
G1 X54.570 Y-191.770
G1 X54.431 Y-189.331
G1 X54.310 Y-186.725
G1 X54.208 Y-183.975
G1 X54.124 Y-181.104
G1 X54.057 Y-178.136
G1 X54.009 Y-175.095
G1 X53.977 Y-172.004
G1 X53.963 Y-168.887
G1 X53.966 Y-165.766
G1 X53.986 Y-162.666
G1 X54.023 Y-159.610
G1 X54.075 Y-156.621
G1 X54.144 Y-153.723
G1 X54.229 Y-150.939
G1 X54.330 Y-148.293
G1 X54.446 Y-145.808
G1 X54.577 Y-143.508
G1 X54.723 Y-141.416
G1 X54.884 Y-139.555
G1 X55.060 Y-137.950
G1 X55.694 Y-133.282
G1 X56.421 Y-128.751
G1 X57.240 Y-124.359
G1 X58.151 Y-120.105
G1 X59.153 Y-115.991
G1 X60.247 Y-112.017
G1 X61.431 Y-108.184
G1 X62.707 Y-104.492
G1 X64.073 Y-100.942
G1 X65.529 Y-97.535
G1 X67.075 Y-94.271
G1 X68.710 Y-91.150
G1 X70.436 Y-88.174
G1 X72.250 Y-85.342
G1 X74.153 Y-82.656
G1 X76.144 Y-80.116
G1 X78.224 Y-77.723
G1 X80.392 Y-75.477
G1 X82.647 Y-73.379
G1 X84.990 Y-71.430
G1 X85.725 Y-70.848
G1 X86.398 Y-70.305
G1 X87.014 Y-69.796
G1 X87.574 Y-69.318
G1 X88.082 Y-68.865
G1 X88.542 Y-68.434
G1 X88.957 Y-68.020
G1 X89.329 Y-67.618
G1 X89.663 Y-67.225
G1 X89.960 Y-66.835
G1 X90.225 Y-66.445
G1 X90.460 Y-66.049
G1 X90.669 Y-65.645
G1 X90.854 Y-65.226
G1 X91.020 Y-64.790
G1 X91.169 Y-64.330
G1 X91.304 Y-63.844
G1 X91.429 Y-63.327
G1 X91.547 Y-62.773
G1 X91.660 Y-62.180
G1 X91.761 Y-61.642
G1 X91.862 Y-61.145
G1 X91.964 Y-60.686
G1 X92.066 Y-60.265
G1 X92.170 Y-59.879
G1 X92.277 Y-59.529
G1 X92.387 Y-59.211
G1 X92.502 Y-58.926
G1 X92.622 Y-58.671
G1 X92.748 Y-58.445
G1 X92.880 Y-58.247
G1 X93.020 Y-58.076
G1 X93.169 Y-57.930
G1 X93.326 Y-57.808
G1 X93.494 Y-57.708
G1 X93.672 Y-57.630
G1 X93.862 Y-57.571
G1 X94.065 Y-57.531
G1 X94.280 Y-57.507
G1 X94.510 Y-57.500
G1 X94.745 Y-57.505
G1 X94.960 Y-57.519
G1 X95.157 Y-57.545
G1 X95.336 Y-57.583
G1 X95.498 Y-57.634
G1 X95.642 Y-57.699
G1 X95.771 Y-57.780
G1 X95.884 Y-57.878
G1 X95.982 Y-57.993
G1 X96.066 Y-58.127
G1 X96.136 Y-58.282
G1 X96.193 Y-58.457
G1 X96.238 Y-58.654
G1 X96.270 Y-58.875
G1 X96.292 Y-59.120
G1 X96.302 Y-59.391
G1 X96.303 Y-59.688
G1 X96.294 Y-60.013
G1 X96.276 Y-60.366
G1 X96.250 Y-60.750
G1 X96.230 Y-61.016
G1 X96.214 Y-61.276
G1 X96.200 Y-61.529
G1 X96.189 Y-61.775
G1 X96.180 Y-62.013
G1 X96.174 Y-62.241
G1 X96.172 Y-62.460
G1 X96.171 Y-62.667
G1 X96.174 Y-62.863
G1 X96.179 Y-63.046
G1 X96.186 Y-63.216
G1 X96.197 Y-63.372
G1 X96.210 Y-63.512
G1 X96.225 Y-63.636
G1 X96.243 Y-63.744
G1 X96.263 Y-63.834
G1 X96.286 Y-63.905
G1 X96.312 Y-63.957
G1 X96.340 Y-63.989
G1 X96.370 Y-64.000
G1 X96.416 Y-63.994
G1 X96.489 Y-63.975
G1 X96.589 Y-63.944
G1 X96.714 Y-63.901
G1 X96.863 Y-63.847
G1 X97.035 Y-63.783
G1 X97.228 Y-63.709
G1 X97.442 Y-63.626
G1 X97.674 Y-63.533
G1 X97.924 Y-63.432
G1 X98.190 Y-63.324
G1 X98.472 Y-63.207
G1 X98.767 Y-63.084
G1 X99.075 Y-62.954
G1 X99.395 Y-62.819
G1 X99.725 Y-62.678
G1 X100.063 Y-62.532
G1 X100.409 Y-62.382
G1 X100.762 Y-62.227
G1 X101.120 Y-62.070
G1 X102.522 Y-61.479
G1 X103.949 Y-60.930
G1 X105.406 Y-60.421
G1 X106.900 Y-59.952
G1 X108.436 Y-59.523
G1 X110.023 Y-59.132
G1 X111.664 Y-58.779
G1 X113.367 Y-58.464
G1 X115.139 Y-58.184
G1 X116.984 Y-57.940
G1 X118.909 Y-57.731
G1 X120.921 Y-57.556
G1 X123.026 Y-57.414
G1 X125.230 Y-57.304
G1 X127.539 Y-57.227
G1 X129.960 Y-57.180
G1 X132.498 Y-57.164
G1 X135.160 Y-57.178
G1 X137.952 Y-57.220
G1 X140.880 Y-57.290
G1 X142.679 Y-57.344
G1 X144.424 Y-57.404
G1 X146.115 Y-57.469
G1 X147.751 Y-57.540
G1 X149.330 Y-57.617
G1 X150.853 Y-57.699
G1 X152.319 Y-57.787
G1 X153.727 Y-57.881
G1 X155.076 Y-57.980
G1 X156.365 Y-58.084
G1 X157.594 Y-58.193
G1 X158.762 Y-58.308
G1 X159.868 Y-58.428
G1 X160.912 Y-58.553
G1 X161.892 Y-58.684
G1 X162.809 Y-58.819
G1 X163.660 Y-58.959
G1 X164.447 Y-59.105
G1 X165.167 Y-59.255
G1 X165.820 Y-59.410
G1 X167.806 Y-59.944
G1 X169.737 Y-60.525
G1 X171.610 Y-61.152
G1 X173.426 Y-61.823
G1 X175.180 Y-62.538
G1 X176.873 Y-63.296
G1 X178.502 Y-64.095
G1 X180.066 Y-64.934
G1 X181.562 Y-65.812
G1 X182.990 Y-66.729
G1 X184.347 Y-67.682
G1 X185.632 Y-68.671
G1 X186.843 Y-69.694
G1 X187.979 Y-70.751
G1 X189.037 Y-71.840
G1 X190.016 Y-72.960
G1 X190.915 Y-74.110
G1 X191.731 Y-75.290
G1 X192.464 Y-76.496
G1 X193.110 Y-77.730
G1 X193.611 Y-78.851
G1 X194.054 Y-80.026
G1 X194.439 Y-81.251
G1 X194.767 Y-82.523
G1 X195.038 Y-83.836
G1 X195.252 Y-85.186
G1 X195.409 Y-86.569
G1 X195.510 Y-87.982
G1 X195.553 Y-89.418
G1 X195.540 Y-90.875
G1 X195.471 Y-92.348
G1 X195.345 Y-93.832
G1 X195.163 Y-95.324
G1 X194.925 Y-96.818
G1 X194.632 Y-98.312
G1 X194.282 Y-99.800
G1 X193.877 Y-101.278
G1 X193.417 Y-102.742
G1 X192.901 Y-104.187
G1 X192.330 Y-105.610
G1 X190.311 Y-109.940
G1 X187.918 Y-114.298
G1 X185.157 Y-118.682
G1 X182.032 Y-123.087
G1 X178.546 Y-127.511
G1 X174.705 Y-131.949
G1 X170.512 Y-136.399
G1 X165.972 Y-140.855
G1 X161.089 Y-145.316
G1 X155.868 Y-149.777
G1 X150.312 Y-154.236
G1 X144.426 Y-158.687
G1 X138.214 Y-163.128
G1 X131.680 Y-167.555
G1 X124.830 Y-171.965
G1 X117.667 Y-176.354
G1 X110.195 Y-180.719
G1 X102.418 Y-185.055
G1 X94.342 Y-189.360
G1 X85.970 Y-193.630
G1 X84.490 Y-194.373
G1 X83.057 Y-195.101
G1 X81.675 Y-195.813
G1 X80.346 Y-196.506
G1 X79.072 Y-197.179
G1 X77.858 Y-197.831
G1 X76.705 Y-198.459
G1 X75.617 Y-199.063
G1 X74.596 Y-199.640
G1 X73.645 Y-200.189
G1 X72.767 Y-200.708
G1 X71.965 Y-201.196
G1 X71.241 Y-201.650
G1 X70.598 Y-202.071
G1 X70.040 Y-202.454
G1 X69.569 Y-202.800
G1 X69.187 Y-203.106
G1 X68.898 Y-203.371
G1 X68.705 Y-203.593
G1 X68.610 Y-203.770
G1 X68.446 Y-204.376
G1 X68.261 Y-205.162
G1 X68.059 Y-206.108
G1 X67.841 Y-207.200
G1 X67.611 Y-208.419
G1 X67.372 Y-209.749
G1 X67.124 Y-211.173
G1 X66.873 Y-212.674
G1 X66.619 Y-214.234
G1 X66.366 Y-215.837
G1 X66.117 Y-217.467
G1 X65.873 Y-219.105
G1 X65.638 Y-220.736
G1 X65.415 Y-222.341
G1 X65.205 Y-223.905
G1 X65.013 Y-225.409
G1 X64.839 Y-226.838
G1 X64.687 Y-228.174
G1 X64.560 Y-229.400
G1 X64.460 Y-230.500
G1 X64.414 Y-231.102
G1 X64.376 Y-231.749
G1 X64.345 Y-232.438
G1 X64.321 Y-233.165
G1 X64.304 Y-233.925
G1 X64.294 Y-234.713
G1 X64.291 Y-235.527
G1 X64.295 Y-236.361
G1 X64.305 Y-237.212
G1 X64.322 Y-238.075
G1 X64.346 Y-238.946
G1 X64.376 Y-239.821
G1 X64.412 Y-240.696
G1 X64.454 Y-241.566
G1 X64.502 Y-242.428
G1 X64.556 Y-243.277
G1 X64.616 Y-244.108
G1 X64.682 Y-244.919
G1 X64.753 Y-245.704
G1 X64.830 Y-246.460
G1 X64.910 Y-247.233
G1 X64.982 Y-247.998
G1 X65.047 Y-248.751
G1 X65.103 Y-249.491
G1 X65.152 Y-250.216
G1 X65.193 Y-250.923
G1 X65.226 Y-251.610
G1 X65.250 Y-252.275
G1 X65.267 Y-252.915
G1 X65.276 Y-253.529
G1 X65.277 Y-254.114
G1 X65.270 Y-254.667
G1 X65.255 Y-255.188
G1 X65.231 Y-255.672
G1 X65.200 Y-256.120
G1 X65.160 Y-256.527
G1 X65.112 Y-256.891
G1 X65.057 Y-257.212
G1 X64.992 Y-257.485
G1 X64.920 Y-257.710
G1 X64.741 Y-258.115
G1 X64.531 Y-258.479
G1 X64.293 Y-258.804
G1 X64.030 Y-259.088
G1 X63.745 Y-259.332
G1 X63.441 Y-259.535
G1 X63.122 Y-259.698
G1 X62.791 Y-259.819
G1 X62.450 Y-259.900
G1 X62.104 Y-259.939
G1 X61.755 Y-259.936
G1 X61.406 Y-259.892
G1 X61.060 Y-259.806
G1 X60.722 Y-259.679
G1 X60.393 Y-259.509
G1 X60.078 Y-259.296
G1 X59.778 Y-259.041
G1 X59.499 Y-258.744
G1 X59.241 Y-258.403
G1 X59.010 Y-258.020
G1 X63.072 Y-209.022
G1 X63.133 Y-208.567
G1 X63.184 Y-208.144
G1 X63.226 Y-207.751
G1 X63.256 Y-207.388
G1 X63.277 Y-207.054
G1 X63.287 Y-206.749
G1 X63.286 Y-206.471
G1 X63.274 Y-206.220
G1 X63.251 Y-205.995
G1 X63.218 Y-205.795
G1 X63.173 Y-205.620
G1 X63.117 Y-205.468
G1 X63.049 Y-205.339
G1 X62.970 Y-205.232
G1 X62.880 Y-205.146
G1 X62.778 Y-205.081
G1 X62.664 Y-205.036
G1 X62.538 Y-205.009
G1 X62.400 Y-205.000
G1 X62.118 Y-205.009
G1 X61.859 Y-205.038
G1 X61.624 Y-205.089
G1 X61.411 Y-205.163
G1 X61.220 Y-205.261
G1 X61.051 Y-205.386
G1 X60.903 Y-205.539
G1 X60.776 Y-205.722
G1 X60.670 Y-205.936
G1 X60.582 Y-206.183
G1 X60.515 Y-206.464
G1 X60.466 Y-206.782
G1 X60.436 Y-207.138
G1 X60.423 Y-207.533
G1 X60.428 Y-207.970
G1 X60.451 Y-208.450
G1 X60.489 Y-208.974
G1 X60.544 Y-209.544
G1 X60.614 Y-210.162
G1 X60.700 Y-210.830
G1 X60.804 Y-211.555
G1 X60.907 Y-212.198
G1 X61.011 Y-212.757
G1 X61.116 Y-213.234
G1 X61.221 Y-213.628
G1 X61.327 Y-213.938
G1 X61.434 Y-214.165
G1 X61.543 Y-214.310
G1 X61.652 Y-214.370
G1 X61.764 Y-214.348
G1 X61.877 Y-214.241
G1 X61.992 Y-214.051
G1 X62.109 Y-213.778
G1 X62.228 Y-213.420
G1 X62.350 Y-212.979
G1 X62.474 Y-212.453
G1 X62.601 Y-211.844
G1 X62.731 Y-211.150
G1 X62.864 Y-210.372
G1 X63.000 Y-209.510
G1 X66.347 Y-188.525
G1 X66.563 Y-187.407
G1 X66.826 Y-186.048
G1 X67.134 Y-184.462
G1 X67.484 Y-182.663
G1 X67.873 Y-180.662
G1 X68.298 Y-178.474
G1 X68.758 Y-176.112
G1 X69.250 Y-173.589
G1 X69.770 Y-170.919
G1 X70.317 Y-168.114
G1 X70.887 Y-165.187
G1 X71.479 Y-162.153
G1 X72.090 Y-159.024
G1 X72.716 Y-155.813
G1 X73.356 Y-152.534
G1 X74.007 Y-149.200
G1 X74.667 Y-145.824
G1 X75.332 Y-142.420
G1 X76.000 Y-139.000
G1 X76.669 Y-135.570
G1 X77.338 Y-132.137
G1 X78.005 Y-128.715
G1 X78.667 Y-125.319
G1 X79.322 Y-121.962
G1 X79.966 Y-118.658
G1 X80.598 Y-115.422
G1 X81.213 Y-112.266
G1 X81.810 Y-109.206
G1 X82.386 Y-106.255
G1 X82.938 Y-103.427
G1 X83.464 Y-100.736
G1 X83.959 Y-98.195
G1 X84.423 Y-95.820
G1 X84.852 Y-93.623
G1 X85.244 Y-91.619
G1 X85.595 Y-89.822
G1 X85.903 Y-88.245
G1 X86.166 Y-86.903
G1 X86.380 Y-85.810
G1 X86.688 Y-84.219
G1 X86.964 Y-82.780
G1 X87.209 Y-81.487
G1 X87.422 Y-80.332
G1 X87.604 Y-79.309
G1 X87.756 Y-78.411
G1 X87.877 Y-77.631
G1 X87.968 Y-76.962
G1 X88.029 Y-76.397
G1 X88.060 Y-75.930
G1 X88.062 Y-75.553
G1 X88.035 Y-75.261
G1 X87.978 Y-75.045
G1 X87.894 Y-74.899
G1 X87.781 Y-74.816
G1 X87.640 Y-74.790
G1 X87.471 Y-74.813
G1 X87.274 Y-74.878
G1 X87.051 Y-74.980
G1 X86.800 Y-75.110
G1 X86.243 Y-75.469
G1 X85.592 Y-75.998
G1 X84.858 Y-76.682
G1 X84.051 Y-77.507
G1 X83.180 Y-78.461
G1 X82.256 Y-79.529
G1 X81.289 Y-80.697
G1 X80.289 Y-81.952
G1 X79.267 Y-83.280
G1 X78.231 Y-84.667
G1 X77.193 Y-86.100
G1 X76.163 Y-87.565
G1 X75.150 Y-89.047
G1 X74.165 Y-90.533
G1 X73.217 Y-92.010
G1 X72.317 Y-93.464
G1 X71.476 Y-94.880
G1 X70.702 Y-96.246
G1 X70.007 Y-97.547
G1 X69.400 Y-98.770
G1 X68.695 Y-100.314
G1 X68.000 Y-101.952
G1 X67.317 Y-103.677
G1 X66.647 Y-105.484
G1 X65.991 Y-107.366
G1 X65.352 Y-109.317
G1 X64.730 Y-111.331
G1 X64.128 Y-113.403
G1 X63.546 Y-115.525
G1 X62.986 Y-117.693
G1 X62.451 Y-119.899
G1 X61.940 Y-122.138
G1 X61.456 Y-124.403
G1 X61.001 Y-126.690
G1 X60.576 Y-128.990
G1 X60.182 Y-131.300
G1 X59.821 Y-133.611
G1 X59.494 Y-135.919
G1 X59.203 Y-138.218
G1 X58.950 Y-140.500
G1 X58.781 Y-142.466
G1 X58.636 Y-144.804
G1 X58.516 Y-147.467
G1 X58.419 Y-150.410
G1 X58.345 Y-153.587
G1 X58.293 Y-156.952
G1 X58.263 Y-160.461
G1 X58.255 Y-164.066
G1 X58.267 Y-167.723
G1 X58.300 Y-171.386
G1 X58.353 Y-175.009
G1 X58.424 Y-178.547
G1 X58.515 Y-181.953
G1 X58.624 Y-185.183
G1 X58.750 Y-188.190
G1 X58.894 Y-190.929
G1 X59.054 Y-193.354
G1 X59.231 Y-195.420
G1 X59.423 Y-197.080
G1 X59.630 Y-198.290
G1 X59.713 Y-198.659
G1 X59.792 Y-198.991
G1 X59.869 Y-199.288
G1 X59.945 Y-199.550
G1 X60.021 Y-199.778
G1 X60.101 Y-199.974
G1 X60.184 Y-200.137
G1 X60.273 Y-200.268
G1 X60.369 Y-200.369
G1 X60.474 Y-200.440
G1 X60.589 Y-200.482
G1 X60.716 Y-200.495
G1 X60.857 Y-200.481
G1 X61.014 Y-200.441
G1 X61.187 Y-200.374
G1 X61.378 Y-200.282
G1 X61.590 Y-200.166
G1 X61.823 Y-200.027
G1 X62.079 Y-199.864
G1 X62.360 Y-199.680
G1 X62.594 Y-199.510
G1 X62.818 Y-199.316
G1 X63.034 Y-199.096
G1 X63.243 Y-198.849
G1 X63.445 Y-198.571
G1 X63.641 Y-198.262
G1 X63.831 Y-197.918
G1 X64.017 Y-197.538
G1 X64.199 Y-197.120
G1 X64.379 Y-196.661
G1 X64.556 Y-196.160
G1 X64.732 Y-195.614
G1 X64.907 Y-195.022
G1 X65.082 Y-194.380
G1 X65.258 Y-193.688
G1 X65.436 Y-192.943
G1 X65.616 Y-192.142
G1 X65.800 Y-191.285
G1 X65.988 Y-190.368
G1 X66.180 Y-189.390
G1 X97.956 Y-182.325
G1 X102.373 Y-179.956
G1 X106.691 Y-177.574
G1 X110.910 Y-175.177
G1 X115.032 Y-172.767
G1 X119.058 Y-170.341
G1 X122.986 Y-167.900
G1 X126.820 Y-165.444
G1 X130.558 Y-162.971
G1 X134.201 Y-160.481
G1 X137.751 Y-157.975
G1 X141.208 Y-155.451
G1 X144.572 Y-152.909
G1 X147.844 Y-150.349
G1 X151.025 Y-147.770
G1 X154.115 Y-145.172
G1 X157.114 Y-142.555
G1 X160.025 Y-139.917
G1 X162.847 Y-137.259
G1 X165.580 Y-134.580
G1 X169.795 Y-130.219
G1 X173.633 Y-125.943
G1 X177.094 Y-121.754
G1 X180.177 Y-117.659
G1 X182.881 Y-113.660
G1 X185.205 Y-109.764
G1 X187.149 Y-105.973
G1 X188.712 Y-102.294
G1 X189.893 Y-98.730
G1 X190.691 Y-95.285
G1 X191.106 Y-91.965
G1 X191.136 Y-88.773
G1 X190.780 Y-85.714
G1 X190.039 Y-82.793
G1 X188.911 Y-80.015
G1 X187.395 Y-77.383
G1 X185.491 Y-74.902
G1 X183.198 Y-72.576
G1 X180.514 Y-70.411
G1 X177.440 Y-68.410
G1 X176.108 Y-67.658
G1 X174.761 Y-66.959
G1 X173.389 Y-66.311
G1 X171.984 Y-65.712
G1 X170.537 Y-65.162
G1 X169.038 Y-64.657
G1 X167.478 Y-64.198
G1 X165.848 Y-63.781
G1 X164.139 Y-63.406
G1 X162.341 Y-63.071
G1 X160.446 Y-62.775
G1 X158.445 Y-62.515
G1 X156.328 Y-62.291
G1 X154.086 Y-62.101
G1 X151.710 Y-61.943
G1 X149.191 Y-61.815
G1 X146.519 Y-61.717
G1 X143.686 Y-61.646
G1 X140.683 Y-61.601
G1 X137.500 Y-61.580
G1 X134.416 Y-61.578
G1 X131.562 Y-61.590
G1 X128.919 Y-61.620
G1 X126.471 Y-61.671
G1 X124.200 Y-61.744
G1 X122.088 Y-61.843
G1 X120.119 Y-61.971
G1 X118.275 Y-62.129
G1 X116.539 Y-62.321
G1 X114.894 Y-62.549
G1 X113.321 Y-62.816
G1 X111.805 Y-63.124
G1 X110.326 Y-63.477
G1 X108.869 Y-63.877
G1 X107.416 Y-64.326
G1 X105.949 Y-64.828
G1 X104.452 Y-65.384
G1 X102.906 Y-65.999
G1 X101.294 Y-66.673
G1 X99.600 Y-67.410
G1 X94.370 Y-69.730
G1 X92.630 Y-77.610
G1 X91.635 Y-82.201
G1 X90.504 Y-87.542
G1 X89.259 Y-93.531
G1 X87.919 Y-100.064
G1 X86.504 Y-107.037
G1 X85.034 Y-114.346
G1 X83.530 Y-121.889
G1 X82.012 Y-129.562
G1 X80.499 Y-137.260
G1 X79.013 Y-144.881
G1 X77.572 Y-152.321
G1 X76.197 Y-159.476
G1 X74.909 Y-166.243
G1 X73.728 Y-172.518
G1 X72.673 Y-178.198
G1 X71.764 Y-183.178
G1 X71.022 Y-187.356
G1 X70.468 Y-190.628
G1 X70.120 Y-192.891
G1 X70.000 Y-194.040
G1 X70.002 Y-194.311
G1 X70.008 Y-194.554
G1 X70.022 Y-194.769
G1 X70.045 Y-194.958
G1 X70.080 Y-195.119
G1 X70.130 Y-195.253
G1 X70.196 Y-195.361
G1 X70.282 Y-195.443
G1 X70.390 Y-195.498
G1 X70.521 Y-195.529
G1 X70.679 Y-195.534
G1 X70.866 Y-195.514
G1 X71.084 Y-195.469
G1 X71.336 Y-195.400
G1 X71.624 Y-195.307
G1 X71.951 Y-195.190
G1 X72.318 Y-195.050
G1 X72.729 Y-194.886
G1 X73.185 Y-194.699
G1 X73.690 Y-194.490
G1 X74.044 Y-194.336
G1 X74.495 Y-194.132
G1 X75.039 Y-193.879
G1 X75.671 Y-193.580
G1 X76.385 Y-193.238
G1 X77.176 Y-192.856
G1 X78.039 Y-192.436
G1 X78.969 Y-191.980
G1 X79.960 Y-191.491
G1 X81.007 Y-190.973
G1 X82.106 Y-190.426
G1 X83.251 Y-189.854
G1 X84.436 Y-189.259
G1 X85.657 Y-188.645
G1 X86.909 Y-188.013
G1 X88.185 Y-187.366
G1 X89.482 Y-186.707
G1 X90.793 Y-186.037
G1 X92.114 Y-185.361
G1 X93.440 Y-184.680
G1 X501.167 Y-217.920
G1 X500.969 Y-217.804
G1 X500.767 Y-217.663
G1 X500.562 Y-217.497
G1 X500.354 Y-217.308
G1 X500.144 Y-217.097
G1 X499.932 Y-216.864
G1 X499.720 Y-216.610
G1 X499.508 Y-216.338
G1 X499.296 Y-216.046
G1 X499.086 Y-215.737
G1 X498.877 Y-215.412
G1 X498.672 Y-215.070
G1 X498.469 Y-214.714
G1 X498.270 Y-214.344
G1 X498.076 Y-213.961
G1 X497.888 Y-213.566
G1 X497.705 Y-213.161
G1 X497.529 Y-212.745
G1 X497.360 Y-212.320
G1 X497.005 Y-211.205
G1 X496.688 Y-209.807
G1 X496.408 Y-208.149
G1 X496.165 Y-206.250
G1 X495.959 Y-204.131
G1 X495.791 Y-201.813
G1 X495.660 Y-199.316
G1 X495.567 Y-196.661
G1 X495.510 Y-193.869
G1 X495.491 Y-190.960
G1 X495.510 Y-187.955
G1 X495.565 Y-184.875
G1 X495.658 Y-181.740
G1 X495.788 Y-178.571
G1 X495.955 Y-175.389
G1 X496.160 Y-172.214
G1 X496.401 Y-169.067
G1 X496.680 Y-165.969
G1 X496.997 Y-162.939
G1 X497.350 Y-160.000
G1 X497.837 Y-156.386
G1 X498.418 Y-152.330
G1 X499.082 Y-147.892
G1 X499.819 Y-143.135
G1 X500.617 Y-138.120
G1 X501.466 Y-132.908
G1 X502.354 Y-127.561
G1 X503.271 Y-122.140
G1 X504.206 Y-116.708
G1 X505.149 Y-111.325
G1 X506.087 Y-106.053
G1 X507.012 Y-100.954
G1 X507.911 Y-96.088
G1 X508.773 Y-91.518
G1 X509.589 Y-87.305
G1 X510.346 Y-83.511
G1 X511.035 Y-80.197
G1 X511.644 Y-77.424
G1 X512.163 Y-75.255
G1 X512.580 Y-73.750
G1 X512.629 Y-73.583
G1 X512.667 Y-73.424
G1 X512.696 Y-73.273
G1 X512.714 Y-73.130
G1 X512.721 Y-72.996
