; --- GRBL G-CODE: SMALL SVG CONCENTRIC INFILL (METHOD B) ---
G21 ; Đơn vị mm
G90 ; Tọa độ tuyệt đối
G92 X0 Y0 Z0 ; Đặt vị trí hiện tại của đầu CNC làm gốc (0,0,0)
M3 S10000 ; Bật Spindle / Lazer
G0 Z5.00 ; 1. Nhấc bút lên độ cao an toàn trước khi bắt đầu di chuyển
G0 F1500 ; Tốc độ di chuyển không tải
G0 X0.000 Y0.000 ; Tới vị trí hiện tại của đầu CNC
G1 Z-1.000 F1000 ; 2. Hạ bút tại vị trí hiện tại của đầu CNC
G0 Z5.00 ; Nhấc bút lên độ cao an toàn để di chuyển vẽ các vòng infill
G0 X0.000 Y-0.000
G1 Z-1.000 F1000
G1 X0.659 Y1.221
G1 X1.304 Y2.390
G1 X1.925 Y3.484
G1 X2.508 Y4.486
G1 X3.043 Y5.373
G1 X3.517 Y6.126
G1 X3.920 Y6.725
G1 X4.238 Y7.149
G1 X4.667 Y7.659
G1 X5.011 Y8.035
G1 X5.274 Y8.262
G1 X5.463 Y8.329
G1 X5.583 Y8.222
G1 X5.642 Y7.928
G1 X5.643 Y7.435
G1 X5.595 Y6.730
G1 X5.501 Y5.799
G1 X5.368 Y4.629
G1 X5.296 Y3.878
G1 X5.253 Y3.127
G1 X5.238 Y2.388
G1 X5.250 Y1.675
G1 X5.287 Y0.999
G1 X5.350 Y0.374
G1 X5.436 Y-0.188
G1 X5.545 Y-0.675
G1 X5.676 Y-1.073
G1 X5.828 Y-1.371
G1 X6.070 Y-1.686
G1 X6.325 Y-1.894
G1 X6.604 Y-1.990
G1 X6.920 Y-1.966
G1 X7.285 Y-1.816
G1 X7.711 Y-1.532
G1 X8.212 Y-1.108
G1 X8.798 Y-0.538
G1 X9.483 Y0.186
G1 X10.278 Y1.069
G1 X10.625 Y1.460
G1 X10.972 Y1.851
G1 X11.319 Y2.242
G1 X11.666 Y2.633
G1 X12.013 Y3.024
G1 X12.360 Y3.415
G1 X12.707 Y3.806
G1 X13.054 Y4.197
G1 X13.401 Y4.588
G1 X13.748 Y4.979
G1 X13.748 Y4.619
G1 X13.748 Y4.259
G1 X13.748 Y3.899
G1 X13.748 Y3.539
G1 X13.748 Y3.179
G1 X13.748 Y2.819
G1 X13.748 Y2.459
G1 X13.748 Y2.099
G1 X13.748 Y1.739
G1 X13.748 Y1.379
G1 X13.795 Y-0.087
G1 X13.932 Y-1.460
G1 X14.153 Y-2.724
G1 X14.451 Y-3.866
G1 X14.821 Y-4.872
G1 X15.256 Y-5.726
G1 X15.751 Y-6.416
G1 X16.298 Y-6.926
G1 X16.893 Y-7.242
G1 X17.528 Y-7.351
G1 X17.867 Y-7.304
G1 X18.277 Y-7.170
G1 X18.746 Y-6.955
G1 X19.263 Y-6.667
G1 X19.818 Y-6.314
G1 X20.400 Y-5.903
G1 X20.996 Y-5.442
G1 X21.598 Y-4.938
G1 X22.192 Y-4.398
G1 X22.768 Y-3.831
G1 X23.646 Y-2.933
G1 X24.367 Y-2.221
G1 X24.951 Y-1.688
G1 X25.418 Y-1.325
G1 X25.791 Y-1.127
G1 X26.088 Y-1.084
G1 X26.331 Y-1.191
G1 X26.540 Y-1.439
G1 X26.736 Y-1.821
G1 X26.938 Y-2.331
G1 X27.084 Y-2.657
G1 X27.271 Y-2.967
G1 X27.493 Y-3.256
G1 X27.745 Y-3.521
G1 X28.022 Y-3.757
G1 X28.318 Y-3.959
G1 X28.627 Y-4.124
G1 X28.944 Y-4.247
G1 X29.263 Y-4.324
G1 X29.578 Y-4.351
G1 X30.356 Y-4.236
G1 X31.334 Y-3.908
G1 X32.481 Y-3.386
G1 X33.763 Y-2.690
G1 X35.150 Y-1.843
G1 X36.607 Y-0.864
G1 X38.103 Y0.225
G1 X39.605 Y1.404
G1 X41.081 Y2.653
G1 X42.498 Y3.949
G1 X42.823 Y4.258
G1 X43.148 Y4.567
G1 X43.473 Y4.876
G1 X43.798 Y5.185
G1 X44.123 Y5.494
G1 X44.448 Y5.803
G1 X44.773 Y6.112
G1 X45.098 Y6.421
G1 X45.423 Y6.730
G1 X45.748 Y7.039
G1 X45.748 Y6.666
G1 X45.748 Y6.293
G1 X45.748 Y5.920
G1 X45.748 Y5.547
G1 X45.748 Y5.174
G1 X45.748 Y4.801
G1 X45.748 Y4.428
G1 X45.748 Y4.055
G1 X45.748 Y3.682
G1 X45.748 Y3.309
G1 X45.812 Y2.065
G1 X45.996 Y1.018
G1 X46.294 Y0.172
G1 X46.697 Y-0.469
G1 X47.197 Y-0.898
G1 X47.787 Y-1.112
G1 X48.460 Y-1.106
G1 X49.206 Y-0.875
G1 X50.018 Y-0.415
G1 X50.888 Y0.279
G1 X51.276 Y0.668
G1 X51.746 Y1.210
G1 X52.287 Y1.888
G1 X52.885 Y2.683
G1 X53.527 Y3.577
G1 X54.202 Y4.552
G1 X54.896 Y5.590
G1 X55.597 Y6.672
G1 X56.292 Y7.782
G1 X56.968 Y8.899
G1 X57.619 Y9.990
G1 X58.246 Y11.026
G1 X58.840 Y11.994
G1 X59.390 Y12.878
G1 X59.890 Y13.666
G1 X60.328 Y14.342
G1 X60.696 Y14.893
G1 X60.985 Y15.304
G1 X61.186 Y15.561
G1 X61.288 Y15.649
G1 X61.331 Y15.554
G1 X61.358 Y15.277
G1 X61.368 Y14.835
G1 X61.364 Y14.242
G1 X61.345 Y13.514
G1 X61.311 Y12.666
G1 X61.265 Y11.714
G1 X61.205 Y10.672
G1 X61.133 Y9.555
G1 X61.048 Y8.379
G1 X60.926 Y6.219
G1 X60.913 Y4.349
G1 X61.013 Y2.764
G1 X61.227 Y1.458
G1 X61.558 Y0.427
G1 X62.008 Y-0.335
G1 X62.579 Y-0.832
G1 X63.273 Y-1.070
G1 X64.092 Y-1.055
G1 X65.038 Y-0.791
G1 X65.723 Y-0.371
G1 X66.532 Y0.374
G1 X67.415 Y1.370
G1 X68.322 Y2.540
G1 X69.203 Y3.808
G1 X70.009 Y5.099
G1 X70.690 Y6.336
G1 X71.195 Y7.445
G1 X71.474 Y8.348
G1 X71.478 Y8.969
G1 X71.397 Y9.125
G1 X71.286 Y9.209
G1 X71.151 Y9.225
G1 X70.993 Y9.176
G1 X70.817 Y9.063
G1 X70.627 Y8.890
G1 X70.425 Y8.660
G1 X70.216 Y8.374
G1 X70.002 Y8.037
G1 X69.788 Y7.649
G1 X69.248 Y6.686
G1 X68.622 Y5.708
G1 X67.935 Y4.744
G1 X67.211 Y3.820
G1 X66.475 Y2.964
G1 X65.751 Y2.203
G1 X65.063 Y1.564
G1 X64.438 Y1.074
G1 X63.898 Y0.760
G1 X63.468 Y0.649
G1 X63.321 Y0.760
G1 X63.190 Y1.080
G1 X63.078 Y1.594
G1 X62.986 Y2.287
G1 X62.913 Y3.143
G1 X62.863 Y4.146
G1 X62.835 Y5.281
G1 X62.831 Y6.532
G1 X62.852 Y7.884
G1 X62.898 Y9.319
G1 X62.975 Y12.164
G1 X62.947 Y14.461
G1 X62.808 Y16.218
G1 X62.551 Y17.441
G1 X62.168 Y18.138
G1 X61.654 Y18.315
G1 X61.001 Y17.979
G1 X60.202 Y17.136
G1 X59.250 Y15.794
G1 X58.138 Y13.959
G1 X55.839 Y10.069
G1 X53.782 Y6.828
G1 X51.977 Y4.243
G1 X50.434 Y2.322
G1 X49.162 Y1.072
G1 X48.171 Y0.500
G1 X47.469 Y0.615
G1 X47.067 Y1.423
G1 X46.974 Y2.932
G1 X47.198 Y5.149
G1 X47.299 Y5.878
G1 X47.377 Y6.570
G1 X47.434 Y7.215
G1 X47.469 Y7.805
G1 X47.482 Y8.329
G1 X47.473 Y8.780
G1 X47.443 Y9.146
G1 X47.390 Y9.420
G1 X47.315 Y9.590
G1 X47.218 Y9.649
G1 X47.040 Y9.585
G1 X46.729 Y9.397
G1 X46.299 Y9.096
G1 X45.762 Y8.694
G1 X45.132 Y8.199
G1 X44.421 Y7.623
G1 X43.642 Y6.976
G1 X42.809 Y6.268
G1 X41.933 Y5.509
G1 X41.028 Y4.709
G1 X39.225 Y3.151
G1 X37.494 Y1.753
G1 X35.852 Y0.526
G1 X34.319 Y-0.521
G1 X32.913 Y-1.377
G1 X31.653 Y-2.031
G1 X30.555 Y-2.474
G1 X29.640 Y-2.695
G1 X28.925 Y-2.684
G1 X28.428 Y-2.431
G1 X28.153 Y-1.864
G1 X28.079 Y-0.986
G1 X28.179 Y0.120
G1 X28.426 Y1.372
G1 X28.796 Y2.688
G1 X29.261 Y3.986
G1 X29.795 Y5.183
G1 X30.371 Y6.198
G1 X30.965 Y6.947
G1 X31.548 Y7.349
G1 X32.788 Y7.921
G1 X33.924 Y8.688
G1 X34.923 Y9.592
G1 X35.755 Y10.571
G1 X36.386 Y11.566
G1 X36.785 Y12.515
G1 X36.920 Y13.358
G1 X36.758 Y14.035
G1 X36.269 Y14.486
G1 X35.418 Y14.649
G1 X34.850 Y14.549
G1 X34.218 Y14.246
G1 X33.520 Y13.740
G1 X32.756 Y13.028
G1 X31.923 Y12.108
G1 X31.021 Y10.980
G1 X30.048 Y9.640
G1 X29.003 Y8.088
G1 X27.883 Y6.322
G1 X26.688 Y4.339
G1 X24.630 Y1.025
G1 X22.782 Y-1.591
G1 X21.146 Y-3.509
G1 X19.723 Y-4.729
G1 X18.515 Y-5.251
G1 X17.523 Y-5.074
G1 X16.749 Y-4.199
G1 X16.194 Y-2.625
G1 X15.860 Y-0.352
G1 X15.748 Y2.619
G1 X15.738 Y3.757
G1 X15.710 Y4.837
G1 X15.664 Y5.845
G1 X15.602 Y6.766
G1 X15.527 Y7.586
G1 X15.440 Y8.289
G1 X15.341 Y8.862
G1 X15.234 Y9.290
G1 X15.119 Y9.557
G1 X14.998 Y9.649
G1 X14.840 Y9.590
G1 X14.617 Y9.419
G1 X14.337 Y9.144
G1 X14.007 Y8.777
G1 X13.635 Y8.326
G1 X13.228 Y7.800
G1 X12.794 Y7.211
G1 X12.341 Y6.566
G1 X11.877 Y5.876
G1 X11.408 Y5.149
G1 X10.285 Y3.409
G1 X9.352 Y2.057
G1 X8.596 Y1.095
G1 X8.000 Y0.523
G1 X7.551 Y0.342
G1 X7.233 Y0.553
G1 X7.032 Y1.156
G1 X6.932 Y2.153
G1 X6.919 Y3.544
G1 X6.978 Y5.329
G1 X7.022 Y7.605
G1 X6.912 Y9.304
G1 X6.635 Y10.419
G1 X6.178 Y10.945
G1 X5.528 Y10.876
G1 X4.674 Y10.204
G1 X3.601 Y8.924
G1 X2.298 Y7.029
G1 X0.751 Y4.513
G1 X-1.052 Y1.369
G1 X-1.942 Y-0.206
G1 X-2.794 Y-1.695
G1 X-3.595 Y-3.079
G1 X-4.333 Y-4.338
G1 X-4.997 Y-5.451
G1 X-5.574 Y-6.398
G1 X-6.053 Y-7.160
G1 X-6.422 Y-7.716
G1 X-6.669 Y-8.046
G1 X-6.782 Y-8.131
G1 X-6.832 Y-7.418
G1 X-6.693 Y-5.723
G1 X-6.390 Y-3.207
G1 X-5.948 Y-0.030
G1 X-5.392 Y3.646
G1 X-4.747 Y7.660
G1 X-4.038 Y11.853
G1 X-3.291 Y16.063
G1 X-2.531 Y20.128
G1 X-1.782 Y23.889
G1 X-0.968 Y27.847
G1 X-0.325 Y31.056
G1 X0.153 Y33.583
G1 X0.472 Y35.495
G1 X0.636 Y36.856
G1 X0.651 Y37.732
G1 X0.521 Y38.190
G1 X0.252 Y38.295
G1 X-0.150 Y38.113
G1 X-0.682 Y37.709
G1 X-0.913 Y37.480
G1 X-1.132 Y37.195
G1 X-1.336 Y36.860
G1 X-1.521 Y36.485
G1 X-1.685 Y36.077
G1 X-1.825 Y35.644
G1 X-1.937 Y35.195
G1 X-2.020 Y34.738
G1 X-2.069 Y34.280
G1 X-2.082 Y33.829
G1 X-2.113 Y33.213
G1 X-2.210 Y32.269
G1 X-2.367 Y31.034
G1 X-2.578 Y29.541
G1 X-2.839 Y27.826
G1 X-3.144 Y25.924
G1 X-3.486 Y23.870
G1 X-3.862 Y21.700
G1 X-4.266 Y19.448
G1 X-4.692 Y17.149
G1 X-5.556 Y12.470
G1 X-6.294 Y8.263
G1 X-6.910 Y4.516
G1 X-7.403 Y1.218
G1 X-7.777 Y-1.644
G1 X-8.031 Y-4.083
G1 X-8.168 Y-6.109
G1 X-8.190 Y-7.736
G1 X-8.097 Y-8.976
G1 X-7.892 Y-9.841
G1 X-7.585 Y-10.477
G1 X-7.238 Y-10.851
G1 X-6.836 Y-10.948
G1 X-6.366 Y-10.752
G1 X-5.813 Y-10.246
G1 X-5.163 Y-9.414
G1 X-4.402 Y-8.242
G1 X-3.516 Y-6.713
G1 X-2.490 Y-4.811
G1 X-1.312 Y-2.521
G1 X-0.661 Y-1.254
G1 X0.000 Y-0.000
G0 Z5.00
G0 X33.825 Y10.263
G1 Z-1.000 F1000
G1 X33.580 Y10.088
G1 X33.339 Y9.938
G1 X33.106 Y9.817
G1 X32.887 Y9.726
G1 X32.686 Y9.669
G1 X32.508 Y9.649
G1 X32.360 Y9.669
G1 X32.252 Y9.725
G1 X32.183 Y9.815
G1 X32.152 Y9.936
G1 X32.160 Y10.084
G1 X32.205 Y10.259
G1 X32.286 Y10.455
G1 X32.405 Y10.671
G1 X32.559 Y10.903
G1 X32.748 Y11.149
G1 X32.962 Y11.393
G1 X33.190 Y11.624
G1 X33.428 Y11.839
G1 X33.672 Y12.036
G1 X33.917 Y12.211
G1 X34.158 Y12.360
G1 X34.391 Y12.482
G1 X34.610 Y12.573
G1 X34.810 Y12.630
G1 X34.988 Y12.649
G1 X35.136 Y12.630
G1 X35.245 Y12.574
G1 X35.314 Y12.484
G1 X35.345 Y12.363
G1 X35.337 Y12.214
G1 X35.292 Y12.040
G1 X35.210 Y11.844
G1 X35.092 Y11.628
G1 X34.938 Y11.396
G1 X34.748 Y11.149
G1 X34.535 Y10.906
G1 X34.307 Y10.675
G1 X34.069 Y10.459
G1 X33.825 Y10.263
G0 Z5.00
G0 X15.459 Y11.761
G1 Z-1.000 F1000
G1 X15.567 Y11.843
G1 X15.681 Y11.943
G1 X15.798 Y12.060
G1 X15.915 Y12.191
G1 X16.031 Y12.334
G1 X16.143 Y12.488
G1 X16.248 Y12.649
G1 X16.334 Y12.811
G1 X16.389 Y12.965
G1 X16.413 Y13.108
G1 X16.407 Y13.239
G1 X16.373 Y13.356
G1 X16.312 Y13.456
G1 X16.223 Y13.537
G1 X16.110 Y13.598
G1 X15.971 Y13.636
G1 X15.808 Y13.649
G1 X15.638 Y13.636
G1 X15.475 Y13.598
G1 X15.324 Y13.537
G1 X15.185 Y13.456
G1 X15.061 Y13.356
G1 X14.954 Y13.239
G1 X14.868 Y13.108
G1 X14.803 Y12.965
G1 X14.762 Y12.811
G1 X14.748 Y12.649
G1 X14.754 Y12.488
G1 X14.771 Y12.334
G1 X14.798 Y12.191
G1 X14.834 Y12.060
G1 X14.878 Y11.943
G1 X14.930 Y11.843
G1 X14.988 Y11.761
G1 X15.050 Y11.701
G1 X15.118 Y11.663
G1 X15.188 Y11.649
G1 X15.267 Y11.663
G1 X15.358 Y11.701
G1 X15.459 Y11.761
G0 Z5.00
G0 X-53.069 Y-29.915
G1 Z-1.000 F1000
G1 X-52.881 Y-29.533
G1 X-52.737 Y-29.004
G1 X-52.631 Y-28.314
G1 X-52.562 Y-27.444
G1 X-52.527 Y-26.380
G1 X-52.521 Y-25.104
G1 X-52.542 Y-23.601
G1 X-52.586 Y-20.211
G1 X-52.542 Y-17.427
G1 X-52.360 Y-15.153
G1 X-51.989 Y-13.296
G1 X-51.379 Y-11.761
G1 X-50.481 Y-10.453
G1 X-49.244 Y-9.280
G1 X-47.619 Y-8.146
G1 X-45.555 Y-6.958
G1 X-43.002 Y-5.621
G1 X-39.635 Y-3.854
G1 X-36.438 Y-2.088
G1 X-33.401 Y-0.317
G1 X-30.512 Y1.468
G1 X-27.760 Y3.274
G1 X-25.134 Y5.110
G1 X-22.622 Y6.981
G1 X-20.214 Y8.897
G1 X-17.897 Y10.863
G1 X-15.662 Y12.889
G1 X-11.983 Y16.669
G1 X-9.095 Y20.359
G1 X-7.000 Y23.918
G1 X-5.699 Y27.305
G1 X-5.194 Y30.477
G1 X-5.487 Y33.393
G1 X-6.578 Y36.011
G1 X-8.470 Y38.289
G1 X-11.164 Y40.186
G1 X-14.662 Y41.659
G1 X-16.357 Y42.073
G1 X-18.502 Y42.395
G1 X-20.979 Y42.626
G1 X-23.670 Y42.765
G1 X-26.455 Y42.813
G1 X-29.218 Y42.770
G1 X-31.839 Y42.635
G1 X-34.200 Y42.408
G1 X-36.184 Y42.090
G1 X-37.672 Y41.679
G1 X-38.303 Y41.451
G1 X-38.858 Y41.276
G1 X-39.343 Y41.154
G1 X-39.765 Y41.086
G1 X-40.132 Y41.072
G1 X-40.449 Y41.113
G1 X-40.723 Y41.209
G1 X-40.962 Y41.360
G1 X-41.173 Y41.567
G1 X-41.362 Y41.829
G1 X-41.531 Y42.086
G1 X-41.689 Y42.279
G1 X-41.836 Y42.407
G1 X-41.975 Y42.471
G1 X-42.108 Y42.469
G1 X-42.238 Y42.402
G1 X-42.367 Y42.268
G1 X-42.497 Y42.066
G1 X-42.631 Y41.797
G1 X-42.772 Y41.459
G1 X-42.925 Y41.142
G1 X-43.167 Y40.737
G1 X-43.491 Y40.257
G1 X-43.885 Y39.714
G1 X-44.342 Y39.119
G1 X-44.851 Y38.485
G1 X-45.404 Y37.823
G1 X-45.991 Y37.145
G1 X-46.603 Y36.463
G1 X-47.232 Y35.789
G1 X-49.211 Y33.376
G1 X-50.981 Y30.534
G1 X-52.531 Y27.302
G1 X-53.853 Y23.717
G1 X-54.939 Y19.817
G1 X-55.779 Y15.639
G1 X-56.366 Y11.220
G1 X-56.689 Y6.599
G1 X-56.740 Y1.813
G1 X-56.512 Y-3.101
G1 X-56.427 Y-4.351
G1 X-56.373 Y-5.510
G1 X-56.347 Y-6.567
G1 X-56.349 Y-7.514
G1 X-56.378 Y-8.342
G1 X-56.434 Y-9.040
G1 X-56.516 Y-9.599
G1 X-56.623 Y-10.010
G1 X-56.755 Y-10.264
G1 X-56.912 Y-10.351
G1 X-57.093 Y-10.370
G1 X-57.314 Y-10.427
G1 X-57.569 Y-10.517
G1 X-57.853 Y-10.638
G1 X-58.159 Y-10.787
G1 X-58.481 Y-10.960
G1 X-58.813 Y-11.154
G1 X-59.150 Y-11.366
G1 X-59.485 Y-11.592
G1 X-59.812 Y-11.831
G1 X-60.297 Y-12.208
G1 X-60.661 Y-12.510
G1 X-60.900 Y-12.739
G1 X-61.005 Y-12.902
G1 X-60.972 Y-13.002
G1 X-60.793 Y-13.043
G1 X-60.463 Y-13.030
G1 X-59.975 Y-12.968
G1 X-59.323 Y-12.860
G1 X-58.502 Y-12.711
G1 X-58.177 Y-12.650
G1 X-57.852 Y-12.589
G1 X-57.527 Y-12.528
G1 X-57.202 Y-12.467
G1 X-56.877 Y-12.406
G1 X-56.552 Y-12.345
G1 X-56.227 Y-12.284
G1 X-55.902 Y-12.223
G1 X-55.577 Y-12.162
G1 X-55.252 Y-12.101
G1 X-55.239 Y-12.588
G1 X-55.226 Y-13.075
G1 X-55.213 Y-13.562
G1 X-55.200 Y-14.049
G1 X-55.187 Y-14.536
G1 X-55.174 Y-15.023
G1 X-55.161 Y-15.510
G1 X-55.148 Y-15.997
G1 X-55.135 Y-16.484
G1 X-55.122 Y-16.971
G1 X-55.101 Y-17.817
G1 X-55.088 Y-18.728
G1 X-55.081 Y-19.687
G1 X-55.081 Y-20.672
G1 X-55.088 Y-21.667
G1 X-55.101 Y-22.651
G1 X-55.120 Y-23.605
G1 X-55.145 Y-24.511
G1 X-55.175 Y-25.349
G1 X-55.212 Y-26.101
G1 X-55.248 Y-27.002
G1 X-55.253 Y-27.779
G1 X-55.225 Y-28.439
G1 X-55.162 Y-28.988
G1 X-55.062 Y-29.433
G1 X-54.921 Y-29.782
G1 X-54.740 Y-30.041
G1 X-54.514 Y-30.218
G1 X-54.242 Y-30.319
G1 X-53.922 Y-30.351
G1 X-53.586 Y-30.308
G1 X-53.303 Y-30.168
G1 X-53.069 Y-29.915
G0 Z5.00
G0 X-50.345 Y-7.289
G1 Z-1.000 F1000
G1 X-50.542 Y-7.351
G1 X-50.650 Y-7.187
G1 X-50.658 Y-6.634
G1 X-50.549 Y-5.601
G1 X-50.306 Y-3.995
G1 X-49.914 Y-1.726
G1 X-49.356 Y1.300
G1 X-48.615 Y5.174
G1 X-47.675 Y9.987
G1 X-46.519 Y15.832
G1 X-45.132 Y22.799
G1 X-44.815 Y24.387
G1 X-44.498 Y25.975
G1 X-44.181 Y27.563
G1 X-43.864 Y29.151
G1 X-43.547 Y30.739
G1 X-43.230 Y32.327
G1 X-42.913 Y33.915
G1 X-42.596 Y35.503
G1 X-42.279 Y37.091
G1 X-41.962 Y38.679
G1 X-41.409 Y38.840
G1 X-40.856 Y39.001
G1 X-40.303 Y39.162
G1 X-39.750 Y39.323
G1 X-39.197 Y39.484
G1 X-38.644 Y39.645
G1 X-38.091 Y39.806
G1 X-37.538 Y39.967
G1 X-36.985 Y40.128
G1 X-36.432 Y40.289
G1 X-32.957 Y41.084
G1 X-29.363 Y41.517
G1 X-25.742 Y41.609
G1 X-22.186 Y41.377
G1 X-18.787 Y40.842
G1 X-15.637 Y40.022
G1 X-12.830 Y38.935
G1 X-10.457 Y37.602
G1 X-8.610 Y36.040
G1 X-7.382 Y34.269
G1 X-6.681 Y31.412
G1 X-7.050 Y28.184
G1 X-8.426 Y24.654
G1 X-10.746 Y20.893
G1 X-13.945 Y16.971
G1 X-17.962 Y12.956
G1 X-22.732 Y8.919
G1 X-28.193 Y4.929
G1 X-34.280 Y1.056
G1 X-40.932 Y-2.631
G1 X-42.414 Y-3.395
G1 X-43.834 Y-4.120
G1 X-45.172 Y-4.797
G1 X-46.408 Y-5.415
G1 X-47.522 Y-5.966
G1 X-48.492 Y-6.438
G1 X-49.300 Y-6.822
G1 X-49.924 Y-7.109
G1 X-50.345 Y-7.289
G0 Z5.00
G0 X-52.900 Y-7.335
G1 Z-1.000 F1000
G1 X-53.175 Y-8.302
G1 X-53.352 Y-8.731
G1 X-54.048 Y-8.815
G1 X-54.567 Y-7.428
G1 X-54.913 Y-4.850
G1 X-55.091 Y-1.359
G1 X-55.105 Y2.767
G1 X-54.959 Y7.248
G1 X-54.658 Y11.807
G1 X-54.205 Y16.164
G1 X-53.605 Y20.041
G1 X-52.862 Y23.159
G1 X-52.300 Y24.700
G1 X-51.529 Y26.430
G1 X-50.605 Y28.259
G1 X-49.584 Y30.098
G1 X-48.523 Y31.857
G1 X-47.477 Y33.446
G1 X-46.504 Y34.776
G1 X-45.660 Y35.756
G1 X-45.000 Y36.297
G1 X-44.582 Y36.309
G1 X-44.567 Y35.954
G1 X-44.661 Y35.057
G1 X-44.856 Y33.665
G1 X-45.144 Y31.826
G1 X-45.517 Y29.586
G1 X-45.966 Y26.992
G1 X-46.484 Y24.091
G1 X-47.064 Y20.931
G1 X-47.695 Y17.558
G1 X-48.372 Y14.019
G1 X-49.066 Y10.472
G1 X-49.745 Y7.080
G1 X-50.397 Y3.891
G1 X-51.013 Y0.953
G1 X-51.582 Y-1.687
G1 X-52.093 Y-3.980
G1 X-52.535 Y-5.879
G1 X-52.900 Y-7.335
G0 Z5.00
G0 X-53.494 Y-11.380
G1 Z-1.000 F1000
G1 X-53.436 Y-11.605
G1 X-53.397 Y-11.830
G1 X-53.377 Y-12.052
G1 X-53.375 Y-12.267
G1 X-53.393 Y-12.470
G1 X-53.430 Y-12.656
G1 X-53.485 Y-12.823
G1 X-53.559 Y-12.966
G1 X-53.652 Y-13.081
G1 X-53.747 Y-13.152
G1 X-53.836 Y-13.172
G1 X-53.917 Y-13.142
G1 X-53.989 Y-13.064
G1 X-54.050 Y-12.943
G1 X-54.101 Y-12.780
G1 X-54.139 Y-12.579
G1 X-54.165 Y-12.342
G1 X-54.176 Y-12.071
G1 X-54.172 Y-11.771
G1 X-54.151 Y-11.448
G1 X-54.121 Y-11.181
G1 X-54.080 Y-10.972
G1 X-54.031 Y-10.820
G1 X-53.973 Y-10.727
G1 X-53.907 Y-10.693
G1 X-53.833 Y-10.718
G1 X-53.752 Y-10.804
G1 X-53.665 Y-10.952
G1 X-53.572 Y-11.161
G1 X-53.494 Y-11.380
G0 Z5.00
G0 X33.755 Y-26.749
G1 Z-1.000 F1000
G1 X34.166 Y-26.248
G1 X34.509 Y-25.789
G1 X34.780 Y-25.381
G1 X34.974 Y-25.030
G1 X35.087 Y-24.744
G1 X35.115 Y-24.530
G1 X35.054 Y-24.397
G1 X34.898 Y-24.351
G1 X34.393 Y-24.486
G1 X33.733 Y-24.859
G1 X32.966 Y-25.420
G1 X32.142 Y-26.121
G1 X31.310 Y-26.912
G1 X30.519 Y-27.744
G1 X29.818 Y-28.568
G1 X29.256 Y-29.335
G1 X28.884 Y-29.995
G1 X28.748 Y-30.501
G1 X28.763 Y-30.850
G1 X28.817 Y-31.094
G1 X28.928 Y-31.220
G1 X29.114 Y-31.217
G1 X29.391 Y-31.073
G1 X29.777 Y-30.778
G1 X30.288 Y-30.319
G1 X30.942 Y-29.686
G1 X31.757 Y-28.867
G1 X32.748 Y-27.851
G1 X33.281 Y-27.286
G1 X33.755 Y-26.749
G0 Z5.00
G0 X30.896 Y-37.608
G1 Z-1.000 F1000
G1 X31.540 Y-36.820
G1 X32.146 Y-35.962
G1 X32.682 Y-35.079
G1 X33.120 Y-34.216
G1 X33.428 Y-33.420
G1 X33.578 Y-32.737
G1 X33.538 Y-32.211
G1 X33.441 Y-32.008
G1 X33.320 Y-31.892
G1 X33.175 Y-31.859
G1 X33.009 Y-31.910
G1 X32.823 Y-32.042
G1 X32.620 Y-32.253
G1 X32.400 Y-32.542
G1 X32.165 Y-32.908
G1 X31.917 Y-33.348
G1 X31.658 Y-33.861
G1 X31.141 Y-34.799
G1 X30.587 Y-35.561
G1 X30.011 Y-36.142
G1 X29.434 Y-36.539
G1 X28.872 Y-36.748
G1 X28.344 Y-36.766
G1 X27.866 Y-36.588
G1 X27.457 Y-36.213
G1 X27.136 Y-35.634
G1 X26.918 Y-34.851
G1 X26.848 Y-34.515
G1 X26.758 Y-34.171
G1 X26.650 Y-33.827
G1 X26.529 Y-33.487
G1 X26.396 Y-33.158
G1 X26.254 Y-32.847
G1 X26.105 Y-32.559
G1 X25.953 Y-32.301
G1 X25.800 Y-32.080
G1 X25.648 Y-31.901
G1 X25.236 Y-31.578
G1 X24.948 Y-31.577
G1 X24.779 Y-31.849
G1 X24.721 Y-32.344
G1 X24.767 Y-33.011
G1 X24.912 Y-33.800
G1 X25.148 Y-34.662
G1 X25.469 Y-35.546
G1 X25.868 Y-36.402
G1 X26.338 Y-37.181
G1 X26.611 Y-37.543
G1 X26.898 Y-37.878
G1 X27.194 Y-38.182
G1 X27.493 Y-38.450
G1 X27.788 Y-38.679
G1 X28.076 Y-38.865
G1 X28.349 Y-39.002
G1 X28.603 Y-39.089
G1 X28.831 Y-39.119
G1 X29.028 Y-39.091
G1 X29.610 Y-38.789
G1 X30.242 Y-38.279
G1 X30.896 Y-37.608
G0 Z5.00
G0 X45.816 Y-83.682
G1 Z-1.000 F1000
G1 X46.145 Y-82.717
G1 X46.495 Y-81.538
G1 X46.859 Y-80.164
G1 X47.233 Y-78.614
G1 X47.611 Y-76.906
G1 X47.988 Y-75.058
G1 X48.358 Y-73.091
G1 X49.155 Y-69.040
G1 X49.985 Y-65.582
G1 X50.903 Y-62.638
G1 X51.965 Y-60.126
G1 X53.226 Y-57.967
G1 X54.740 Y-56.081
G1 X56.564 Y-54.387
G1 X58.751 Y-52.806
G1 X61.358 Y-51.257
G1 X64.438 Y-49.661
G1 X66.706 Y-48.492
G1 X68.470 Y-47.487
G1 X69.730 Y-46.666
G1 X70.486 Y-46.048
G1 X70.737 Y-45.651
G1 X70.484 Y-45.493
G1 X69.727 Y-45.595
G1 X68.465 Y-45.974
G1 X66.699 Y-46.650
G1 X64.428 Y-47.641
G1 X63.893 Y-47.886
G1 X63.358 Y-48.131
G1 X62.823 Y-48.376
G1 X62.288 Y-48.621
G1 X61.753 Y-48.866
G1 X61.218 Y-49.111
G1 X60.683 Y-49.356
G1 X60.148 Y-49.601
G1 X59.613 Y-49.846
G1 X59.078 Y-50.091
G1 X59.309 Y-49.529
G1 X59.540 Y-48.967
G1 X59.771 Y-48.405
G1 X60.002 Y-47.843
G1 X60.233 Y-47.281
G1 X60.464 Y-46.719
G1 X60.695 Y-46.157
G1 X60.926 Y-45.595
G1 X61.157 Y-45.033
G1 X61.388 Y-44.471
G1 X62.125 Y-42.661
G1 X62.708 Y-41.168
G1 X63.141 Y-39.942
G1 X63.430 Y-38.938
G1 X63.580 Y-38.108
G1 X63.595 Y-37.404
G1 X63.482 Y-36.780
G1 X63.244 Y-36.188
G1 X62.888 Y-35.581
G1 X62.418 Y-34.911
G1 X61.575 Y-34.068
G1 X60.647 Y-33.702
G1 X59.651 Y-33.794
G1 X58.603 Y-34.327
G1 X57.521 Y-35.282
G1 X56.422 Y-36.641
G1 X55.322 Y-38.388
G1 X54.238 Y-40.504
G1 X53.188 Y-42.970
G1 X52.188 Y-45.771
G1 X52.055 Y-46.179
G1 X51.922 Y-46.587
G1 X51.789 Y-46.995
G1 X51.656 Y-47.403
G1 X51.523 Y-47.811
G1 X51.390 Y-48.219
G1 X51.257 Y-48.627
G1 X51.124 Y-49.035
G1 X50.991 Y-49.443
G1 X50.858 Y-49.851
G1 X50.915 Y-49.468
G1 X50.972 Y-49.085
G1 X51.029 Y-48.702
G1 X51.086 Y-48.319
G1 X51.143 Y-47.936
G1 X51.200 Y-47.553
G1 X51.257 Y-47.170
G1 X51.314 Y-46.787
G1 X51.371 Y-46.404
G1 X51.428 Y-46.021
G1 X51.485 Y-45.638
G1 X51.542 Y-45.255
G1 X51.599 Y-44.872
G1 X51.656 Y-44.489
G1 X51.713 Y-44.106
G1 X51.770 Y-43.723
G1 X51.827 Y-43.340
G1 X51.884 Y-42.957
G1 X51.941 Y-42.574
G1 X51.998 Y-42.191
G1 X51.495 Y-42.695
G1 X50.992 Y-43.199
G1 X50.489 Y-43.703
G1 X49.986 Y-44.207
G1 X49.483 Y-44.711
G1 X48.980 Y-45.215
G1 X48.477 Y-45.719
G1 X47.974 Y-46.223
G1 X47.471 Y-46.727
G1 X46.968 Y-47.231
G1 X44.602 Y-49.448
G1 X42.445 Y-51.163
G1 X40.492 Y-52.374
G1 X38.740 Y-53.082
G1 X37.183 Y-53.287
G1 X35.819 Y-52.988
G1 X34.643 Y-52.185
G1 X33.650 Y-50.878
G1 X32.837 Y-49.066
G1 X32.198 Y-46.751
G1 X31.941 Y-45.626
G1 X31.684 Y-44.666
G1 X31.416 Y-43.854
G1 X31.127 Y-43.171
G1 X30.803 Y-42.602
G1 X30.436 Y-42.129
G1 X30.013 Y-41.735
G1 X29.523 Y-41.404
G1 X28.955 Y-41.118
G1 X28.298 Y-40.861
G1 X27.637 Y-40.641
G1 X27.067 Y-40.483
G1 X26.576 Y-40.388
G1 X26.153 Y-40.359
G1 X25.785 Y-40.399
G1 X25.460 Y-40.511
G1 X25.167 Y-40.698
G1 X24.894 Y-40.961
G1 X24.628 Y-41.305
G1 X24.358 Y-41.731
G1 X23.206 Y-43.646
G1 X22.045 Y-45.512
G1 X20.900 Y-47.292
G1 X19.797 Y-48.951
G1 X18.761 Y-50.452
G1 X17.816 Y-51.760
G1 X16.989 Y-52.840
G1 X16.303 Y-53.655
G1 X15.785 Y-54.171
G1 X15.458 Y-54.351
G1 X15.329 Y-54.278
G1 X15.225 Y-54.069
G1 X15.144 Y-53.735
G1 X15.089 Y-53.287
G1 X15.058 Y-52.737
G1 X15.053 Y-52.096
G1 X15.073 Y-51.375
G1 X15.119 Y-50.586
G1 X15.191 Y-49.741
G1 X15.288 Y-48.851
G1 X15.443 Y-47.564
G1 X15.551 Y-46.489
G1 X15.609 Y-45.607
G1 X15.615 Y-44.901
G1 X15.565 Y-44.353
G1 X15.456 Y-43.944
G1 X15.286 Y-43.658
G1 X15.052 Y-43.475
G1 X14.750 Y-43.379
G1 X14.378 Y-43.351
G1 X13.806 Y-43.495
G1 X13.141 Y-43.924
G1 X12.389 Y-44.631
G1 X11.553 Y-45.611
G1 X10.638 Y-46.856
G1 X9.649 Y-48.360
G1 X8.591 Y-50.116
G1 X7.466 Y-52.120
G1 X6.281 Y-54.363
G1 X5.038 Y-56.841
G1 X4.593 Y-57.731
G1 X4.154 Y-58.577
G1 X3.728 Y-59.367
G1 X3.324 Y-60.089
G1 X2.947 Y-60.732
G1 X2.605 Y-61.284
G1 X2.304 Y-61.733
G1 X2.051 Y-62.068
G1 X1.854 Y-62.278
G1 X1.718 Y-62.351
G1 X1.511 Y-62.000
G1 X1.453 Y-60.974
G1 X1.542 Y-59.310
G1 X1.770 Y-57.047
G1 X2.133 Y-54.221
G1 X2.626 Y-50.870
G1 X3.244 Y-47.033
G1 X3.980 Y-42.747
G1 X4.830 Y-38.051
G1 X5.788 Y-32.981
G1 X6.275 Y-30.410
G1 X6.723 Y-27.954
G1 X7.128 Y-25.647
G1 X7.484 Y-23.524
G1 X7.786 Y-21.618
G1 X8.028 Y-19.965
G1 X8.206 Y-18.599
G1 X8.314 Y-17.555
G1 X8.346 Y-16.867
G1 X8.298 Y-16.571
G1 X8.009 Y-16.354
G1 X7.731 Y-16.288
G1 X7.466 Y-16.367
G1 X7.218 Y-16.588
G1 X6.988 Y-16.943
G1 X6.781 Y-17.429
G1 X6.597 Y-18.040
G1 X6.440 Y-18.770
G1 X6.313 Y-19.616
G1 X6.218 Y-20.571
G1 X6.145 Y-21.248
G1 X6.019 Y-22.179
G1 X5.844 Y-23.333
G1 X5.627 Y-24.679
G1 X5.372 Y-26.188
G1 X5.084 Y-27.828
G1 X4.769 Y-29.569
G1 X4.431 Y-31.380
G1 X4.076 Y-33.231
G1 X3.708 Y-35.091
G1 X3.109 Y-38.070
G1 X2.595 Y-40.497
G1 X2.131 Y-42.453
G1 X1.683 Y-44.018
G1 X1.216 Y-45.272
G1 X0.694 Y-46.296
G1 X0.082 Y-47.170
G1 X-0.654 Y-47.976
G1 X-1.551 Y-48.792
G1 X-2.642 Y-49.701
G1 X-4.028 Y-50.790
G1 X-5.467 Y-51.839
G1 X-6.916 Y-52.826
G1 X-8.335 Y-53.728
G1 X-9.682 Y-54.521
G1 X-10.916 Y-55.181
G1 X-11.996 Y-55.687
G1 X-12.881 Y-56.014
G1 X-13.530 Y-56.140
G1 X-13.902 Y-56.041
G1 X-13.909 Y-55.863
G1 X-13.786 Y-55.496
G1 X-13.544 Y-54.958
G1 X-13.191 Y-54.265
G1 X-12.738 Y-53.436
G1 X-12.194 Y-52.486
G1 X-11.568 Y-51.433
G1 X-10.872 Y-50.295
G1 X-10.113 Y-49.089
G1 X-9.302 Y-47.831
G1 X-7.906 Y-45.675
G1 X-6.759 Y-43.857
G1 X-5.850 Y-42.352
G1 X-5.166 Y-41.133
G1 X-4.697 Y-40.173
G1 X-4.430 Y-39.447
G1 X-4.355 Y-38.928
G1 X-4.459 Y-38.590
G1 X-4.732 Y-38.406
G1 X-5.162 Y-38.351
G1 X-5.777 Y-38.537
G1 X-6.529 Y-39.078
G1 X-7.402 Y-39.947
G1 X-8.376 Y-41.120
G1 X-9.434 Y-42.568
G1 X-10.557 Y-44.267
G1 X-11.728 Y-46.190
G1 X-12.927 Y-48.310
G1 X-14.138 Y-50.603
G1 X-15.342 Y-53.041
G1 X-16.002 Y-54.409
G1 X-16.637 Y-55.700
G1 X-17.240 Y-56.896
G1 X-17.799 Y-57.982
G1 X-18.307 Y-58.938
G1 X-18.753 Y-59.749
G1 X-19.129 Y-60.397
G1 X-19.425 Y-60.864
G1 X-19.632 Y-61.135
G1 X-19.742 Y-61.191
G1 X-19.774 Y-59.904
G1 X-19.456 Y-56.799
G1 X-18.858 Y-52.306
G1 X-18.049 Y-46.855
G1 X-17.100 Y-40.876
G1 X-16.082 Y-34.798
G1 X-15.064 Y-29.051
G1 X-14.116 Y-24.066
G1 X-13.308 Y-20.273
G1 X-12.712 Y-18.101
G1 X-12.616 Y-17.818
G1 X-12.550 Y-17.550
G1 X-12.513 Y-17.299
G1 X-12.505 Y-17.070
G1 X-12.525 Y-16.866
G1 X-12.573 Y-16.690
G1 X-12.647 Y-16.547
G1 X-12.746 Y-16.440
G1 X-12.872 Y-16.374
G1 X-13.022 Y-16.351
G1 X-13.433 Y-16.484
G1 X-13.854 Y-16.868
G1 X-14.275 Y-17.482
G1 X-14.689 Y-18.304
G1 X-15.088 Y-19.311
G1 X-15.465 Y-20.480
G1 X-15.811 Y-21.792
G1 X-16.120 Y-23.222
G1 X-16.382 Y-24.749
G1 X-16.592 Y-26.351
G1 X-16.698 Y-27.248
G1 X-16.852 Y-28.433
G1 X-17.048 Y-29.868
G1 X-17.282 Y-31.518
G1 X-17.547 Y-33.346
G1 X-17.838 Y-35.313
G1 X-18.150 Y-37.384
G1 X-18.479 Y-39.522
G1 X-18.817 Y-41.690
G1 X-19.162 Y-43.851
G1 X-20.014 Y-49.509
G1 X-20.634 Y-54.307
G1 X-21.022 Y-58.242
G1 X-21.178 Y-61.310
G1 X-21.102 Y-63.509
G1 X-20.794 Y-64.836
G1 X-20.255 Y-65.286
G1 X-19.484 Y-64.858
G1 X-18.483 Y-63.547
G1 X-17.252 Y-61.351
G1 X-16.839 Y-60.582
G1 X-16.429 Y-59.898
G1 X-16.020 Y-59.296
G1 X-15.613 Y-58.776
G1 X-15.207 Y-58.338
G1 X-14.800 Y-57.981
G1 X-14.393 Y-57.704
G1 X-13.984 Y-57.507
G1 X-13.574 Y-57.390
G1 X-13.162 Y-57.351
G1 X-12.391 Y-57.307
G1 X-11.594 Y-57.171
G1 X-10.761 Y-56.939
G1 X-9.880 Y-56.603
G1 X-8.940 Y-56.158
G1 X-7.931 Y-55.599
G1 X-6.840 Y-54.919
G1 X-5.658 Y-54.113
G1 X-4.372 Y-53.176
G1 X-2.972 Y-52.101
G1 X-2.593 Y-51.804
G1 X-2.214 Y-51.507
G1 X-1.835 Y-51.210
G1 X-1.456 Y-50.913
G1 X-1.077 Y-50.616
G1 X-0.698 Y-50.319
G1 X-0.319 Y-50.022
G1 X0.060 Y-49.725
G1 X0.439 Y-49.428
G1 X0.818 Y-49.131
G1 X0.750 Y-49.942
G1 X0.682 Y-50.753
G1 X0.614 Y-51.564
G1 X0.546 Y-52.375
G1 X0.478 Y-53.186
G1 X0.410 Y-53.997
G1 X0.342 Y-54.808
G1 X0.274 Y-55.619
G1 X0.206 Y-56.430
G1 X0.138 Y-57.241
G1 X-0.017 Y-59.195
G1 X-0.127 Y-60.814
G1 X-0.187 Y-62.128
G1 X-0.193 Y-63.167
G1 X-0.143 Y-63.962
G1 X-0.032 Y-64.544
G1 X0.144 Y-64.943
G1 X0.389 Y-65.190
G1 X0.706 Y-65.315
G1 X1.098 Y-65.351
G1 X1.444 Y-65.257
G1 X1.857 Y-64.979
G1 X2.332 Y-64.521
G1 X2.868 Y-63.886
G1 X3.462 Y-63.079
G1 X4.111 Y-62.104
G1 X4.812 Y-60.965
G1 X5.562 Y-59.665
G1 X6.358 Y-58.209
G1 X7.198 Y-56.601
G1 X8.913 Y-53.260
G1 X10.311 Y-50.594
G1 X11.421 Y-48.574
G1 X12.269 Y-47.172
G1 X12.882 Y-46.359
G1 X13.287 Y-46.108
G1 X13.512 Y-46.390
G1 X13.582 Y-47.176
G1 X13.525 Y-48.439
G1 X13.368 Y-50.151
G1 X13.254 Y-51.806
G1 X13.268 Y-53.211
G1 X13.408 Y-54.362
G1 X13.669 Y-55.256
G1 X14.050 Y-55.887
G1 X14.546 Y-56.252
G1 X15.154 Y-56.347
G1 X15.871 Y-56.168
G1 X16.693 Y-55.710
G1 X17.618 Y-54.971
G1 X17.920 Y-54.709
G1 X18.234 Y-54.460
G1 X18.554 Y-54.228
G1 X18.874 Y-54.016
G1 X19.188 Y-53.827
G1 X19.490 Y-53.664
G1 X19.774 Y-53.532
G1 X20.034 Y-53.434
G1 X20.264 Y-53.372
G1 X20.458 Y-53.351
G1 X20.673 Y-53.292
G1 X20.963 Y-53.122
G1 X21.319 Y-52.850
G1 X21.732 Y-52.486
G1 X22.192 Y-52.038
G1 X22.690 Y-51.517
G1 X23.217 Y-50.931
G1 X23.764 Y-50.290
G1 X24.321 Y-49.603
G1 X24.878 Y-48.881
G1 X25.959 Y-47.511
G1 X26.937 Y-46.396
G1 X27.809 Y-45.537
G1 X28.573 Y-44.934
G1 X29.227 Y-44.591
G1 X29.768 Y-44.506
G1 X30.193 Y-44.681
G1 X30.500 Y-45.118
G1 X30.686 Y-45.818
G1 X30.748 Y-46.781
G1 X30.802 Y-47.989
G1 X30.957 Y-49.142
G1 X31.208 Y-50.226
G1 X31.549 Y-51.230
G1 X31.972 Y-52.142
G1 X32.472 Y-52.950
G1 X33.042 Y-53.641
G1 X33.676 Y-54.205
G1 X34.367 Y-54.629
G1 X35.108 Y-54.901
G1 X35.974 Y-55.019
G1 X36.959 Y-54.977
G1 X38.044 Y-54.785
G1 X39.207 Y-54.452
G1 X40.426 Y-53.986
G1 X41.681 Y-53.396
G1 X42.949 Y-52.691
G1 X44.211 Y-51.881
G1 X45.445 Y-50.975
G1 X46.628 Y-49.981
G1 X46.866 Y-49.768
G1 X47.104 Y-49.555
G1 X47.342 Y-49.342
G1 X47.580 Y-49.129
G1 X47.818 Y-48.916
G1 X48.056 Y-48.703
G1 X48.294 Y-48.490
G1 X48.532 Y-48.277
G1 X48.770 Y-48.064
G1 X49.008 Y-47.851
G1 X48.936 Y-48.351
G1 X48.864 Y-48.851
G1 X48.792 Y-49.351
G1 X48.720 Y-49.851
G1 X48.648 Y-50.351
G1 X48.576 Y-50.851
G1 X48.504 Y-51.351
G1 X48.432 Y-51.851
G1 X48.360 Y-52.351
G1 X48.288 Y-52.851
G1 X48.098 Y-54.053
G1 X47.879 Y-55.108
G1 X47.613 Y-56.046
G1 X47.283 Y-56.899
G1 X46.870 Y-57.698
G1 X46.354 Y-58.475
G1 X45.719 Y-59.262
G1 X44.945 Y-60.089
G1 X44.015 Y-60.988
G1 X42.908 Y-61.991
G1 X41.594 Y-63.220
G1 X40.555 Y-64.312
G1 X39.794 Y-65.254
G1 X39.312 Y-66.031
G1 X39.111 Y-66.631
G1 X39.192 Y-67.038
G1 X39.558 Y-67.239
G1 X40.210 Y-67.221
G1 X41.150 Y-66.969
G1 X42.378 Y-66.471
G1 X42.808 Y-66.286
G1 X43.230 Y-66.122
G1 X43.637 Y-65.982
G1 X44.022 Y-65.866
G1 X44.378 Y-65.776
G1 X44.700 Y-65.713
G1 X44.981 Y-65.680
G1 X45.214 Y-65.677
G1 X45.392 Y-65.707
G1 X45.508 Y-65.771
G1 X45.573 Y-65.952
G1 X45.606 Y-66.318
G1 X45.609 Y-66.851
G1 X45.582 Y-67.535
G1 X45.527 Y-68.352
G1 X45.446 Y-69.286
G1 X45.339 Y-70.319
G1 X45.208 Y-71.436
G1 X45.054 Y-72.619
G1 X44.878 Y-73.851
G1 X44.696 Y-75.103
G1 X44.523 Y-76.345
G1 X44.361 Y-77.556
G1 X44.213 Y-78.716
G1 X44.081 Y-79.804
G1 X43.968 Y-80.801
G1 X43.875 Y-81.687
G1 X43.806 Y-82.440
G1 X43.763 Y-83.042
G1 X43.748 Y-83.471
G1 X43.764 Y-83.812
G1 X43.808 Y-84.120
G1 X43.880 Y-84.393
G1 X43.978 Y-84.628
G1 X44.100 Y-84.823
G1 X44.243 Y-84.975
G1 X44.406 Y-85.083
G1 X44.588 Y-85.143
G1 X44.786 Y-85.153
G1 X44.998 Y-85.111
G1 X45.237 Y-84.898
G1 X45.511 Y-84.415
G1 X45.816 Y-83.682
G0 Z5.00
G0 X52.185 Y-54.404
G1 Z-1.000 F1000
G1 X51.951 Y-54.352
G1 X51.801 Y-54.206
G1 X51.748 Y-53.961
G1 X51.876 Y-53.163
G1 X52.226 Y-51.826
G1 X52.753 Y-50.082
G1 X53.410 Y-48.064
G1 X54.150 Y-45.906
G1 X54.926 Y-43.740
G1 X55.691 Y-41.701
G1 X56.400 Y-39.921
G1 X57.004 Y-38.533
G1 X57.458 Y-37.671
G1 X58.050 Y-36.870
G1 X58.649 Y-36.245
G1 X59.240 Y-35.796
G1 X59.806 Y-35.523
G1 X60.330 Y-35.427
G1 X60.795 Y-35.507
G1 X61.185 Y-35.764
G1 X61.483 Y-36.199
G1 X61.673 Y-36.811
G1 X61.738 Y-37.601
G1 X61.610 Y-38.591
G1 X61.258 Y-39.926
G1 X60.719 Y-41.518
G1 X60.035 Y-43.282
G1 X59.242 Y-45.131
G1 X58.381 Y-46.976
G1 X57.490 Y-48.733
G1 X56.608 Y-50.314
G1 X55.775 Y-51.632
G1 X55.028 Y-52.601
G1 X54.587 Y-53.052
G1 X54.134 Y-53.448
G1 X53.685 Y-53.783
G1 X53.252 Y-54.051
G1 X52.848 Y-54.248
G1 X52.488 Y-54.367
G1 X52.185 Y-54.404
G0 Z5.00
G0 X26.955 Y-43.438
G1 Z-1.000 F1000
G1 X26.668 Y-43.888
G1 X26.345 Y-44.363
G1 X25.993 Y-44.854
G1 X25.615 Y-45.352
G1 X25.218 Y-45.851
G1 X24.821 Y-46.320
G1 X24.444 Y-46.735
G1 X24.091 Y-47.092
G1 X23.769 Y-47.388
G1 X23.481 Y-47.618
G1 X23.233 Y-47.779
G1 X23.031 Y-47.868
G1 X22.880 Y-47.880
G1 X22.784 Y-47.812
G1 X22.748 Y-47.661
G1 X22.781 Y-47.430
G1 X22.875 Y-47.139
G1 X23.025 Y-46.797
G1 X23.226 Y-46.411
G1 X23.473 Y-45.991
G1 X23.761 Y-45.544
G1 X24.085 Y-45.079
G1 X24.439 Y-44.605
G1 X24.819 Y-44.129
G1 X25.218 Y-43.661
G1 X25.618 Y-43.218
G1 X25.996 Y-42.824
G1 X26.350 Y-42.482
G1 X26.672 Y-42.195
G1 X26.958 Y-41.968
G1 X27.204 Y-41.804
G1 X27.404 Y-41.706
G1 X27.553 Y-41.679
G1 X27.646 Y-41.726
G1 X27.678 Y-41.851
G1 X27.646 Y-42.052
G1 X27.552 Y-42.319
G1 X27.402 Y-42.645
G1 X27.201 Y-43.021
G1 X26.955 Y-43.438
G0 Z5.00
G0 X46.646 Y-61.991
G1 Z-1.000 F1000
G1 X46.524 Y-62.127
G1 X46.361 Y-62.280
G1 X46.161 Y-62.446
G1 X45.928 Y-62.621
G1 X45.666 Y-62.802
G1 X45.379 Y-62.987
G1 X45.072 Y-63.171
G1 X44.748 Y-63.351
G1 X44.425 Y-63.517
G1 X44.118 Y-63.663
G1 X43.831 Y-63.787
G1 X43.569 Y-63.887
G1 X43.336 Y-63.962
G1 X43.136 Y-64.011
G1 X42.973 Y-64.032
G1 X42.851 Y-64.025
G1 X42.775 Y-63.989
G1 X42.748 Y-63.921
G1 X42.775 Y-63.827
G1 X42.851 Y-63.710
G1 X42.972 Y-63.574
G1 X43.136 Y-63.421
G1 X43.336 Y-63.256
G1 X43.569 Y-63.080
G1 X43.831 Y-62.899
G1 X44.118 Y-62.714
G1 X44.425 Y-62.531
G1 X44.748 Y-62.351
G1 X45.072 Y-62.184
G1 X45.379 Y-62.038
G1 X45.665 Y-61.914
G1 X45.928 Y-61.814
G1 X46.161 Y-61.739
G1 X46.361 Y-61.690
G1 X46.524 Y-61.669
G1 X46.646 Y-61.676
G1 X46.722 Y-61.713
G1 X46.748 Y-61.781
G1 X46.722 Y-61.874
G1 X46.646 Y-61.991
G0 Z5.00
G0 X32.732 Y15.701
G1 Z-1.000 F1000
G1 X33.105 Y15.761
G1 X33.495 Y15.843
G1 X33.895 Y15.943
G1 X34.295 Y16.060
G1 X34.690 Y16.191
G1 X35.070 Y16.334
G1 X35.429 Y16.488
G1 X35.758 Y16.649
G1 X36.121 Y16.830
G1 X36.457 Y16.971
G1 X36.768 Y17.072
G1 X37.054 Y17.132
G1 X37.315 Y17.152
G1 X37.550 Y17.132
G1 X37.762 Y17.072
G1 X37.948 Y16.971
G1 X38.110 Y16.830
G1 X38.248 Y16.649
G1 X38.377 Y16.488
G1 X38.555 Y16.337
G1 X38.777 Y16.196
G1 X39.036 Y16.069
G1 X39.327 Y15.957
G1 X39.644 Y15.862
G1 X39.982 Y15.787
G1 X40.334 Y15.734
G1 X40.695 Y15.704
G1 X41.058 Y15.699
G1 X41.277 Y15.704
G1 X41.496 Y15.709
G1 X41.715 Y15.714
G1 X41.934 Y15.719
G1 X42.153 Y15.724
G1 X42.372 Y15.729
G1 X42.591 Y15.734
G1 X42.810 Y15.739
G1 X43.029 Y15.744
G1 X43.248 Y15.749
G1 X43.023 Y15.906
G1 X42.798 Y16.063
G1 X42.573 Y16.220
G1 X42.348 Y16.377
G1 X42.123 Y16.534
G1 X41.898 Y16.691
G1 X41.673 Y16.848
G1 X41.448 Y17.005
G1 X41.223 Y17.162
G1 X40.998 Y17.319
G1 X40.634 Y17.600
G1 X40.288 Y17.913
G1 X39.966 Y18.254
G1 X39.671 Y18.613
G1 X39.408 Y18.984
G1 X39.183 Y19.361
G1 X39.000 Y19.734
G1 X38.863 Y20.099
G1 X38.778 Y20.446
G1 X38.748 Y20.769
G1 X38.735 Y21.072
G1 X38.697 Y21.360
G1 X38.636 Y21.630
G1 X38.555 Y21.876
G1 X38.455 Y22.096
G1 X38.338 Y22.284
G1 X38.207 Y22.438
G1 X38.064 Y22.553
G1 X37.910 Y22.625
G1 X37.748 Y22.649
G1 X37.587 Y22.630
G1 X37.433 Y22.572
G1 X37.290 Y22.480
G1 X37.159 Y22.357
G1 X37.042 Y22.206
G1 X36.942 Y22.030
G1 X36.860 Y21.832
G1 X36.800 Y21.615
G1 X36.762 Y21.383
G1 X36.748 Y21.139
G1 X36.706 Y20.867
G1 X36.582 Y20.558
G1 X36.385 Y20.219
G1 X36.120 Y19.858
G1 X35.795 Y19.483
G1 X35.416 Y19.100
G1 X34.990 Y18.717
G1 X34.524 Y18.341
G1 X34.024 Y17.980
G1 X33.498 Y17.639
G1 X32.870 Y17.246
G1 X32.351 Y16.900
G1 X31.942 Y16.598
G1 X31.641 Y16.341
G1 X31.448 Y16.127
G1 X31.362 Y15.954
G1 X31.382 Y15.821
G1 X31.507 Y15.727
G1 X31.736 Y15.670
G1 X32.068 Y15.649
G1 X32.384 Y15.663
G1 X32.732 Y15.701
G0 Z5.00
G0 X110.361 Y-13.920
G1 Z-1.000 F1000
G1 X111.520 Y-12.872
G1 X112.763 Y-11.579
G1 X114.069 Y-10.065
G1 X115.415 Y-8.354
G1 X116.780 Y-6.470
G1 X118.142 Y-4.437
G1 X119.478 Y-2.281
G1 X120.274 Y-0.956
G1 X120.936 Y0.109
G1 X121.481 Y0.929
G1 X121.925 Y1.517
G1 X122.283 Y1.886
G1 X122.572 Y2.048
G1 X122.807 Y2.018
G1 X123.004 Y1.807
G1 X123.180 Y1.430
G1 X123.348 Y0.899
G1 X123.474 Y0.535
G1 X123.636 Y0.189
G1 X123.831 Y-0.133
G1 X124.053 Y-0.428
G1 X124.297 Y-0.691
G1 X124.559 Y-0.916
G1 X124.835 Y-1.099
G1 X125.118 Y-1.236
G1 X125.404 Y-1.321
G1 X125.688 Y-1.351
G1 X126.366 Y-1.259
G1 X127.078 Y-0.977
G1 X127.836 Y-0.493
G1 X128.647 Y0.201
G1 X129.521 Y1.118
G1 X130.468 Y2.267
G1 X131.497 Y3.660
G1 X132.617 Y5.305
G1 X133.838 Y7.215
G1 X135.168 Y9.399
G1 X135.775 Y10.410
G1 X136.360 Y11.370
G1 X136.913 Y12.266
G1 X137.428 Y13.086
G1 X137.896 Y13.814
G1 X138.308 Y14.440
G1 X138.655 Y14.950
G1 X138.930 Y15.330
G1 X139.124 Y15.567
G1 X139.228 Y15.649
G1 X139.274 Y15.572
G1 X139.304 Y15.347
G1 X139.319 Y14.987
G1 X139.319 Y14.505
G1 X139.303 Y13.913
G1 X139.274 Y13.224
G1 X139.230 Y12.449
G1 X139.173 Y11.602
G1 X139.102 Y10.695
G1 X139.018 Y9.739
G1 X138.879 Y7.818
G1 X138.821 Y6.040
G1 X138.840 Y4.420
G1 X138.935 Y2.972
G1 X139.103 Y1.708
G1 X139.342 Y0.644
G1 X139.650 Y-0.208
G1 X140.023 Y-0.834
G1 X140.460 Y-1.219
G1 X140.958 Y-1.351
G1 X141.186 Y-1.315
G1 X141.474 Y-1.213
G1 X141.814 Y-1.049
G1 X142.197 Y-0.830
G1 X142.616 Y-0.561
G1 X143.062 Y-0.247
G1 X143.526 Y0.106
G1 X144.001 Y0.491
G1 X144.478 Y0.904
G1 X144.948 Y1.339
G1 X145.695 Y2.053
G1 X146.296 Y2.611
G1 X146.766 Y3.017
G1 X147.122 Y3.273
G1 X147.380 Y3.382
G1 X147.555 Y3.346
G1 X147.663 Y3.168
G1 X147.721 Y2.851
G1 X147.744 Y2.397
G1 X147.748 Y1.809
G1 X147.770 Y1.442
G1 X147.833 Y1.077
G1 X147.933 Y0.720
G1 X148.067 Y0.376
G1 X148.232 Y0.053
G1 X148.424 Y-0.244
G1 X148.641 Y-0.509
G1 X148.877 Y-0.736
G1 X149.131 Y-0.918
G1 X149.398 Y-1.051
G1 X150.071 Y-1.121
G1 X150.874 Y-0.878
G1 X151.795 Y-0.336
G1 X152.822 Y0.493
G1 X153.941 Y1.593
G1 X155.140 Y2.953
G1 X156.406 Y4.557
G1 X157.726 Y6.394
G1 X159.088 Y8.449
G1 X160.478 Y10.709
G1 X160.802 Y11.253
G1 X161.126 Y11.797
G1 X161.450 Y12.341
G1 X161.774 Y12.885
G1 X162.098 Y13.429
G1 X162.422 Y13.973
G1 X162.746 Y14.517
G1 X163.070 Y15.061
G1 X163.394 Y15.605
G1 X163.718 Y16.149
G1 X163.660 Y15.449
G1 X163.602 Y14.749
G1 X163.544 Y14.049
G1 X163.486 Y13.349
G1 X163.428 Y12.649
G1 X163.370 Y11.949
G1 X163.312 Y11.249
G1 X163.254 Y10.549
G1 X163.196 Y9.849
G1 X163.138 Y9.149
G1 X162.999 Y6.809
G1 X162.987 Y4.772
G1 X163.103 Y3.041
G1 X163.348 Y1.616
G1 X163.720 Y0.497
G1 X164.219 Y-0.316
G1 X164.846 Y-0.821
G1 X165.600 Y-1.019
G1 X166.481 Y-0.909
G1 X167.488 Y-0.491
G1 X168.289 Y0.056
G1 X169.144 Y0.843
G1 X170.014 Y1.812
G1 X170.865 Y2.907
G1 X171.660 Y4.069
G1 X172.361 Y5.243
G1 X172.932 Y6.370
G1 X173.336 Y7.393
G1 X173.537 Y8.255
G1 X173.498 Y8.899
G1 X173.413 Y9.082
G1 X173.301 Y9.191
G1 X173.167 Y9.229
G1 X173.012 Y9.198
G1 X172.838 Y9.099
G1 X172.650 Y8.935
G1 X172.448 Y8.706
G1 X172.235 Y8.414
G1 X172.014 Y8.061
G1 X171.788 Y7.649
G1 X171.246 Y6.683
G1 X170.618 Y5.704
G1 X169.930 Y4.739
G1 X169.206 Y3.816
G1 X168.470 Y2.961
G1 X167.746 Y2.200
G1 X167.058 Y1.562
G1 X166.432 Y1.073
G1 X165.890 Y0.760
G1 X165.458 Y0.649
G1 X165.308 Y0.758
G1 X165.175 Y1.073
G1 X165.062 Y1.581
G1 X164.968 Y2.266
G1 X164.896 Y3.116
G1 X164.846 Y4.114
G1 X164.819 Y5.247
G1 X164.816 Y6.500
G1 X164.839 Y7.859
G1 X164.888 Y9.309
G1 X164.943 Y10.885
G1 X164.968 Y12.326
G1 X164.966 Y13.627
G1 X164.935 Y14.781
G1 X164.877 Y15.784
G1 X164.793 Y16.630
G1 X164.682 Y17.314
G1 X164.546 Y17.828
G1 X164.384 Y18.169
G1 X164.198 Y18.329
G1 X163.966 Y18.282
G1 X163.626 Y18.035
G1 X163.190 Y17.605
G1 X162.670 Y17.008
G1 X162.078 Y16.259
G1 X161.426 Y15.375
G1 X160.726 Y14.371
G1 X159.990 Y13.264
G1 X159.230 Y12.068
G1 X158.458 Y10.799
G1 X157.681 Y9.508
G1 X156.905 Y8.250
G1 X156.143 Y7.044
G1 X155.409 Y5.911
G1 X154.715 Y4.868
G1 X154.074 Y3.936
G1 X153.499 Y3.132
G1 X153.002 Y2.478
G1 X152.598 Y1.990
G1 X152.298 Y1.689
G1 X151.610 Y1.198
G1 X150.999 Y0.925
G1 X150.470 Y0.865
G1 X150.026 Y1.014
G1 X149.672 Y1.364
G1 X149.411 Y1.912
G1 X149.247 Y2.651
G1 X149.185 Y3.575
G1 X149.227 Y4.680
G1 X149.378 Y5.959
G1 X149.550 Y7.181
G1 X149.646 Y8.116
G1 X149.646 Y8.757
G1 X149.532 Y9.097
G1 X149.285 Y9.128
G1 X148.885 Y8.844
G1 X148.315 Y8.236
G1 X147.554 Y7.298
G1 X146.585 Y6.021
G1 X145.388 Y4.399
G1 X144.934 Y3.794
G1 X144.480 Y3.218
G1 X144.036 Y2.681
G1 X143.608 Y2.190
G1 X143.205 Y1.752
G1 X142.832 Y1.376
G1 X142.499 Y1.070
G1 X142.212 Y0.842
G1 X141.980 Y0.699
G1 X141.808 Y0.649
G1 X141.365 Y0.750
G1 X140.982 Y1.044
G1 X140.663 Y1.525
G1 X140.408 Y2.183
G1 X140.220 Y3.008
G1 X140.098 Y3.993
G1 X140.046 Y5.129
G1 X140.064 Y6.406
G1 X140.155 Y7.816
G1 X140.318 Y9.349
G1 X140.477 Y10.540
G1 X140.640 Y11.548
G1 X140.814 Y12.386
G1 X141.004 Y13.068
G1 X141.218 Y13.608
G1 X141.462 Y14.019
G1 X141.743 Y14.315
G1 X142.067 Y14.510
G1 X142.440 Y14.617
G1 X142.868 Y14.649
G1 X143.234 Y14.671
G1 X143.558 Y14.735
G1 X143.841 Y14.842
G1 X144.083 Y14.995
G1 X144.285 Y15.193
G1 X144.447 Y15.438
G1 X144.571 Y15.730
G1 X144.658 Y16.070
G1 X144.706 Y16.460
G1 X144.718 Y16.899
G1 X144.708 Y17.475
G1 X144.689 Y17.926
G1 X144.657 Y18.254
G1 X144.607 Y18.460
G1 X144.531 Y18.546
G1 X144.425 Y18.513
G1 X144.282 Y18.363
G1 X144.097 Y18.098
G1 X143.865 Y17.720
G1 X143.578 Y17.229
G1 X143.282 Y16.727
G1 X143.033 Y16.336
G1 X142.818 Y16.056
G1 X142.622 Y15.887
G1 X142.432 Y15.828
G1 X142.235 Y15.879
G1 X142.016 Y16.040
G1 X141.763 Y16.311
G1 X141.462 Y16.691
G1 X141.098 Y17.179
G1 X140.609 Y17.797
G1 X140.151 Y18.200
G1 X139.685 Y18.350
G1 X139.172 Y18.207
G1 X138.573 Y17.733
G1 X137.848 Y16.888
G1 X136.958 Y15.632
G1 X135.862 Y13.927
G1 X134.522 Y11.732
G1 X132.898 Y9.009
G1 X132.079 Y7.663
G1 X131.273 Y6.403
G1 X130.487 Y5.241
G1 X129.732 Y4.188
G1 X129.016 Y3.256
G1 X128.349 Y2.456
G1 X127.739 Y1.800
G1 X127.197 Y1.299
G1 X126.730 Y0.965
G1 X126.348 Y0.809
G1 X125.882 Y0.736
G1 X125.505 Y0.725
G1 X125.212 Y0.795
G1 X124.998 Y0.964
G1 X124.858 Y1.249
G1 X124.787 Y1.669
G1 X124.778 Y2.241
G1 X124.827 Y2.983
G1 X124.929 Y3.913
G1 X125.078 Y5.049
G1 X125.171 Y5.793
G1 X125.238 Y6.499
G1 X125.281 Y7.159
G1 X125.300 Y7.762
G1 X125.295 Y8.298
G1 X125.266 Y8.759
G1 X125.213 Y9.134
G1 X125.138 Y9.414
G1 X125.039 Y9.589
G1 X124.918 Y9.649
G1 X124.729 Y9.541
G1 X124.432 Y9.227
G1 X124.038 Y8.725
G1 X123.559 Y8.053
G1 X123.006 Y7.227
G1 X122.390 Y6.265
G1 X121.722 Y5.184
G1 X121.013 Y4.001
G1 X120.275 Y2.734
G1 X119.518 Y1.399
G1 X118.728 Y0.013
G1 X117.886 Y-1.407
G1 X117.011 Y-2.833
G1 X116.118 Y-4.240
G1 X115.226 Y-5.603
G1 X114.351 Y-6.896
G1 X113.511 Y-8.092
G1 X112.722 Y-9.168
G1 X112.002 Y-10.096
G1 X111.368 Y-10.851
G1 X110.544 Y-11.763
G1 X109.837 Y-12.509
G1 X109.235 Y-13.095
G1 X108.723 Y-13.529
G1 X108.288 Y-13.818
G1 X107.917 Y-13.970
G1 X107.597 Y-13.991
G1 X107.312 Y-13.890
G1 X107.051 Y-13.674
G1 X106.798 Y-13.351
G1 X106.220 Y-11.898
G1 X105.872 Y-9.637
G1 X105.750 Y-6.627
G1 X105.848 Y-2.927
G1 X106.161 Y1.404
G1 X106.683 Y6.308
G1 X107.410 Y11.726
G1 X108.334 Y17.598
G1 X109.453 Y23.865
G1 X110.758 Y30.469
G1 X111.390 Y33.607
G1 X111.876 Y36.225
G1 X112.215 Y38.340
G1 X112.406 Y39.965
G1 X112.450 Y41.117
G1 X112.345 Y41.809
G1 X112.090 Y42.058
G1 X111.687 Y41.877
G1 X111.133 Y41.283
G1 X110.428 Y40.289
G1 X110.160 Y39.863
G1 X109.928 Y39.458
G1 X109.733 Y39.080
G1 X109.576 Y38.734
G1 X109.461 Y38.426
G1 X109.388 Y38.161
G1 X109.360 Y37.946
G1 X109.377 Y37.785
G1 X109.443 Y37.684
G1 X109.558 Y37.649
G1 X109.667 Y37.495
G1 X109.711 Y37.048
G1 X109.695 Y36.332
G1 X109.622 Y35.374
G1 X109.493 Y34.197
G1 X109.314 Y32.826
G1 X109.085 Y31.286
G1 X108.811 Y29.602
G1 X108.495 Y27.798
G1 X108.138 Y25.899
G1 X107.212 Y20.840
G1 X106.389 Y15.789
G1 X105.678 Y10.844
G1 X105.088 Y6.102
G1 X104.628 Y1.662
G1 X104.308 Y-2.379
G1 X104.136 Y-5.924
G1 X104.121 Y-8.874
G1 X104.272 Y-11.132
G1 X104.598 Y-12.601
G1 X104.812 Y-13.079
G1 X105.054 Y-13.520
G1 X105.322 Y-13.922
G1 X105.612 Y-14.281
G1 X105.920 Y-14.594
G1 X106.242 Y-14.858
G1 X106.576 Y-15.068
G1 X106.917 Y-15.223
G1 X107.262 Y-15.318
G1 X107.608 Y-15.351
G1 X108.384 Y-15.184
G1 X109.308 Y-14.699
G1 X110.361 Y-13.920
G0 Z5.00
G0 X154.343 Y-32.071
G1 Z-1.000 F1000
G1 X154.710 Y-31.599
G1 X155.018 Y-31.162
G1 X155.263 Y-30.767
G1 X155.439 Y-30.422
G1 X155.540 Y-30.135
G1 X155.562 Y-29.916
G1 X155.498 Y-29.771
G1 X155.153 Y-29.708
G1 X154.609 Y-29.945
G1 X153.921 Y-30.424
G1 X153.146 Y-31.087
G1 X152.338 Y-31.877
G1 X151.554 Y-32.737
G1 X150.847 Y-33.610
G1 X150.273 Y-34.438
G1 X149.889 Y-35.164
G1 X149.748 Y-35.731
G1 X149.790 Y-35.862
G1 X149.912 Y-35.906
G1 X150.107 Y-35.865
G1 X150.368 Y-35.746
G1 X150.688 Y-35.552
G1 X151.062 Y-35.287
G1 X151.481 Y-34.956
G1 X151.940 Y-34.564
G1 X152.431 Y-34.114
G1 X152.948 Y-33.611
G1 X153.457 Y-33.085
G1 X153.924 Y-32.569
G1 X154.343 Y-32.071
G0 Z5.00
G0 X140.954 Y-41.278
G1 Z-1.000 F1000
G1 X141.330 Y-41.219
G1 X141.712 Y-41.142
G1 X142.092 Y-41.048
G1 X142.464 Y-40.939
G1 X142.820 Y-40.817
G1 X143.152 Y-40.683
G1 X143.454 Y-40.541
G1 X143.718 Y-40.391
G1 X143.996 Y-40.235
G1 X144.278 Y-40.116
G1 X144.560 Y-40.034
G1 X144.842 Y-39.988
G1 X145.121 Y-39.979
G1 X145.396 Y-40.008
G1 X145.665 Y-40.073
G1 X145.926 Y-40.175
G1 X146.178 Y-40.314
G1 X146.418 Y-40.491
G1 X146.642 Y-40.649
G1 X146.900 Y-40.788
G1 X147.186 Y-40.905
G1 X147.494 Y-41.001
G1 X147.817 Y-41.073
G1 X148.150 Y-41.121
G1 X148.486 Y-41.142
G1 X148.818 Y-41.137
G1 X149.141 Y-41.103
G1 X149.448 Y-41.041
G1 X149.868 Y-40.922
G1 X150.189 Y-40.815
G1 X150.410 Y-40.715
G1 X150.528 Y-40.618
G1 X150.543 Y-40.519
G1 X150.453 Y-40.414
G1 X150.255 Y-40.298
G1 X149.948 Y-40.167
G1 X149.529 Y-40.016
G1 X148.998 Y-39.841
G1 X148.571 Y-39.680
G1 X148.188 Y-39.485
G1 X147.851 Y-39.258
G1 X147.558 Y-38.996
G1 X147.311 Y-38.702
G1 X147.108 Y-38.374
G1 X146.951 Y-38.013
G1 X146.838 Y-37.618
G1 X146.771 Y-37.191
G1 X146.748 Y-36.731
G1 X146.735 Y-36.346
G1 X146.697 Y-35.980
G1 X146.636 Y-35.639
G1 X146.555 Y-35.327
G1 X146.455 Y-35.049
G1 X146.338 Y-34.811
G1 X146.207 Y-34.617
G1 X146.064 Y-34.472
G1 X145.910 Y-34.382
G1 X145.748 Y-34.351
G1 X145.587 Y-34.370
G1 X145.433 Y-34.428
G1 X145.290 Y-34.520
G1 X145.159 Y-34.643
G1 X145.042 Y-34.794
G1 X144.942 Y-34.970
G1 X144.860 Y-35.168
G1 X144.800 Y-35.385
G1 X144.762 Y-35.617
G1 X144.748 Y-35.861
G1 X144.706 Y-36.133
G1 X144.582 Y-36.442
G1 X144.385 Y-36.781
G1 X144.120 Y-37.142
G1 X143.795 Y-37.517
G1 X143.416 Y-37.900
G1 X142.990 Y-38.283
G1 X142.524 Y-38.659
G1 X142.024 Y-39.020
G1 X141.498 Y-39.361
G1 X140.799 Y-39.795
G1 X140.235 Y-40.165
G1 X139.803 Y-40.476
G1 X139.500 Y-40.731
G1 X139.325 Y-40.934
G1 X139.273 Y-41.091
G1 X139.342 Y-41.204
G1 X139.530 Y-41.279
G1 X139.833 Y-41.320
G1 X140.248 Y-41.331
G1 X140.591 Y-41.316
G1 X140.954 Y-41.278
G0 Z5.00
G0 X126.614 Y-55.280
G1 Z-1.000 F1000
G1 X127.262 Y-54.117
G1 X127.901 Y-52.982
G1 X128.520 Y-51.896
G1 X129.108 Y-50.882
G1 X129.652 Y-49.960
G1 X130.139 Y-49.153
G1 X130.558 Y-48.481
G1 X130.789 Y-48.118
G1 X131.020 Y-47.755
G1 X131.251 Y-47.392
G1 X131.482 Y-47.029
G1 X131.713 Y-46.666
G1 X131.944 Y-46.303
G1 X132.175 Y-45.940
G1 X132.406 Y-45.577
G1 X132.637 Y-45.214
G1 X132.868 Y-44.851
G1 X132.808 Y-45.378
G1 X132.748 Y-45.905
G1 X132.688 Y-46.432
G1 X132.628 Y-46.959
G1 X132.568 Y-47.486
G1 X132.508 Y-48.013
G1 X132.448 Y-48.540
G1 X132.388 Y-49.067
G1 X132.328 Y-49.594
G1 X132.268 Y-50.121
G1 X132.142 Y-51.333
G1 X132.059 Y-52.361
G1 X132.023 Y-53.222
G1 X132.038 Y-53.933
G1 X132.106 Y-54.512
G1 X132.231 Y-54.976
G1 X132.416 Y-55.342
G1 X132.666 Y-55.628
G1 X132.982 Y-55.852
G1 X133.368 Y-56.031
G1 X133.699 Y-56.128
G1 X134.037 Y-56.168
G1 X134.381 Y-56.152
G1 X134.729 Y-56.080
G1 X135.080 Y-55.952
G1 X135.432 Y-55.769
G1 X135.784 Y-55.532
G1 X136.135 Y-55.241
G1 X136.484 Y-54.897
G1 X136.828 Y-54.501
G1 X137.139 Y-54.138
G1 X137.443 Y-53.826
G1 X137.738 Y-53.566
G1 X138.019 Y-53.359
G1 X138.285 Y-53.207
G1 X138.530 Y-53.112
G1 X138.751 Y-53.075
G1 X138.946 Y-53.098
G1 X139.109 Y-53.183
G1 X139.238 Y-53.331
G1 X139.626 Y-53.789
G1 X140.121 Y-54.107
G1 X140.701 Y-54.288
G1 X141.341 Y-54.336
G1 X142.021 Y-54.257
G1 X142.717 Y-54.054
G1 X143.406 Y-53.733
G1 X144.066 Y-53.297
G1 X144.675 Y-52.751
G1 X145.208 Y-52.101
G1 X145.563 Y-51.657
G1 X145.992 Y-51.239
G1 X146.497 Y-50.846
G1 X147.079 Y-50.477
G1 X147.740 Y-50.132
G1 X148.479 Y-49.810
G1 X149.300 Y-49.510
G1 X150.202 Y-49.232
G1 X151.188 Y-48.976
G1 X152.258 Y-48.741
G1 X152.805 Y-48.630
G1 X153.352 Y-48.519
G1 X153.899 Y-48.408
G1 X154.446 Y-48.297
G1 X154.993 Y-48.186
G1 X155.540 Y-48.075
G1 X156.087 Y-47.964
G1 X156.634 Y-47.853
G1 X157.181 Y-47.742
G1 X157.728 Y-47.631
G1 X157.665 Y-48.167
G1 X157.602 Y-48.703
G1 X157.539 Y-49.239
G1 X157.476 Y-49.775
G1 X157.413 Y-50.311
G1 X157.350 Y-50.847
G1 X157.287 Y-51.383
G1 X157.224 Y-51.919
G1 X157.161 Y-52.455
G1 X157.098 Y-52.991
G1 X156.949 Y-54.339
G1 X156.847 Y-55.441
G1 X156.798 Y-56.322
G1 X156.810 Y-57.007
G1 X156.888 Y-57.519
G1 X157.040 Y-57.884
G1 X157.271 Y-58.125
G1 X157.589 Y-58.266
G1 X157.999 Y-58.334
G1 X158.508 Y-58.351
G1 X159.096 Y-58.299
G1 X159.698 Y-58.115
G1 X160.358 Y-57.756
G1 X161.120 Y-57.179
G1 X162.027 Y-56.342
G1 X163.122 Y-55.201
G1 X164.449 Y-53.715
G1 X166.050 Y-51.839
G1 X167.968 Y-49.532
G1 X170.248 Y-46.751
G1 X170.648 Y-46.261
G1 X171.048 Y-45.771
G1 X171.448 Y-45.281
G1 X171.848 Y-44.791
G1 X172.248 Y-44.301
G1 X172.648 Y-43.811
G1 X173.048 Y-43.321
G1 X173.448 Y-42.831
G1 X173.848 Y-42.341
G1 X174.236 Y-41.866
G1 X174.028 Y-41.866
G1 X172.944 Y-42.371
G1 X171.606 Y-43.389
G1 X169.995 Y-44.924
G1 X168.092 Y-46.983
G1 X165.878 Y-49.571
G1 X164.831 Y-50.811
G1 X163.817 Y-51.978
G1 X162.850 Y-53.056
G1 X161.948 Y-54.029
G1 X161.123 Y-54.883
G1 X160.393 Y-55.602
G1 X159.771 Y-56.171
G1 X159.273 Y-56.573
G1 X158.913 Y-56.795
G1 X158.708 Y-56.821
G1 X158.530 Y-56.585
G1 X158.431 Y-56.154
G1 X158.410 Y-55.542
G1 X158.463 Y-54.764
G1 X158.588 Y-53.834
G1 X158.783 Y-52.769
G1 X159.045 Y-51.583
G1 X159.372 Y-50.291
G1 X159.760 Y-48.909
G1 X160.208 Y-47.451
G1 X160.389 Y-46.861
G1 X160.512 Y-46.384
G1 X160.572 Y-46.011
G1 X160.560 Y-45.736
G1 X160.470 Y-45.552
G1 X160.295 Y-45.450
G1 X160.028 Y-45.425
G1 X159.663 Y-45.468
G1 X159.192 Y-45.572
G1 X158.608 Y-45.731
G1 X158.165 Y-45.847
G1 X157.625 Y-45.973
G1 X157.003 Y-46.106
G1 X156.313 Y-46.242
G1 X155.571 Y-46.381
G1 X154.791 Y-46.518
G1 X153.988 Y-46.651
G1 X153.177 Y-46.777
G1 X152.372 Y-46.895
G1 X151.588 Y-47.001
G1 X150.400 Y-47.149
G1 X149.428 Y-47.249
G1 X148.649 Y-47.289
G1 X148.038 Y-47.264
G1 X147.573 Y-47.163
G1 X147.230 Y-46.979
G1 X146.983 Y-46.703
G1 X146.810 Y-46.327
G1 X146.686 Y-45.842
G1 X146.588 Y-45.241
G1 X146.337 Y-44.097
G1 X145.960 Y-43.270
G1 X145.465 Y-42.756
G1 X144.861 Y-42.551
G1 X144.156 Y-42.654
G1 X143.358 Y-43.062
G1 X142.475 Y-43.771
G1 X141.515 Y-44.779
G1 X140.487 Y-46.083
G1 X139.398 Y-47.681
G1 X138.023 Y-49.786
G1 X136.865 Y-51.455
G1 X135.914 Y-52.692
G1 X135.159 Y-53.500
G1 X134.588 Y-53.884
G1 X134.192 Y-53.848
G1 X133.959 Y-53.396
G1 X133.878 Y-52.531
G1 X133.938 Y-51.258
G1 X134.128 Y-49.581
G1 X134.300 Y-47.889
G1 X134.339 Y-46.466
G1 X134.250 Y-45.317
G1 X134.038 Y-44.448
G1 X133.708 Y-43.866
G1 X133.266 Y-43.574
G1 X132.716 Y-43.580
G1 X132.062 Y-43.890
G1 X131.312 Y-44.508
G1 X130.468 Y-45.441
G1 X130.102 Y-45.934
G1 X129.653 Y-46.604
G1 X129.134 Y-47.427
G1 X128.557 Y-48.382
G1 X127.935 Y-49.449
G1 X127.279 Y-50.606
G1 X126.602 Y-51.831
G1 X125.916 Y-53.102
G1 X125.234 Y-54.399
G1 X124.568 Y-55.701
G1 X123.925 Y-56.965
G1 X123.302 Y-58.154
G1 X122.709 Y-59.253
G1 X122.155 Y-60.247
G1 X121.650 Y-61.119
G1 X121.202 Y-61.854
G1 X120.822 Y-62.437
G1 X120.519 Y-62.851
G1 X120.301 Y-63.080
G1 X120.178 Y-63.111
G1 X120.053 Y-62.516
G1 X120.085 Y-61.191
G1 X120.265 Y-59.198
G1 X120.582 Y-56.602
G1 X121.027 Y-53.467
G1 X121.591 Y-49.857
G1 X122.264 Y-45.836
G1 X123.036 Y-41.469
G1 X123.897 Y-36.819
G1 X124.838 Y-31.951
G1 X125.307 Y-29.536
G1 X125.738 Y-27.227
G1 X126.125 Y-25.058
G1 X126.465 Y-23.059
G1 X126.751 Y-21.264
G1 X126.979 Y-19.706
G1 X127.144 Y-18.415
G1 X127.240 Y-17.426
G1 X127.264 Y-16.770
G1 X127.208 Y-16.481
G1 X126.922 Y-16.322
G1 X126.610 Y-16.374
G1 X126.286 Y-16.611
G1 X125.963 Y-17.010
G1 X125.653 Y-17.543
G1 X125.370 Y-18.186
G1 X125.126 Y-18.914
G1 X124.934 Y-19.701
G1 X124.808 Y-20.521
G1 X124.758 Y-21.351
G1 X124.729 Y-21.894
G1 X124.649 Y-22.678
G1 X124.523 Y-23.674
G1 X124.355 Y-24.857
G1 X124.150 Y-26.199
G1 X123.911 Y-27.673
G1 X123.643 Y-29.251
G1 X123.351 Y-30.906
G1 X123.038 Y-32.612
G1 X122.708 Y-34.341
G1 X122.068 Y-37.499
G1 X121.448 Y-40.154
G1 X120.794 Y-42.392
G1 X120.050 Y-44.305
G1 X119.161 Y-45.981
G1 X118.072 Y-47.509
G1 X116.729 Y-48.978
G1 X115.075 Y-50.479
G1 X113.057 Y-52.100
G1 X110.618 Y-53.931
G1 X109.001 Y-55.081
G1 X107.592 Y-55.987
G1 X106.383 Y-56.651
G1 X105.364 Y-57.073
G1 X104.527 Y-57.253
G1 X103.863 Y-57.193
G1 X103.362 Y-56.893
G1 X103.015 Y-56.354
G1 X102.814 Y-55.576
G1 X102.748 Y-54.561
G1 X102.861 Y-53.423
G1 X103.175 Y-52.076
G1 X103.654 Y-50.592
G1 X104.263 Y-49.044
G1 X104.966 Y-47.506
G1 X105.727 Y-46.050
G1 X106.511 Y-44.751
G1 X107.281 Y-43.681
G1 X108.002 Y-42.913
G1 X108.638 Y-42.521
G1 X108.890 Y-42.454
G1 X109.100 Y-42.421
G1 X109.268 Y-42.421
G1 X109.393 Y-42.456
G1 X109.476 Y-42.523
G1 X109.516 Y-42.624
G1 X109.514 Y-42.757
G1 X109.468 Y-42.922
G1 X109.380 Y-43.121
G1 X109.248 Y-43.351
G1 X109.119 Y-43.580
G1 X109.031 Y-43.778
G1 X108.984 Y-43.942
G1 X108.978 Y-44.074
G1 X109.013 Y-44.173
G1 X109.089 Y-44.239
G1 X109.206 Y-44.272
G1 X109.363 Y-44.272
G1 X109.561 Y-44.238
G1 X109.798 Y-44.171
G1 X110.355 Y-43.928
G1 X110.804 Y-43.619
G1 X111.145 Y-43.260
G1 X111.374 Y-42.867
G1 X111.490 Y-42.457
G1 X111.489 Y-42.046
G1 X111.370 Y-41.650
G1 X111.130 Y-41.287
G1 X110.767 Y-40.971
G1 X110.278 Y-40.721
G1 X109.475 Y-40.585
G1 X108.614 Y-40.749
G1 X107.717 Y-41.190
G1 X106.803 Y-41.885
G1 X105.895 Y-42.809
G1 X105.012 Y-43.940
G1 X104.175 Y-45.253
G1 X103.405 Y-46.724
G1 X102.722 Y-48.332
G1 X102.148 Y-50.051
G1 X101.701 Y-51.747
G1 X101.389 Y-53.287
G1 X101.212 Y-54.666
G1 X101.169 Y-55.877
G1 X101.260 Y-56.917
G1 X101.482 Y-57.779
G1 X101.837 Y-58.459
G1 X102.321 Y-58.951
G1 X102.935 Y-59.250
G1 X103.678 Y-59.351
G1 X104.435 Y-59.235
G1 X105.400 Y-58.901
G1 X106.538 Y-58.372
G1 X107.815 Y-57.669
G1 X109.198 Y-56.814
G1 X110.654 Y-55.830
G1 X112.147 Y-54.737
G1 X113.645 Y-53.559
G1 X115.113 Y-52.316
G1 X116.518 Y-51.031
G1 X116.846 Y-50.719
G1 X117.174 Y-50.407
G1 X117.502 Y-50.095
G1 X117.830 Y-49.783
G1 X118.158 Y-49.471
G1 X118.486 Y-49.159
G1 X118.814 Y-48.847
G1 X119.142 Y-48.535
G1 X119.470 Y-48.223
G1 X119.798 Y-47.911
G1 X119.731 Y-48.783
G1 X119.664 Y-49.655
G1 X119.597 Y-50.527
G1 X119.530 Y-51.399
G1 X119.463 Y-52.271
G1 X119.396 Y-53.143
G1 X119.329 Y-54.015
G1 X119.262 Y-54.887
G1 X119.195 Y-55.759
G1 X119.128 Y-56.631
G1 X118.944 Y-59.615
G1 X118.906 Y-61.975
G1 X119.022 Y-63.715
G1 X119.299 Y-64.836
G1 X119.745 Y-65.341
G1 X120.365 Y-65.232
G1 X121.169 Y-64.514
G1 X122.162 Y-63.187
G1 X123.353 Y-61.255
G1 X124.748 Y-58.721
G1 X125.346 Y-57.603
G1 X125.972 Y-56.449
G1 X126.614 Y-55.280
G0 Z5.00
G0 X141.722 Y-52.264
G1 Z-1.000 F1000
G1 X141.336 Y-52.092
G1 X141.027 Y-51.795
G1 X140.823 Y-51.372
G1 X140.748 Y-50.821
G1 X140.823 Y-50.366
G1 X141.030 Y-49.918
G1 X141.344 Y-49.495
G1 X141.737 Y-49.112
G1 X142.185 Y-48.786
G1 X142.660 Y-48.532
G1 X143.137 Y-48.369
G1 X143.590 Y-48.311
G1 X143.992 Y-48.377
G1 X144.318 Y-48.581
G1 X144.387 Y-48.681
G1 X144.435 Y-48.818
G1 X144.465 Y-48.988
G1 X144.476 Y-49.185
G1 X144.468 Y-49.406
G1 X144.443 Y-49.645
G1 X144.400 Y-49.900
G1 X144.340 Y-50.166
G1 X144.262 Y-50.437
G1 X144.168 Y-50.711
G1 X143.878 Y-51.272
G1 X143.506 Y-51.714
G1 X143.077 Y-52.035
G1 X142.619 Y-52.234
G1 X142.158 Y-52.311
G1 X141.722 Y-52.264
G0 Z5.00
G0 X145.307 Y-45.656
G1 Z-1.000 F1000
G1 X145.376 Y-45.839
G1 X145.403 Y-46.013
G1 X145.388 Y-46.178
G1 X145.331 Y-46.334
G1 X145.232 Y-46.482
G1 X145.091 Y-46.620
G1 X144.908 Y-46.751
G1 X144.735 Y-46.839
G1 X144.553 Y-46.896
G1 X144.366 Y-46.921
G1 X144.178 Y-46.916
G1 X143.992 Y-46.882
G1 X143.812 Y-46.819
G1 X143.641 Y-46.729
G1 X143.482 Y-46.611
G1 X143.341 Y-46.468
G1 X143.218 Y-46.301
G1 X142.999 Y-45.857
G1 X142.900 Y-45.456
G1 X142.910 Y-45.110
G1 X143.013 Y-44.827
G1 X143.197 Y-44.618
G1 X143.448 Y-44.494
G1 X143.752 Y-44.465
G1 X144.096 Y-44.541
G1 X144.466 Y-44.733
G1 X144.848 Y-45.051
G1 X145.043 Y-45.262
G1 X145.196 Y-45.464
G1 X145.307 Y-45.656
G0 Z5.00
G0 X175.163 Y-52.322
G1 Z-1.000 F1000
G1 X175.334 Y-53.169
G1 X175.541 Y-53.823
G1 X175.794 Y-54.312
G1 X176.104 Y-54.664
G1 X176.482 Y-54.906
G1 X176.940 Y-55.065
G1 X177.488 Y-55.171
G1 X177.970 Y-55.191
G1 X178.492 Y-55.118
G1 X179.057 Y-54.951
G1 X179.670 Y-54.687
G1 X180.331 Y-54.326
G1 X181.044 Y-53.864
G1 X181.813 Y-53.302
G1 X182.640 Y-52.637
G1 X183.527 Y-51.867
G1 X184.478 Y-50.991
G1 X185.237 Y-50.255
G1 X185.939 Y-49.539
G1 X186.578 Y-48.852
G1 X187.144 Y-48.206
G1 X187.628 Y-47.612
G1 X188.023 Y-47.080
G1 X188.319 Y-46.622
G1 X188.508 Y-46.249
G1 X188.580 Y-45.972
G1 X188.528 Y-45.801
G1 X188.382 Y-45.728
G1 X188.174 Y-45.740
G1 X187.913 Y-45.831
G1 X187.605 Y-45.997
G1 X187.257 Y-46.232
G1 X186.877 Y-46.531
G1 X186.471 Y-46.888
G1 X186.046 Y-47.299
G1 X185.609 Y-47.758
G1 X185.168 Y-48.261
G1 X184.701 Y-48.791
G1 X184.184 Y-49.334
G1 X183.628 Y-49.877
G1 X183.046 Y-50.413
G1 X182.447 Y-50.931
G1 X181.845 Y-51.421
G1 X181.250 Y-51.873
G1 X180.675 Y-52.279
G1 X180.130 Y-52.628
G1 X179.628 Y-52.911
G1 X178.747 Y-53.365
G1 X178.045 Y-53.687
G1 X177.501 Y-53.838
G1 X177.093 Y-53.780
G1 X176.801 Y-53.473
G1 X176.603 Y-52.879
G1 X176.478 Y-51.958
G1 X176.405 Y-50.673
G1 X176.362 Y-48.983
G1 X176.328 Y-46.851
G1 X176.220 Y-44.869
G1 X175.956 Y-43.375
G1 X175.515 Y-42.373
G1 X174.879 Y-41.868
G1 X174.250 Y-41.866
G1 X174.298 Y-42.501
G1 X174.348 Y-43.151
G1 X174.398 Y-43.801
G1 X174.448 Y-44.451
G1 X174.498 Y-45.101
G1 X174.548 Y-45.751
G1 X174.598 Y-46.401
G1 X174.648 Y-47.051
G1 X174.698 Y-47.701
G1 X174.748 Y-48.351
G1 X174.881 Y-49.941
G1 X175.015 Y-51.255
G1 X175.163 Y-52.322
G0 Z5.00
G0 X175.557 Y-52.255
G1 Z-1.000 F1000
G1 X175.722 Y-53.069
G1 X175.912 Y-53.670
G1 X176.126 Y-54.085
G1 X176.367 Y-54.357
G1 X176.658 Y-54.544
G1 X177.044 Y-54.678
G1 X177.535 Y-54.772
G1 X177.950 Y-54.790
G1 X178.407 Y-54.726
G1 X178.921 Y-54.574
G1 X179.494 Y-54.327
G1 X180.126 Y-53.982
G1 X180.818 Y-53.535
G1 X181.570 Y-52.985
G1 X182.383 Y-52.330
G1 X183.261 Y-51.569
G1 X184.204 Y-50.700
G1 X184.954 Y-49.972
G1 X185.650 Y-49.263
G1 X186.281 Y-48.584
G1 X186.838 Y-47.948
G1 X187.313 Y-47.366
G1 X187.694 Y-46.852
G1 X187.971 Y-46.423
G1 X188.087 Y-46.194
G1 X188.075 Y-46.198
G1 X187.812 Y-46.340
G1 X187.493 Y-46.555
G1 X187.133 Y-46.838
G1 X186.742 Y-47.182
G1 X186.330 Y-47.581
G1 X185.905 Y-48.028
G1 X185.469 Y-48.524
G1 X185.002 Y-49.056
G1 X184.991 Y-49.068
G1 X184.474 Y-49.610
G1 X184.464 Y-49.620
G1 X183.908 Y-50.163
G1 X183.899 Y-50.172
G1 X183.316 Y-50.707
G1 X183.307 Y-50.715
G1 X182.709 Y-51.233
G1 X182.700 Y-51.241
G1 X182.097 Y-51.731
G1 X182.087 Y-51.739
G1 X181.493 Y-52.192
G1 X181.481 Y-52.200
G1 X180.905 Y-52.606
G1 X180.891 Y-52.616
G1 X180.346 Y-52.965
G1 X180.327 Y-52.977
G1 X179.825 Y-53.259
G1 X179.812 Y-53.266
G1 X178.930 Y-53.720
G1 X178.914 Y-53.728
G1 X178.212 Y-54.050
G1 X178.182 Y-54.062
G1 X178.152 Y-54.072
G1 X177.608 Y-54.223
G1 X177.567 Y-54.232
G1 X177.526 Y-54.237
G1 X177.485 Y-54.238
G1 X177.444 Y-54.234
G1 X177.036 Y-54.176
G1 X176.999 Y-54.169
G1 X176.962 Y-54.158
G1 X176.927 Y-54.144
G1 X176.893 Y-54.126
G1 X176.861 Y-54.106
G1 X176.831 Y-54.082
G1 X176.803 Y-54.056
G1 X176.511 Y-53.749
G1 X176.483 Y-53.715
G1 X176.458 Y-53.679
G1 X176.438 Y-53.640
G1 X176.421 Y-53.599
G1 X176.223 Y-53.005
G1 X176.213 Y-52.969
G1 X176.207 Y-52.933
G1 X176.082 Y-52.012
G1 X176.079 Y-51.981
G1 X176.005 Y-50.696
G1 X176.005 Y-50.683
G1 X175.962 Y-48.993
G1 X175.962 Y-48.989
G1 X175.929 Y-46.865
G1 X175.822 Y-44.915
G1 X175.570 Y-43.492
G1 X175.189 Y-42.625
G1 X174.739 Y-42.268
G1 X174.682 Y-42.267
G1 X174.697 Y-42.470
G1 X174.747 Y-43.120
G1 X174.797 Y-43.770
G1 X174.847 Y-44.420
G1 X174.947 Y-45.720
G1 X174.997 Y-46.370
G1 X175.047 Y-47.020
G1 X175.097 Y-47.670
G1 X175.147 Y-48.319
G1 X175.279 Y-49.904
G1 X175.412 Y-51.208
G1 X175.557 Y-52.255
G0 Z5.00
G0 X109.435 Y-43.853
G1 Z-1.000 F1000
G1 X109.472 Y-43.847
G1 X109.663 Y-43.793
G1 X110.160 Y-43.577
G1 X110.543 Y-43.313
G1 X110.823 Y-43.018
G1 X111.003 Y-42.709
G1 X111.090 Y-42.402
G1 X111.089 Y-42.105
G1 X111.004 Y-41.822
G1 X110.826 Y-41.553
G1 X110.541 Y-41.305
G1 X110.151 Y-41.105
G1 X109.479 Y-40.991
G1 X108.742 Y-41.132
G1 X107.928 Y-41.532
G1 X107.068 Y-42.186
G1 X106.196 Y-43.073
G1 X105.339 Y-44.171
G1 X104.521 Y-45.453
G1 X103.767 Y-46.896
G1 X103.097 Y-48.473
G1 X102.532 Y-50.165
G1 X102.090 Y-51.838
G1 X101.784 Y-53.352
G1 X101.611 Y-54.698
G1 X101.570 Y-55.867
G1 X101.655 Y-56.849
G1 X101.858 Y-57.635
G1 X102.164 Y-58.221
G1 X102.558 Y-58.621
G1 X103.053 Y-58.862
G1 X103.675 Y-58.946
G1 X104.339 Y-58.845
G1 X105.250 Y-58.530
G1 X106.357 Y-58.015
G1 X107.613 Y-57.323
G1 X108.981 Y-56.478
G1 X110.424 Y-55.503
G1 X111.905 Y-54.419
G1 X113.392 Y-53.249
G1 X114.849 Y-52.015
G1 X116.246 Y-50.738
G1 X116.899 Y-50.117
G1 X117.227 Y-49.805
G1 X117.883 Y-49.181
G1 X118.211 Y-48.869
G1 X118.539 Y-48.557
G1 X118.867 Y-48.245
G1 X119.523 Y-47.621
G1 X119.552 Y-47.596
G1 X119.583 Y-47.573
G1 X119.617 Y-47.554
G1 X119.652 Y-47.538
G1 X119.688 Y-47.526
G1 X119.726 Y-47.517
G1 X119.764 Y-47.512
G1 X119.802 Y-47.511
G1 X119.841 Y-47.513
G1 X119.879 Y-47.519
G1 X119.916 Y-47.528
G1 X119.952 Y-47.541
G1 X119.987 Y-47.558
G1 X120.020 Y-47.578
G1 X120.051 Y-47.601
G1 X120.080 Y-47.626
G1 X120.106 Y-47.655
G1 X120.129 Y-47.686
G1 X120.149 Y-47.718
G1 X120.166 Y-47.753
G1 X120.180 Y-47.789
G1 X120.189 Y-47.826
G1 X120.196 Y-47.864
G1 X120.198 Y-47.903
G1 X120.197 Y-47.941
G1 X120.063 Y-49.685
G1 X119.996 Y-50.557
G1 X119.728 Y-54.045
G1 X119.661 Y-54.917
G1 X119.527 Y-56.658
G1 X119.344 Y-59.630
G1 X119.307 Y-61.965
G1 X119.419 Y-63.653
G1 X119.664 Y-64.644
G1 X119.897 Y-64.908
G1 X120.184 Y-64.858
G1 X120.873 Y-64.242
G1 X121.831 Y-62.962
G1 X123.007 Y-61.054
G1 X124.397 Y-58.530
G1 X124.993 Y-57.414
G1 X124.994 Y-57.412
G1 X125.620 Y-56.258
G1 X125.621 Y-56.256
G1 X126.264 Y-55.087
G1 X126.265 Y-55.085
G1 X126.912 Y-53.922
G1 X126.913 Y-53.920
G1 X127.552 Y-52.785
G1 X127.554 Y-52.784
G1 X128.173 Y-51.698
G1 X128.174 Y-51.696
G1 X128.762 Y-50.682
G1 X128.764 Y-50.679
G1 X129.307 Y-49.757
G1 X129.309 Y-49.754
G1 X129.797 Y-48.946
G1 X129.800 Y-48.941
G1 X130.219 Y-48.269
G1 X130.221 Y-48.266
G1 X130.683 Y-47.540
G1 X130.914 Y-47.177
G1 X131.838 Y-45.725
G1 X132.069 Y-45.362
G1 X132.531 Y-44.636
G1 X132.554 Y-44.603
G1 X132.580 Y-44.573
G1 X132.609 Y-44.546
G1 X132.641 Y-44.522
G1 X132.674 Y-44.501
G1 X132.710 Y-44.483
G1 X132.747 Y-44.469
G1 X132.786 Y-44.459
G1 X132.825 Y-44.453
G1 X132.865 Y-44.451
G1 X132.905 Y-44.452
G1 X132.944 Y-44.458
G1 X132.983 Y-44.467
G1 X133.020 Y-44.481
G1 X133.056 Y-44.498
G1 X133.091 Y-44.518
G1 X133.123 Y-44.542
G1 X133.152 Y-44.568
G1 X133.179 Y-44.598
G1 X133.202 Y-44.630
G1 X133.222 Y-44.664
G1 X133.239 Y-44.701
G1 X133.252 Y-44.738
G1 X133.262 Y-44.777
G1 X133.267 Y-44.816
G1 X133.268 Y-44.856
G1 X133.266 Y-44.896
G1 X133.026 Y-47.004
G1 X132.966 Y-47.531
G1 X132.906 Y-48.058
G1 X132.666 Y-50.164
G1 X132.540 Y-51.370
G1 X132.459 Y-52.386
G1 X132.424 Y-53.227
G1 X132.437 Y-53.906
G1 X132.500 Y-54.436
G1 X132.606 Y-54.832
G1 X132.751 Y-55.117
G1 X132.936 Y-55.329
G1 X133.183 Y-55.504
G1 X133.509 Y-55.655
G1 X133.780 Y-55.735
G1 X134.052 Y-55.767
G1 X134.331 Y-55.754
G1 X134.619 Y-55.694
G1 X134.919 Y-55.585
G1 X135.228 Y-55.425
G1 X135.545 Y-55.211
G1 X135.867 Y-54.945
G1 X136.192 Y-54.624
G1 X136.525 Y-54.239
G1 X136.835 Y-53.878
G1 X136.852 Y-53.859
G1 X137.156 Y-53.547
G1 X137.178 Y-53.526
G1 X137.473 Y-53.266
G1 X137.501 Y-53.243
G1 X137.783 Y-53.036
G1 X137.821 Y-53.012
G1 X138.086 Y-52.860
G1 X138.112 Y-52.846
G1 X138.140 Y-52.834
G1 X138.385 Y-52.739
G1 X138.424 Y-52.726
G1 X138.464 Y-52.717
G1 X138.686 Y-52.680
G1 X138.723 Y-52.676
G1 X138.761 Y-52.675
G1 X138.799 Y-52.678
G1 X138.993 Y-52.701
G1 X139.028 Y-52.707
G1 X139.063 Y-52.716
G1 X139.097 Y-52.728
G1 X139.129 Y-52.743
G1 X139.293 Y-52.827
G1 X139.325 Y-52.846
G1 X139.356 Y-52.868
G1 X139.384 Y-52.892
G1 X139.410 Y-52.919
G1 X139.540 Y-53.067
G1 X139.544 Y-53.072
G1 X139.893 Y-53.485
G1 X140.292 Y-53.741
G1 X140.776 Y-53.892
G1 X141.333 Y-53.934
G1 X141.941 Y-53.863
G1 X142.575 Y-53.679
G1 X143.210 Y-53.383
G1 X143.821 Y-52.979
G1 X144.385 Y-52.474
G1 X144.898 Y-51.849
G1 X145.251 Y-51.407
G1 X145.284 Y-51.371
G1 X145.713 Y-50.953
G1 X145.747 Y-50.924
G1 X146.252 Y-50.531
G1 X146.283 Y-50.508
G1 X146.865 Y-50.139
G1 X146.894 Y-50.123
G1 X147.554 Y-49.777
G1 X147.580 Y-49.765
G1 X148.320 Y-49.443
G1 X148.342 Y-49.434
G1 X149.163 Y-49.134
G1 X149.182 Y-49.127
G1 X150.085 Y-48.850
G1 X150.102 Y-48.845
G1 X151.087 Y-48.589
G1 X151.102 Y-48.585
G1 X152.173 Y-48.350
G1 X152.179 Y-48.349
G1 X152.726 Y-48.238
G1 X153.273 Y-48.127
G1 X154.367 Y-47.905
G1 X154.914 Y-47.794
G1 X156.555 Y-47.461
G1 X157.102 Y-47.350
G1 X157.649 Y-47.239
G1 X157.688 Y-47.233
G1 X157.728 Y-47.231
G1 X157.767 Y-47.232
G1 X157.807 Y-47.238
G1 X157.845 Y-47.248
G1 X157.883 Y-47.262
G1 X157.919 Y-47.279
G1 X157.953 Y-47.299
G1 X157.984 Y-47.323
G1 X158.014 Y-47.350
G1 X158.040 Y-47.380
G1 X158.063 Y-47.412
G1 X158.083 Y-47.446
G1 X158.100 Y-47.482
G1 X158.113 Y-47.520
G1 X158.122 Y-47.559
G1 X158.127 Y-47.598
G1 X158.128 Y-47.638
G1 X158.126 Y-47.677
G1 X158.063 Y-48.213
G1 X158.000 Y-48.749
G1 X157.937 Y-49.285
G1 X157.874 Y-49.821
G1 X157.811 Y-50.357
G1 X157.748 Y-50.893
G1 X157.685 Y-51.429
G1 X157.622 Y-51.965
G1 X157.559 Y-52.501
G1 X157.496 Y-53.036
G1 X157.347 Y-54.379
G1 X157.246 Y-55.471
G1 X157.198 Y-56.330
G1 X157.209 Y-56.973
G1 X157.276 Y-57.411
G1 X157.381 Y-57.661
G1 X157.506 Y-57.791
G1 X157.705 Y-57.880
G1 X158.038 Y-57.935
G1 X158.497 Y-57.950
G1 X159.019 Y-57.904
G1 X159.542 Y-57.744
G1 X160.141 Y-57.419
G1 X160.863 Y-56.872
G1 X161.747 Y-56.056
G1 X162.829 Y-54.930
G1 X164.147 Y-53.452
G1 X165.744 Y-51.581
G1 X167.660 Y-49.277
G1 X169.939 Y-46.497
G1 X170.339 Y-46.008
G1 X170.739 Y-45.518
G1 X171.139 Y-45.028
G1 X171.539 Y-44.538
G1 X172.339 Y-43.558
G1 X172.739 Y-43.068
G1 X172.821 Y-42.967
G1 X171.866 Y-43.694
G1 X170.280 Y-45.205
G1 X168.391 Y-47.249
G1 X166.183 Y-49.830
G1 X165.137 Y-51.069
G1 X165.133 Y-51.073
G1 X164.118 Y-52.240
G1 X164.114 Y-52.245
G1 X163.148 Y-53.323
G1 X163.144 Y-53.328
G1 X162.241 Y-54.301
G1 X162.235 Y-54.307
G1 X161.411 Y-55.161
G1 X161.404 Y-55.168
G1 X160.673 Y-55.887
G1 X160.663 Y-55.897
G1 X160.041 Y-56.466
G1 X160.022 Y-56.482
G1 X159.524 Y-56.884
G1 X159.483 Y-56.914
G1 X159.124 Y-57.136
G1 X159.086 Y-57.156
G1 X159.046 Y-57.173
G1 X159.005 Y-57.185
G1 X158.963 Y-57.192
G1 X158.757 Y-57.218
G1 X158.720 Y-57.220
G1 X158.682 Y-57.220
G1 X158.644 Y-57.215
G1 X158.607 Y-57.207
G1 X158.570 Y-57.196
G1 X158.536 Y-57.181
G1 X158.502 Y-57.163
G1 X158.471 Y-57.142
G1 X158.441 Y-57.118
G1 X158.414 Y-57.091
G1 X158.390 Y-57.062
G1 X158.211 Y-56.827
G1 X158.188 Y-56.792
G1 X158.168 Y-56.755
G1 X158.152 Y-56.715
G1 X158.140 Y-56.675
G1 X158.042 Y-56.243
G1 X158.035 Y-56.206
G1 X158.032 Y-56.168
G1 X158.010 Y-55.556
G1 X158.011 Y-55.515
G1 X158.064 Y-54.736
G1 X158.067 Y-54.710
G1 X158.192 Y-53.781
G1 X158.195 Y-53.762
G1 X158.390 Y-52.697
G1 X158.393 Y-52.683
G1 X158.655 Y-51.497
G1 X158.657 Y-51.485
G1 X158.984 Y-50.193
G1 X158.987 Y-50.183
G1 X159.375 Y-48.801
G1 X159.378 Y-48.791
G1 X159.826 Y-47.333
G1 X160.004 Y-46.752
G1 X160.120 Y-46.302
G1 X160.170 Y-45.988
G1 X160.164 Y-45.840
G1 X160.032 Y-45.827
G1 X159.730 Y-45.863
G1 X159.288 Y-45.961
G1 X158.713 Y-46.117
G1 X158.710 Y-46.117
G1 X158.267 Y-46.234
G1 X158.256 Y-46.237
G1 X157.716 Y-46.363
G1 X157.708 Y-46.364
G1 X157.086 Y-46.497
G1 X157.080 Y-46.498
G1 X156.391 Y-46.635
G1 X156.386 Y-46.636
G1 X155.644 Y-46.774
G1 X155.640 Y-46.775
G1 X154.860 Y-46.911
G1 X154.856 Y-46.912
G1 X154.053 Y-47.045
G1 X154.050 Y-47.046
G1 X153.238 Y-47.172
G1 X153.235 Y-47.173
G1 X152.430 Y-47.291
G1 X152.425 Y-47.291
G1 X151.642 Y-47.397
G1 X151.638 Y-47.397
G1 X150.449 Y-47.546
G1 X150.440 Y-47.547
G1 X149.468 Y-47.646
G1 X149.449 Y-47.648
G1 X148.670 Y-47.689
G1 X148.632 Y-47.689
G1 X148.022 Y-47.663
G1 X147.988 Y-47.661
G1 X147.954 Y-47.655
G1 X147.489 Y-47.554
G1 X147.453 Y-47.544
G1 X147.418 Y-47.532
G1 X147.385 Y-47.516
G1 X147.041 Y-47.332
G1 X147.011 Y-47.314
G1 X146.982 Y-47.293
G1 X146.956 Y-47.271
G1 X146.931 Y-47.245
G1 X146.685 Y-46.970
G1 X146.660 Y-46.939
G1 X146.638 Y-46.906
G1 X146.620 Y-46.870
G1 X146.446 Y-46.494
G1 X146.433 Y-46.461
G1 X146.422 Y-46.426
G1 X146.299 Y-45.941
G1 X146.291 Y-45.906
G1 X146.195 Y-45.316
G1 X145.955 Y-44.225
G1 X145.624 Y-43.498
G1 X145.244 Y-43.103
G1 X144.824 Y-42.961
G1 X144.279 Y-43.041
G1 X143.576 Y-43.399
G1 X142.746 Y-44.066
G1 X141.818 Y-45.041
G1 X140.810 Y-46.320
G1 X139.731 Y-47.903
G1 X138.358 Y-50.005
G1 X138.352 Y-50.014
G1 X137.194 Y-51.683
G1 X137.182 Y-51.699
G1 X136.231 Y-52.936
G1 X136.206 Y-52.965
G1 X135.451 Y-53.773
G1 X135.418 Y-53.805
G1 X135.382 Y-53.832
G1 X134.812 Y-54.216
G1 X134.778 Y-54.236
G1 X134.743 Y-54.253
G1 X134.706 Y-54.266
G1 X134.669 Y-54.276
G1 X134.630 Y-54.282
G1 X134.591 Y-54.284
G1 X134.552 Y-54.283
G1 X134.156 Y-54.246
G1 X134.116 Y-54.241
G1 X134.077 Y-54.231
G1 X134.039 Y-54.218
G1 X134.003 Y-54.201
G1 X133.969 Y-54.180
G1 X133.936 Y-54.156
G1 X133.907 Y-54.129
G1 X133.880 Y-54.099
G1 X133.857 Y-54.066
G1 X133.837 Y-54.031
G1 X133.603 Y-53.579
G1 X133.587 Y-53.544
G1 X133.575 Y-53.508
G1 X133.566 Y-53.471
G1 X133.561 Y-53.433
G1 X133.480 Y-52.568
G1 X133.478 Y-52.512
G1 X133.538 Y-51.239
G1 X133.540 Y-51.213
G1 X133.731 Y-49.538
G1 X133.901 Y-47.863
G1 X133.939 Y-46.476
G1 X133.854 Y-45.380
G1 X133.663 Y-44.597
G1 X133.408 Y-44.147
G1 X133.148 Y-43.976
G1 X132.808 Y-43.979
G1 X132.278 Y-44.230
G1 X131.589 Y-44.798
G1 X130.778 Y-45.694
G1 X130.429 Y-46.165
G1 X129.989 Y-46.822
G1 X129.475 Y-47.637
G1 X128.901 Y-48.587
G1 X128.281 Y-49.649
G1 X127.628 Y-50.801
G1 X126.953 Y-52.022
G1 X126.269 Y-53.290
G1 X125.590 Y-54.584
G1 X124.925 Y-55.882
G1 X124.281 Y-57.146
G1 X124.279 Y-57.150
G1 X123.656 Y-58.340
G1 X123.654 Y-58.344
G1 X123.061 Y-59.443
G1 X123.058 Y-59.448
G1 X122.504 Y-60.442
G1 X122.501 Y-60.448
G1 X121.996 Y-61.320
G1 X121.991 Y-61.327
G1 X121.544 Y-62.062
G1 X121.537 Y-62.073
G1 X121.157 Y-62.655
G1 X121.145 Y-62.673
G1 X120.841 Y-63.087
G1 X120.809 Y-63.126
G1 X120.591 Y-63.356
G1 X120.564 Y-63.382
G1 X120.534 Y-63.406
G1 X120.502 Y-63.426
G1 X120.468 Y-63.444
G1 X120.433 Y-63.458
G1 X120.396 Y-63.469
G1 X120.274 Y-63.499
G1 X120.234 Y-63.507
G1 X120.194 Y-63.510
G1 X120.154 Y-63.510
G1 X120.115 Y-63.505
G1 X120.075 Y-63.497
G1 X120.037 Y-63.485
G1 X120.000 Y-63.469
G1 X119.966 Y-63.449
G1 X119.933 Y-63.426
G1 X119.902 Y-63.400
G1 X119.875 Y-63.371
G1 X119.850 Y-63.339
G1 X119.829 Y-63.305
G1 X119.811 Y-63.269
G1 X119.797 Y-63.232
G1 X119.787 Y-63.193
G1 X119.662 Y-62.599
G1 X119.655 Y-62.553
G1 X119.653 Y-62.507
G1 X119.685 Y-61.181
G1 X119.687 Y-61.155
G1 X119.866 Y-59.162
G1 X119.867 Y-59.149
G1 X120.185 Y-56.553
G1 X120.186 Y-56.546
G1 X120.631 Y-53.411
G1 X120.632 Y-53.405
G1 X121.196 Y-49.795
G1 X121.197 Y-49.791
G1 X121.869 Y-45.770
G1 X121.870 Y-45.766
G1 X122.642 Y-41.399
G1 X122.642 Y-41.396
G1 X123.504 Y-36.746
G1 X123.504 Y-36.743
G1 X124.446 Y-31.875
G1 X124.914 Y-29.461
G1 X125.344 Y-27.156
G1 X125.731 Y-24.989
G1 X126.070 Y-22.994
G1 X126.355 Y-21.204
G1 X126.583 Y-19.651
G1 X126.746 Y-18.371
G1 X126.841 Y-17.400
G1 X126.862 Y-16.801
G1 X126.850 Y-16.739
G1 X126.850 Y-16.739
G1 X126.770 Y-16.752
G1 X126.564 Y-16.903
G1 X126.293 Y-17.237
G1 X126.011 Y-17.725
G1 X125.744 Y-18.331
G1 X125.511 Y-19.025
G1 X125.327 Y-19.779
G1 X125.206 Y-20.564
G1 X125.158 Y-21.373
G1 X125.128 Y-21.916
G1 X125.127 Y-21.934
G1 X125.047 Y-22.718
G1 X125.046 Y-22.728
G1 X124.920 Y-23.725
G1 X124.919 Y-23.731
G1 X124.751 Y-24.914
G1 X124.750 Y-24.918
G1 X124.545 Y-26.260
G1 X124.545 Y-26.263
G1 X124.306 Y-27.737
G1 X124.305 Y-27.740
G1 X124.038 Y-29.318
G1 X124.037 Y-29.321
G1 X123.745 Y-30.976
G1 X123.744 Y-30.979
G1 X123.431 Y-32.684
G1 X123.431 Y-32.687
G1 X123.101 Y-34.415
G1 X123.100 Y-34.420
G1 X122.460 Y-37.579
G1 X122.458 Y-37.590
G1 X121.838 Y-40.245
G1 X121.832 Y-40.266
G1 X121.178 Y-42.505
G1 X121.167 Y-42.537
G1 X120.422 Y-44.450
G1 X120.403 Y-44.492
G1 X119.514 Y-46.168
G1 X119.487 Y-46.213
G1 X118.398 Y-47.741
G1 X118.368 Y-47.779
G1 X117.024 Y-49.248
G1 X116.998 Y-49.275
G1 X115.344 Y-50.775
G1 X115.326 Y-50.791
G1 X113.307 Y-52.412
G1 X113.297 Y-52.420
G1 X110.859 Y-54.250
G1 X110.850 Y-54.257
G1 X109.233 Y-55.407
G1 X109.217 Y-55.417
G1 X107.808 Y-56.324
G1 X107.784 Y-56.338
G1 X106.575 Y-57.002
G1 X106.536 Y-57.020
G1 X105.517 Y-57.442
G1 X105.483 Y-57.454
G1 X105.448 Y-57.464
G1 X104.611 Y-57.644
G1 X104.572 Y-57.651
G1 X104.531 Y-57.653
G1 X104.491 Y-57.651
G1 X103.827 Y-57.591
G1 X103.791 Y-57.586
G1 X103.756 Y-57.578
G1 X103.722 Y-57.567
G1 X103.689 Y-57.553
G1 X103.657 Y-57.536
G1 X103.156 Y-57.236
G1 X103.125 Y-57.216
G1 X103.097 Y-57.193
G1 X103.070 Y-57.167
G1 X103.046 Y-57.139
G1 X103.025 Y-57.109
G1 X102.678 Y-56.570
G1 X102.657 Y-56.533
G1 X102.640 Y-56.494
G1 X102.628 Y-56.454
G1 X102.426 Y-55.676
G1 X102.419 Y-55.639
G1 X102.414 Y-55.602
G1 X102.349 Y-54.586
G1 X102.348 Y-54.554
G1 X102.350 Y-54.521
G1 X102.463 Y-53.384
G1 X102.471 Y-53.332
G1 X102.785 Y-51.985
G1 X102.794 Y-51.953
G1 X103.273 Y-50.469
G1 X103.282 Y-50.445
G1 X103.891 Y-48.897
G1 X103.899 Y-48.878
G1 X104.602 Y-47.339
G1 X104.611 Y-47.320
G1 X105.373 Y-45.865
G1 X105.385 Y-45.844
G1 X106.168 Y-44.544
G1 X106.186 Y-44.517
G1 X106.956 Y-43.447
G1 X106.989 Y-43.407
G1 X107.711 Y-42.639
G1 X107.736 Y-42.614
G1 X107.763 Y-42.592
G1 X107.792 Y-42.572
G1 X108.429 Y-42.180
G1 X108.463 Y-42.161
G1 X108.499 Y-42.146
G1 X108.536 Y-42.134
G1 X108.788 Y-42.067
G1 X108.828 Y-42.058
G1 X109.038 Y-42.025
G1 X109.070 Y-42.022
G1 X109.102 Y-42.021
G1 X109.270 Y-42.021
G1 X109.305 Y-42.023
G1 X109.339 Y-42.028
G1 X109.373 Y-42.036
G1 X109.499 Y-42.070
G1 X109.538 Y-42.083
G1 X109.576 Y-42.100
G1 X109.612 Y-42.121
G1 X109.646 Y-42.146
G1 X109.729 Y-42.213
G1 X109.759 Y-42.240
G1 X109.786 Y-42.270
G1 X109.810 Y-42.303
G1 X109.830 Y-42.338
G1 X109.847 Y-42.375
G1 X109.887 Y-42.475
G1 X109.900 Y-42.513
G1 X109.910 Y-42.552
G1 X109.915 Y-42.591
G1 X109.916 Y-42.631
G1 X109.913 Y-42.764
G1 X109.911 Y-42.797
G1 X109.907 Y-42.830
G1 X109.899 Y-42.862
G1 X109.854 Y-43.028
G1 X109.845 Y-43.057
G1 X109.833 Y-43.085
G1 X109.745 Y-43.283
G1 X109.727 Y-43.319
G1 X109.596 Y-43.548
G1 X109.477 Y-43.760
G1 X109.435 Y-43.853
G0 Z5.00
G0 X145.654 Y-45.456
G1 Z-1.000 F1000
G1 X145.669 Y-45.485
G1 X145.682 Y-45.515
G1 X145.751 Y-45.698
G1 X145.763 Y-45.737
G1 X145.772 Y-45.778
G1 X145.799 Y-45.952
G1 X145.803 Y-46.000
G1 X145.802 Y-46.049
G1 X145.787 Y-46.214
G1 X145.782 Y-46.249
G1 X145.775 Y-46.282
G1 X145.764 Y-46.315
G1 X145.707 Y-46.471
G1 X145.688 Y-46.516
G1 X145.663 Y-46.557
G1 X145.564 Y-46.705
G1 X145.540 Y-46.737
G1 X145.513 Y-46.767
G1 X145.372 Y-46.905
G1 X145.348 Y-46.927
G1 X145.323 Y-46.946
G1 X145.140 Y-47.076
G1 X145.090 Y-47.107
G1 X144.917 Y-47.195
G1 X144.886 Y-47.210
G1 X144.854 Y-47.221
G1 X144.672 Y-47.278
G1 X144.640 Y-47.286
G1 X144.607 Y-47.292
G1 X144.420 Y-47.317
G1 X144.388 Y-47.321
G1 X144.356 Y-47.321
G1 X144.168 Y-47.316
G1 X144.136 Y-47.314
G1 X144.106 Y-47.310
G1 X143.920 Y-47.275
G1 X143.890 Y-47.268
G1 X143.860 Y-47.260
G1 X143.680 Y-47.197
G1 X143.652 Y-47.186
G1 X143.625 Y-47.173
G1 X143.454 Y-47.082
G1 X143.428 Y-47.067
G1 X143.403 Y-47.050
G1 X143.245 Y-46.933
G1 X143.221 Y-46.914
G1 X143.199 Y-46.893
G1 X143.057 Y-46.750
G1 X143.036 Y-46.728
G1 X143.017 Y-46.704
G1 X142.895 Y-46.536
G1 X142.876 Y-46.508
G1 X142.860 Y-46.478
G1 X142.640 Y-46.034
G1 X142.623 Y-45.994
G1 X142.610 Y-45.952
G1 X142.512 Y-45.552
G1 X142.505 Y-45.517
G1 X142.501 Y-45.481
G1 X142.500 Y-45.446
G1 X142.510 Y-45.099
G1 X142.513 Y-45.056
G1 X142.521 Y-45.013
G1 X142.534 Y-44.972
G1 X142.637 Y-44.689
G1 X142.652 Y-44.655
G1 X142.669 Y-44.622
G1 X142.690 Y-44.591
G1 X142.713 Y-44.562
G1 X142.897 Y-44.353
G1 X142.924 Y-44.326
G1 X142.954 Y-44.300
G1 X142.986 Y-44.278
G1 X143.020 Y-44.259
G1 X143.271 Y-44.135
G1 X143.304 Y-44.121
G1 X143.339 Y-44.109
G1 X143.374 Y-44.101
G1 X143.410 Y-44.096
G1 X143.714 Y-44.067
G1 X143.756 Y-44.065
G1 X143.798 Y-44.068
G1 X143.839 Y-44.074
G1 X144.183 Y-44.151
G1 X144.216 Y-44.160
G1 X144.249 Y-44.171
G1 X144.280 Y-44.186
G1 X144.650 Y-44.378
G1 X144.687 Y-44.400
G1 X144.722 Y-44.425
G1 X145.104 Y-44.743
G1 X145.142 Y-44.779
G1 X145.337 Y-44.990
G1 X145.362 Y-45.020
G1 X145.515 Y-45.222
G1 X145.543 Y-45.264
G1 X145.654 Y-45.456
G0 Z5.00
G0 X141.679 Y-52.661
G1 Z-1.000 F1000
G1 X141.638 Y-52.655
G1 X141.598 Y-52.644
G1 X141.559 Y-52.629
G1 X141.173 Y-52.458
G1 X141.142 Y-52.442
G1 X141.113 Y-52.424
G1 X141.085 Y-52.403
G1 X141.059 Y-52.380
G1 X140.750 Y-52.083
G1 X140.725 Y-52.058
G1 X140.703 Y-52.030
G1 X140.684 Y-52.000
G1 X140.667 Y-51.969
G1 X140.462 Y-51.546
G1 X140.446 Y-51.507
G1 X140.434 Y-51.466
G1 X140.426 Y-51.425
G1 X140.352 Y-50.874
G1 X140.349 Y-50.834
G1 X140.349 Y-50.795
G1 X140.354 Y-50.756
G1 X140.429 Y-50.301
G1 X140.436 Y-50.266
G1 X140.447 Y-50.231
G1 X140.460 Y-50.198
G1 X140.667 Y-49.750
G1 X140.686 Y-49.714
G1 X140.709 Y-49.681
G1 X141.022 Y-49.257
G1 X141.042 Y-49.232
G1 X141.065 Y-49.208
G1 X141.458 Y-48.825
G1 X141.501 Y-48.789
G1 X141.949 Y-48.462
G1 X141.997 Y-48.433
G1 X142.472 Y-48.179
G1 X142.501 Y-48.166
G1 X142.530 Y-48.154
G1 X143.007 Y-47.990
G1 X143.047 Y-47.979
G1 X143.087 Y-47.972
G1 X143.540 Y-47.915
G1 X143.578 Y-47.912
G1 X143.616 Y-47.912
G1 X143.654 Y-47.917
G1 X144.056 Y-47.982
G1 X144.095 Y-47.990
G1 X144.133 Y-48.002
G1 X144.170 Y-48.018
G1 X144.205 Y-48.037
G1 X144.531 Y-48.242
G1 X144.565 Y-48.265
G1 X144.596 Y-48.293
G1 X144.625 Y-48.323
G1 X144.650 Y-48.356
G1 X144.718 Y-48.457
G1 X144.736 Y-48.486
G1 X144.751 Y-48.516
G1 X144.763 Y-48.547
G1 X144.812 Y-48.685
G1 X144.822 Y-48.717
G1 X144.829 Y-48.749
G1 X144.859 Y-48.919
G1 X144.864 Y-48.966
G1 X144.875 Y-49.163
G1 X144.876 Y-49.198
G1 X144.868 Y-49.419
G1 X144.866 Y-49.448
G1 X144.841 Y-49.688
G1 X144.837 Y-49.712
G1 X144.794 Y-49.967
G1 X144.790 Y-49.989
G1 X144.730 Y-50.254
G1 X144.724 Y-50.275
G1 X144.647 Y-50.547
G1 X144.641 Y-50.567
G1 X144.547 Y-50.840
G1 X144.524 Y-50.894
G1 X144.234 Y-51.456
G1 X144.211 Y-51.494
G1 X144.184 Y-51.530
G1 X143.811 Y-51.972
G1 X143.780 Y-52.005
G1 X143.745 Y-52.034
G1 X143.317 Y-52.355
G1 X143.278 Y-52.380
G1 X143.236 Y-52.401
G1 X142.779 Y-52.601
G1 X142.748 Y-52.613
G1 X142.717 Y-52.622
G1 X142.685 Y-52.628
G1 X142.224 Y-52.705
G1 X142.188 Y-52.709
G1 X142.152 Y-52.711
G1 X142.116 Y-52.708
G1 X141.679 Y-52.661
G0 Z5.00
G0 X109.769 Y37.989
G1 Z-1.000 F1000
G1 X109.777 Y37.984
G1 X109.808 Y37.962
G1 X109.837 Y37.937
G1 X109.863 Y37.909
G1 X109.886 Y37.879
G1 X109.994 Y37.724
G1 X110.016 Y37.690
G1 X110.034 Y37.653
G1 X110.048 Y37.615
G1 X110.058 Y37.575
G1 X110.065 Y37.535
G1 X110.109 Y37.087
G1 X110.111 Y37.039
G1 X110.095 Y36.323
G1 X110.094 Y36.302
G1 X110.020 Y35.343
G1 X110.019 Y35.331
G1 X109.891 Y34.154
G1 X109.890 Y34.145
G1 X109.710 Y32.774
G1 X109.709 Y32.767
G1 X109.481 Y31.228
G1 X109.480 Y31.222
G1 X109.206 Y29.538
G1 X109.205 Y29.533
G1 X108.889 Y27.729
G1 X108.888 Y27.724
G1 X108.532 Y25.827
G1 X107.606 Y20.772
G1 X106.784 Y15.728
G1 X106.074 Y10.791
G1 X105.485 Y6.057
G1 X105.027 Y1.626
G1 X104.707 Y-2.405
G1 X104.536 Y-5.935
G1 X104.521 Y-8.862
G1 X104.669 Y-11.075
G1 X104.980 Y-12.474
G1 X105.171 Y-12.900
G1 X105.397 Y-13.313
G1 X105.645 Y-13.685
G1 X105.911 Y-14.015
G1 X106.190 Y-14.298
G1 X106.476 Y-14.533
G1 X106.766 Y-14.715
G1 X107.054 Y-14.846
G1 X107.335 Y-14.923
G1 X107.584 Y-14.947
G1 X108.246 Y-14.804
G1 X109.095 Y-14.359
G1 X110.108 Y-13.610
G1 X111.242 Y-12.585
G1 X112.468 Y-11.310
G1 X113.760 Y-9.811
G1 X115.096 Y-8.113
G1 X116.452 Y-6.241
G1 X117.805 Y-4.221
G1 X119.137 Y-2.072
G1 X119.931 Y-0.750
G1 X119.934 Y-0.745
G1 X120.596 Y0.321
G1 X120.603 Y0.331
G1 X121.148 Y1.151
G1 X121.162 Y1.171
G1 X121.606 Y1.758
G1 X121.638 Y1.796
G1 X121.997 Y2.165
G1 X122.025 Y2.191
G1 X122.055 Y2.214
G1 X122.087 Y2.234
G1 X122.376 Y2.397
G1 X122.409 Y2.413
G1 X122.443 Y2.427
G1 X122.478 Y2.437
G1 X122.514 Y2.444
G1 X122.551 Y2.447
G1 X122.587 Y2.448
G1 X122.624 Y2.445
G1 X122.859 Y2.414
G1 X122.898 Y2.407
G1 X122.935 Y2.396
G1 X122.972 Y2.382
G1 X123.007 Y2.364
G1 X123.040 Y2.343
G1 X123.071 Y2.318
G1 X123.099 Y2.291
G1 X123.296 Y2.081
G1 X123.324 Y2.048
G1 X123.347 Y2.013
G1 X123.367 Y1.976
G1 X123.542 Y1.599
G1 X123.561 Y1.551
G1 X123.728 Y1.025
G1 X123.845 Y0.686
G1 X123.989 Y0.378
G1 X124.162 Y0.091
G1 X124.359 Y-0.171
G1 X124.575 Y-0.402
G1 X124.801 Y-0.596
G1 X125.033 Y-0.751
G1 X125.263 Y-0.861
G1 X125.482 Y-0.927
G1 X125.682 Y-0.948
G1 X126.264 Y-0.869
G1 X126.896 Y-0.619
G1 X127.597 Y-0.171
G1 X128.371 Y0.492
G1 X129.221 Y1.384
G1 X130.152 Y2.514
G1 X131.170 Y3.891
G1 X132.283 Y5.526
G1 X133.498 Y7.427
G1 X134.826 Y9.606
G1 X135.432 Y10.616
G1 X135.433 Y10.618
G1 X136.018 Y11.578
G1 X136.019 Y11.581
G1 X136.573 Y12.477
G1 X136.575 Y12.479
G1 X137.090 Y13.298
G1 X137.092 Y13.301
G1 X137.559 Y14.030
G1 X137.562 Y14.034
G1 X137.973 Y14.660
G1 X137.977 Y14.666
G1 X138.325 Y15.175
G1 X138.331 Y15.184
G1 X138.606 Y15.564
G1 X138.620 Y15.583
G1 X138.814 Y15.820
G1 X138.844 Y15.853
G1 X138.877 Y15.882
G1 X138.981 Y15.964
G1 X139.014 Y15.987
G1 X139.049 Y16.007
G1 X139.085 Y16.023
G1 X139.123 Y16.035
G1 X139.163 Y16.044
G1 X139.202 Y16.049
G1 X139.242 Y16.049
G1 X139.282 Y16.046
G1 X139.322 Y16.038
G1 X139.360 Y16.027
G1 X139.397 Y16.012
G1 X139.433 Y15.993
G1 X139.466 Y15.971
G1 X139.497 Y15.946
G1 X139.525 Y15.917
G1 X139.551 Y15.886
G1 X139.573 Y15.853
G1 X139.619 Y15.775
G1 X139.637 Y15.740
G1 X139.652 Y15.703
G1 X139.664 Y15.664
G1 X139.671 Y15.625
G1 X139.701 Y15.400
G1 X139.704 Y15.363
G1 X139.719 Y15.003
G1 X139.719 Y14.987
G1 X139.719 Y14.505
G1 X139.719 Y14.495
G1 X139.703 Y13.903
G1 X139.703 Y13.896
G1 X139.673 Y13.207
G1 X139.673 Y13.201
G1 X139.629 Y12.427
G1 X139.629 Y12.422
G1 X139.572 Y11.575
G1 X139.572 Y11.571
G1 X139.501 Y10.664
G1 X139.501 Y10.660
G1 X139.417 Y9.708
G1 X139.279 Y7.797
G1 X139.221 Y6.036
G1 X139.240 Y4.436
G1 X139.333 Y3.011
G1 X139.498 Y1.779
G1 X139.727 Y0.756
G1 X140.013 Y-0.036
G1 X140.335 Y-0.575
G1 X140.654 Y-0.856
G1 X140.980 Y-0.942
G1 X141.088 Y-0.926
G1 X141.320 Y-0.843
G1 X141.628 Y-0.695
G1 X141.990 Y-0.488
G1 X142.392 Y-0.229
G1 X142.825 Y0.076
G1 X143.279 Y0.420
G1 X143.744 Y0.798
G1 X144.211 Y1.203
G1 X144.674 Y1.631
G1 X145.419 Y2.342
G1 X145.423 Y2.346
G1 X146.023 Y2.904
G1 X146.034 Y2.914
G1 X146.505 Y3.320
G1 X146.532 Y3.342
G1 X146.889 Y3.598
G1 X146.926 Y3.622
G1 X146.966 Y3.642
G1 X147.224 Y3.750
G1 X147.262 Y3.764
G1 X147.301 Y3.774
G1 X147.340 Y3.780
G1 X147.380 Y3.782
G1 X147.420 Y3.780
G1 X147.460 Y3.774
G1 X147.635 Y3.738
G1 X147.675 Y3.728
G1 X147.713 Y3.713
G1 X147.750 Y3.695
G1 X147.785 Y3.673
G1 X147.817 Y3.648
G1 X147.847 Y3.620
G1 X147.873 Y3.588
G1 X147.896 Y3.554
G1 X148.005 Y3.377
G1 X148.022 Y3.344
G1 X148.037 Y3.311
G1 X148.049 Y3.276
G1 X148.057 Y3.240
G1 X148.115 Y2.923
G1 X148.121 Y2.871
G1 X148.144 Y2.418
G1 X148.144 Y2.400
G1 X148.148 Y1.823
G1 X148.168 Y1.488
G1 X148.223 Y1.165
G1 X148.313 Y0.847
G1 X148.432 Y0.541
G1 X148.579 Y0.253
G1 X148.748 Y-0.008
G1 X148.935 Y-0.237
G1 X149.134 Y-0.428
G1 X149.338 Y-0.574
G1 X149.511 Y-0.660
G1 X150.032 Y-0.714
G1 X150.713 Y-0.509
G1 X151.567 Y-0.006
G1 X152.555 Y0.792
G1 X153.650 Y1.868
G1 X154.832 Y3.209
G1 X156.086 Y4.798
G1 X157.397 Y6.622
G1 X158.750 Y8.665
G1 X160.136 Y10.917
G1 X160.459 Y11.458
G1 X160.783 Y12.002
G1 X161.107 Y12.546
G1 X161.431 Y13.090
G1 X162.079 Y14.178
G1 X162.403 Y14.722
G1 X162.727 Y15.266
G1 X163.051 Y15.810
G1 X163.375 Y16.354
G1 X163.397 Y16.387
G1 X163.422 Y16.418
G1 X163.450 Y16.446
G1 X163.481 Y16.471
G1 X163.514 Y16.493
G1 X163.549 Y16.512
G1 X163.586 Y16.527
G1 X163.624 Y16.538
G1 X163.663 Y16.546
G1 X163.703 Y16.549
G1 X163.743 Y16.549
G1 X163.782 Y16.544
G1 X163.821 Y16.536
G1 X163.859 Y16.524
G1 X163.896 Y16.508
G1 X163.930 Y16.489
G1 X163.963 Y16.466
G1 X163.993 Y16.440
G1 X164.021 Y16.411
G1 X164.045 Y16.380
G1 X164.067 Y16.346
G1 X164.084 Y16.311
G1 X164.099 Y16.274
G1 X164.109 Y16.235
G1 X164.116 Y16.196
G1 X164.118 Y16.156
G1 X164.117 Y16.116
G1 X164.059 Y15.416
G1 X164.001 Y14.716
G1 X163.943 Y14.016
G1 X163.885 Y13.316
G1 X163.827 Y12.616
G1 X163.769 Y11.916
G1 X163.711 Y11.216
G1 X163.653 Y10.516
G1 X163.595 Y9.816
G1 X163.537 Y9.121
G1 X163.399 Y6.796
G1 X163.387 Y4.785
G1 X163.501 Y3.089
G1 X163.737 Y1.714
G1 X164.085 Y0.667
G1 X164.524 Y-0.048
G1 X165.030 Y-0.456
G1 X165.627 Y-0.613
G1 X166.377 Y-0.519
G1 X167.297 Y-0.137
G1 X168.040 Y0.370
G1 X168.859 Y1.125
G1 X169.707 Y2.069
G1 X170.542 Y3.143
G1 X171.323 Y4.285
G1 X172.010 Y5.436
G1 X172.566 Y6.534
G1 X172.953 Y7.513
G1 X173.134 Y8.289
G1 X173.104 Y8.791
G1 X173.071 Y8.772
G1 X172.932 Y8.650
G1 X172.760 Y8.455
G1 X172.567 Y8.190
G1 X172.360 Y7.859
G1 X172.139 Y7.457
G1 X172.137 Y7.454
G1 X171.595 Y6.487
G1 X171.583 Y6.467
G1 X170.955 Y5.488
G1 X170.944 Y5.472
G1 X170.256 Y4.507
G1 X170.245 Y4.493
G1 X169.521 Y3.569
G1 X169.509 Y3.555
G1 X168.773 Y2.700
G1 X168.759 Y2.685
G1 X168.035 Y1.925
G1 X168.018 Y1.907
G1 X167.330 Y1.269
G1 X167.304 Y1.247
G1 X166.678 Y0.758
G1 X166.632 Y0.727
G1 X166.091 Y0.414
G1 X166.058 Y0.397
G1 X166.024 Y0.383
G1 X165.989 Y0.372
G1 X165.557 Y0.262
G1 X165.519 Y0.254
G1 X165.481 Y0.250
G1 X165.442 Y0.250
G1 X165.403 Y0.253
G1 X165.365 Y0.260
G1 X165.328 Y0.271
G1 X165.292 Y0.286
G1 X165.257 Y0.304
G1 X165.225 Y0.325
G1 X165.074 Y0.433
G1 X165.046 Y0.456
G1 X165.019 Y0.481
G1 X164.995 Y0.509
G1 X164.974 Y0.538
G1 X164.955 Y0.570
G1 X164.939 Y0.603
G1 X164.807 Y0.918
G1 X164.794 Y0.951
G1 X164.785 Y0.986
G1 X164.672 Y1.493
G1 X164.666 Y1.527
G1 X164.572 Y2.212
G1 X164.570 Y2.232
G1 X164.497 Y3.082
G1 X164.496 Y3.096
G1 X164.446 Y4.094
G1 X164.446 Y4.105
G1 X164.419 Y5.238
G1 X164.419 Y5.246
G1 X164.416 Y6.499
G1 X164.416 Y6.507
G1 X164.439 Y7.866
G1 X164.439 Y7.873
G1 X164.489 Y9.323
G1 X164.543 Y10.895
G1 X164.568 Y12.329
G1 X164.566 Y13.621
G1 X164.535 Y14.764
G1 X164.478 Y15.753
G1 X164.396 Y16.578
G1 X164.290 Y17.230
G1 X164.168 Y17.690
G1 X164.082 Y17.872
G1 X163.886 Y17.729
G1 X163.482 Y17.331
G1 X162.978 Y16.752
G1 X162.396 Y16.017
G1 X161.751 Y15.142
G1 X161.057 Y14.146
G1 X160.326 Y13.046
G1 X159.570 Y11.856
G1 X158.801 Y10.592
G1 X158.024 Y9.302
G1 X158.021 Y9.298
G1 X157.245 Y8.040
G1 X157.243 Y8.036
G1 X156.481 Y6.831
G1 X156.479 Y6.827
G1 X155.745 Y5.693
G1 X155.742 Y5.689
G1 X155.048 Y4.647
G1 X155.044 Y4.642
G1 X154.403 Y3.709
G1 X154.399 Y3.703
G1 X153.824 Y2.900
G1 X153.817 Y2.891
G1 X153.321 Y2.236
G1 X153.310 Y2.222
G1 X152.906 Y1.735
G1 X152.881 Y1.708
G1 X152.582 Y1.407
G1 X152.557 Y1.384
G1 X152.531 Y1.364
G1 X151.842 Y0.872
G1 X151.809 Y0.851
G1 X151.773 Y0.833
G1 X151.162 Y0.560
G1 X151.124 Y0.545
G1 X151.084 Y0.534
G1 X151.044 Y0.527
G1 X150.515 Y0.468
G1 X150.471 Y0.465
G1 X150.428 Y0.468
G1 X150.385 Y0.475
G1 X150.343 Y0.486
G1 X149.900 Y0.634
G1 X149.865 Y0.648
G1 X149.833 Y0.664
G1 X149.801 Y0.683
G1 X149.772 Y0.705
G1 X149.745 Y0.729
G1 X149.391 Y1.080
G1 X149.367 Y1.106
G1 X149.346 Y1.133
G1 X149.327 Y1.162
G1 X149.311 Y1.192
G1 X149.050 Y1.740
G1 X149.033 Y1.782
G1 X149.021 Y1.825
G1 X148.857 Y2.564
G1 X148.852 Y2.594
G1 X148.848 Y2.624
G1 X148.786 Y3.548
G1 X148.785 Y3.591
G1 X148.827 Y4.695
G1 X148.830 Y4.727
G1 X148.981 Y6.006
G1 X148.982 Y6.015
G1 X149.153 Y7.229
G1 X149.246 Y8.136
G1 X149.246 Y8.610
G1 X149.150 Y8.541
G1 X148.616 Y7.973
G1 X147.869 Y7.051
G1 X146.905 Y5.782
G1 X145.710 Y4.162
G1 X145.708 Y4.159
G1 X145.254 Y3.554
G1 X145.248 Y3.546
G1 X144.795 Y2.971
G1 X144.789 Y2.964
G1 X144.344 Y2.426
G1 X144.338 Y2.418
G1 X143.910 Y1.927
G1 X143.902 Y1.918
G1 X143.499 Y1.481
G1 X143.489 Y1.470
G1 X143.117 Y1.095
G1 X143.103 Y1.082
G1 X142.770 Y0.775
G1 X142.748 Y0.757
G1 X142.462 Y0.529
G1 X142.422 Y0.501
G1 X142.189 Y0.358
G1 X142.157 Y0.341
G1 X142.125 Y0.326
G1 X142.090 Y0.314
G1 X141.919 Y0.265
G1 X141.880 Y0.256
G1 X141.840 Y0.251
G1 X141.800 Y0.250
G1 X141.760 Y0.252
G1 X141.720 Y0.259
G1 X141.277 Y0.359
G1 X141.235 Y0.371
G1 X141.194 Y0.388
G1 X141.156 Y0.408
G1 X141.120 Y0.433
G1 X140.738 Y0.728
G1 X140.705 Y0.756
G1 X140.675 Y0.788
G1 X140.649 Y0.823
G1 X140.330 Y1.304
G1 X140.308 Y1.341
G1 X140.290 Y1.381
G1 X140.035 Y2.038
G1 X140.018 Y2.093
G1 X139.830 Y2.919
G1 X139.823 Y2.959
G1 X139.701 Y3.944
G1 X139.699 Y3.975
G1 X139.647 Y5.110
G1 X139.646 Y5.134
G1 X139.664 Y6.411
G1 X139.665 Y6.431
G1 X139.755 Y7.841
G1 X139.757 Y7.858
G1 X139.921 Y9.392
G1 X139.922 Y9.402
G1 X140.081 Y10.593
G1 X140.082 Y10.604
G1 X140.245 Y11.612
G1 X140.249 Y11.629
G1 X140.422 Y12.467
G1 X140.429 Y12.494
G1 X140.619 Y13.176
G1 X140.632 Y13.216
G1 X140.847 Y13.756
G1 X140.859 Y13.785
G1 X140.874 Y13.812
G1 X141.119 Y14.224
G1 X141.143 Y14.261
G1 X141.172 Y14.294
G1 X141.453 Y14.591
G1 X141.479 Y14.616
G1 X141.507 Y14.638
G1 X141.537 Y14.658
G1 X141.860 Y14.853
G1 X141.891 Y14.870
G1 X141.923 Y14.884
G1 X141.956 Y14.895
G1 X142.329 Y15.001
G1 X142.369 Y15.011
G1 X142.409 Y15.016
G1 X142.838 Y15.048
G1 X142.845 Y15.049
G1 X143.184 Y15.068
G1 X143.447 Y15.120
G1 X143.661 Y15.202
G1 X143.833 Y15.311
G1 X143.975 Y15.449
G1 X144.094 Y15.628
G1 X144.191 Y15.858
G1 X144.264 Y16.144
G1 X144.307 Y16.490
G1 X144.318 Y16.901
G1 X144.308 Y17.463
G1 X144.300 Y17.664
G1 X144.208 Y17.514
G1 X143.924 Y17.028
G1 X143.923 Y17.026
G1 X143.627 Y16.524
G1 X143.620 Y16.512
G1 X143.371 Y16.121
G1 X143.350 Y16.092
G1 X143.135 Y15.812
G1 X143.108 Y15.782
G1 X143.079 Y15.754
G1 X142.883 Y15.584
G1 X142.851 Y15.559
G1 X142.816 Y15.537
G1 X142.779 Y15.519
G1 X142.740 Y15.505
G1 X142.551 Y15.446
G1 X142.515 Y15.437
G1 X142.478 Y15.431
G1 X142.441 Y15.428
G1 X142.404 Y15.429
G1 X142.368 Y15.433
G1 X142.332 Y15.441
G1 X142.134 Y15.492
G1 X142.098 Y15.504
G1 X142.063 Y15.518
G1 X142.029 Y15.536
G1 X141.997 Y15.558
G1 X141.779 Y15.719
G1 X141.751 Y15.742
G1 X141.724 Y15.767
G1 X141.471 Y16.038
G1 X141.450 Y16.062
G1 X141.149 Y16.442
G1 X141.141 Y16.452
G1 X140.781 Y16.936
G1 X140.317 Y17.520
G1 X139.949 Y17.845
G1 X139.677 Y17.932
G1 X139.357 Y17.844
G1 X138.852 Y17.444
G1 X138.164 Y16.641
G1 X137.289 Y15.408
G1 X136.201 Y13.714
G1 X134.865 Y11.526
G1 X133.242 Y8.805
G1 X133.240 Y8.802
G1 X132.421 Y7.455
G1 X132.416 Y7.447
G1 X131.609 Y6.187
G1 X131.604 Y6.179
G1 X130.818 Y5.016
G1 X130.812 Y5.007
G1 X130.057 Y3.955
G1 X130.049 Y3.944
G1 X129.333 Y3.012
G1 X129.323 Y2.999
G1 X128.656 Y2.200
G1 X128.642 Y2.184
G1 X128.032 Y1.528
G1 X128.011 Y1.506
G1 X127.468 Y1.005
G1 X127.429 Y0.974
G1 X126.963 Y0.640
G1 X126.923 Y0.615
G1 X126.881 Y0.595
G1 X126.500 Y0.439
G1 X126.456 Y0.424
G1 X126.411 Y0.414
G1 X125.944 Y0.341
G1 X125.893 Y0.336
G1 X125.516 Y0.325
G1 X125.481 Y0.326
G1 X125.446 Y0.330
G1 X125.412 Y0.336
G1 X125.119 Y0.406
G1 X125.078 Y0.419
G1 X125.038 Y0.436
G1 X125.000 Y0.456
G1 X124.964 Y0.481
G1 X124.751 Y0.650
G1 X124.724 Y0.674
G1 X124.699 Y0.699
G1 X124.676 Y0.727
G1 X124.657 Y0.757
G1 X124.639 Y0.788
G1 X124.499 Y1.073
G1 X124.484 Y1.108
G1 X124.472 Y1.145
G1 X124.464 Y1.182
G1 X124.392 Y1.602
G1 X124.388 Y1.632
G1 X124.387 Y1.663
G1 X124.378 Y2.235
G1 X124.379 Y2.268
G1 X124.428 Y3.010
G1 X124.430 Y3.027
G1 X124.532 Y3.957
G1 X124.533 Y3.965
G1 X124.682 Y5.100
G1 X124.773 Y5.837
G1 X124.840 Y6.531
G1 X124.882 Y7.178
G1 X124.900 Y7.766
G1 X124.895 Y8.284
G1 X124.867 Y8.719
G1 X124.820 Y9.054
G1 X124.820 Y9.056
G1 X124.735 Y8.966
G1 X124.358 Y8.486
G1 X123.888 Y7.826
G1 X123.341 Y7.008
G1 X122.728 Y6.052
G1 X122.064 Y4.976
G1 X121.358 Y3.797
G1 X120.622 Y2.534
G1 X119.866 Y1.202
G1 X119.866 Y1.201
G1 X119.076 Y-0.185
G1 X119.072 Y-0.191
G1 X118.231 Y-1.611
G1 X118.227 Y-1.616
G1 X117.352 Y-3.042
G1 X117.349 Y-3.047
G1 X116.456 Y-4.454
G1 X116.453 Y-4.459
G1 X115.561 Y-5.822
G1 X115.557 Y-5.827
G1 X114.682 Y-7.120
G1 X114.678 Y-7.126
G1 X113.838 Y-8.322
G1 X113.833 Y-8.329
G1 X113.044 Y-9.404
G1 X113.038 Y-9.413
G1 X112.318 Y-10.341
G1 X112.309 Y-10.353
G1 X111.675 Y-11.108
G1 X111.665 Y-11.119
G1 X110.841 Y-12.032
G1 X110.834 Y-12.039
G1 X110.127 Y-12.784
G1 X110.116 Y-12.796
G1 X109.514 Y-13.382
G1 X109.493 Y-13.400
G1 X108.982 Y-13.834
G1 X108.944 Y-13.862
G1 X108.510 Y-14.151
G1 X108.476 Y-14.172
G1 X108.440 Y-14.188
G1 X108.069 Y-14.340
G1 X108.028 Y-14.354
G1 X107.987 Y-14.364
G1 X107.944 Y-14.369
G1 X107.623 Y-14.390
G1 X107.583 Y-14.391
G1 X107.542 Y-14.387
G1 X107.502 Y-14.380
G1 X107.463 Y-14.368
G1 X107.178 Y-14.267
G1 X107.146 Y-14.254
G1 X107.115 Y-14.238
G1 X107.085 Y-14.220
G1 X107.057 Y-14.199
G1 X106.796 Y-13.983
G1 X106.764 Y-13.953
G1 X106.735 Y-13.920
G1 X106.483 Y-13.596
G1 X106.461 Y-13.566
G1 X106.442 Y-13.533
G1 X106.427 Y-13.499
G1 X105.848 Y-12.046
G1 X105.834 Y-12.003
G1 X105.824 Y-11.959
G1 X105.477 Y-9.698
G1 X105.472 Y-9.653
G1 X105.350 Y-6.643
G1 X105.350 Y-6.617
G1 X105.448 Y-2.916
G1 X105.449 Y-2.898
G1 X105.762 Y1.433
G1 X105.763 Y1.447
G1 X106.285 Y6.351
G1 X106.287 Y6.361
G1 X107.013 Y11.779
G1 X107.014 Y11.788
G1 X107.939 Y17.660
G1 X107.941 Y17.668
G1 X109.059 Y23.935
G1 X109.060 Y23.943
G1 X110.366 Y30.547
G1 X110.366 Y30.548
G1 X110.998 Y33.683
G1 X111.482 Y36.294
G1 X111.819 Y38.395
G1 X112.007 Y39.996
G1 X112.049 Y41.094
G1 X111.976 Y41.569
G1 X111.924 Y41.545
G1 X111.444 Y41.030
G1 X110.761 Y40.067
G1 X110.503 Y39.657
G1 X110.279 Y39.267
G1 X110.093 Y38.906
G1 X109.946 Y38.581
G1 X109.842 Y38.302
G1 X109.781 Y38.081
G1 X109.769 Y37.989
G0 Z5.00
G0 X150.256 Y-35.346
G1 Z-1.000 F1000
G1 X150.469 Y-35.217
G1 X150.822 Y-34.967
G1 X151.227 Y-34.647
G1 X151.675 Y-34.264
G1 X152.157 Y-33.823
G1 X152.665 Y-33.328
G1 X153.165 Y-32.811
G1 X153.623 Y-32.306
G1 X154.032 Y-31.819
G1 X154.388 Y-31.361
G1 X154.685 Y-30.941
G1 X154.914 Y-30.570
G1 X155.071 Y-30.263
G1 X155.106 Y-30.165
G1 X154.805 Y-30.296
G1 X154.166 Y-30.740
G1 X153.416 Y-31.382
G1 X152.626 Y-32.155
G1 X151.857 Y-32.998
G1 X151.167 Y-33.850
G1 X150.616 Y-34.646
G1 X150.265 Y-35.308
G1 X150.256 Y-35.346
G0 Z5.00
G0 X139.895 Y-40.921
G1 Z-1.000 F1000
G1 X140.245 Y-40.930
G1 X140.562 Y-40.916
G1 X140.903 Y-40.881
G1 X141.260 Y-40.826
G1 X141.624 Y-40.752
G1 X141.988 Y-40.662
G1 X142.342 Y-40.558
G1 X142.680 Y-40.442
G1 X142.992 Y-40.316
G1 X143.270 Y-40.185
G1 X143.521 Y-40.043
G1 X143.523 Y-40.042
G1 X143.801 Y-39.886
G1 X143.841 Y-39.867
G1 X144.122 Y-39.748
G1 X144.166 Y-39.732
G1 X144.448 Y-39.650
G1 X144.496 Y-39.639
G1 X144.778 Y-39.593
G1 X144.829 Y-39.588
G1 X145.108 Y-39.580
G1 X145.162 Y-39.581
G1 X145.437 Y-39.610
G1 X145.490 Y-39.619
G1 X145.759 Y-39.684
G1 X145.811 Y-39.700
G1 X146.072 Y-39.802
G1 X146.120 Y-39.825
G1 X146.372 Y-39.964
G1 X146.415 Y-39.992
G1 X146.653 Y-40.166
G1 X146.853 Y-40.309
G1 X147.071 Y-40.426
G1 X147.321 Y-40.529
G1 X147.597 Y-40.614
G1 X147.889 Y-40.679
G1 X148.191 Y-40.722
G1 X148.496 Y-40.742
G1 X148.795 Y-40.737
G1 X149.080 Y-40.708
G1 X149.354 Y-40.652
G1 X149.750 Y-40.540
G1 X149.777 Y-40.531
G1 X149.399 Y-40.394
G1 X148.873 Y-40.220
G1 X148.858 Y-40.215
G1 X148.430 Y-40.054
G1 X148.390 Y-40.036
G1 X148.007 Y-39.842
G1 X147.965 Y-39.817
G1 X147.627 Y-39.589
G1 X147.584 Y-39.556
G1 X147.292 Y-39.295
G1 X147.252 Y-39.254
G1 X147.005 Y-38.959
G1 X146.971 Y-38.912
G1 X146.768 Y-38.584
G1 X146.742 Y-38.534
G1 X146.584 Y-38.173
G1 X146.566 Y-38.123
G1 X146.454 Y-37.728
G1 X146.443 Y-37.681
G1 X146.376 Y-37.253
G1 X146.371 Y-37.211
G1 X146.349 Y-36.750
G1 X146.349 Y-36.744
G1 X146.336 Y-36.373
G1 X146.301 Y-36.036
G1 X146.245 Y-35.725
G1 X146.172 Y-35.446
G1 X146.086 Y-35.206
G1 X145.991 Y-35.012
G1 X145.896 Y-34.872
G1 X145.816 Y-34.791
G1 X145.766 Y-34.761
G1 X145.734 Y-34.755
G1 X145.683 Y-34.762
G1 X145.613 Y-34.788
G1 X145.537 Y-34.837
G1 X145.456 Y-34.913
G1 X145.376 Y-35.016
G1 X145.302 Y-35.146
G1 X145.239 Y-35.299
G1 X145.191 Y-35.472
G1 X145.160 Y-35.660
G1 X145.148 Y-35.882
G1 X145.144 Y-35.922
G1 X145.101 Y-36.195
G1 X145.091 Y-36.239
G1 X145.077 Y-36.282
G1 X144.954 Y-36.591
G1 X144.942 Y-36.618
G1 X144.928 Y-36.644
G1 X144.730 Y-36.983
G1 X144.707 Y-37.018
G1 X144.442 Y-37.378
G1 X144.422 Y-37.404
G1 X144.097 Y-37.779
G1 X144.079 Y-37.798
G1 X143.700 Y-38.181
G1 X143.683 Y-38.197
G1 X143.257 Y-38.580
G1 X143.241 Y-38.594
G1 X142.775 Y-38.970
G1 X142.758 Y-38.983
G1 X142.259 Y-39.344
G1 X142.242 Y-39.356
G1 X141.716 Y-39.696
G1 X141.709 Y-39.700
G1 X141.014 Y-40.132
G1 X140.461 Y-40.495
G1 X140.049 Y-40.792
G1 X139.895 Y-40.921
G0 Z5.00
G0 X-0.354 Y0.186
G1 Z-1.000 F1000
G1 X-0.352 Y0.190
G1 X0.307 Y1.411
G1 X0.309 Y1.415
G1 X0.954 Y2.583
G1 X0.956 Y2.587
G1 X1.577 Y3.682
G1 X1.579 Y3.686
G1 X2.162 Y4.687
G1 X2.165 Y4.692
G1 X2.700 Y5.580
G1 X2.704 Y5.586
G1 X3.179 Y6.340
G1 X3.185 Y6.350
G1 X3.588 Y6.948
G1 X3.600 Y6.966
G1 X3.919 Y7.390
G1 X3.932 Y7.407
G1 X4.361 Y7.917
G1 X4.372 Y7.929
G1 X4.715 Y8.305
G1 X4.749 Y8.337
G1 X5.012 Y8.565
G1 X5.041 Y8.588
G1 X5.073 Y8.608
G1 X5.106 Y8.625
G1 X5.140 Y8.639
G1 X5.329 Y8.706
G1 X5.366 Y8.717
G1 X5.404 Y8.725
G1 X5.443 Y8.728
G1 X5.482 Y8.728
G1 X5.520 Y8.725
G1 X5.558 Y8.717
G1 X5.595 Y8.706
G1 X5.631 Y8.692
G1 X5.665 Y8.674
G1 X5.698 Y8.652
G1 X5.728 Y8.628
G1 X5.849 Y8.521
G1 X5.875 Y8.496
G1 X5.899 Y8.467
G1 X5.921 Y8.437
G1 X5.939 Y8.405
G1 X5.955 Y8.371
G1 X5.967 Y8.336
G1 X5.976 Y8.300
G1 X6.034 Y8.006
G1 X6.040 Y7.968
G1 X6.042 Y7.930
G1 X6.043 Y7.437
G1 X6.042 Y7.408
G1 X5.994 Y6.702
G1 X5.993 Y6.690
G1 X5.899 Y5.759
G1 X5.898 Y5.754
G1 X5.766 Y4.588
G1 X5.695 Y3.848
G1 X5.653 Y3.111
G1 X5.638 Y2.388
G1 X5.649 Y1.689
G1 X5.686 Y1.030
G1 X5.747 Y0.425
G1 X5.829 Y-0.114
G1 X5.931 Y-0.568
G1 X6.047 Y-0.919
G1 X6.168 Y-1.156
G1 X6.360 Y-1.406
G1 X6.523 Y-1.539
G1 X6.656 Y-1.585
G1 X6.826 Y-1.572
G1 X7.096 Y-1.461
G1 X7.470 Y-1.212
G1 X7.943 Y-0.812
G1 X8.513 Y-0.257
G1 X9.189 Y0.457
G1 X9.980 Y1.336
G1 X10.326 Y1.726
G1 X10.673 Y2.117
G1 X11.020 Y2.508
G1 X11.367 Y2.899
G1 X12.061 Y3.681
G1 X12.408 Y4.072
G1 X12.755 Y4.463
G1 X13.102 Y4.854
G1 X13.449 Y5.245
G1 X13.476 Y5.273
G1 X13.506 Y5.297
G1 X13.538 Y5.319
G1 X13.571 Y5.338
G1 X13.607 Y5.354
G1 X13.644 Y5.365
G1 X13.681 Y5.374
G1 X13.720 Y5.378
G1 X13.758 Y5.379
G1 X13.797 Y5.376
G1 X13.835 Y5.370
G1 X13.872 Y5.360
G1 X13.908 Y5.346
G1 X13.943 Y5.329
G1 X13.976 Y5.309
G1 X14.006 Y5.285
G1 X14.035 Y5.259
G1 X14.060 Y5.230
G1 X14.083 Y5.199
G1 X14.103 Y5.165
G1 X14.119 Y5.130
G1 X14.132 Y5.094
G1 X14.141 Y5.056
G1 X14.147 Y5.018
G1 X14.148 Y4.979
G1 X14.148 Y1.386
G1 X14.195 Y-0.061
G1 X14.329 Y-1.406
G1 X14.544 Y-2.639
G1 X14.833 Y-3.747
G1 X15.188 Y-4.711
G1 X15.599 Y-5.518
G1 X16.052 Y-6.150
G1 X16.532 Y-6.597
G1 X17.024 Y-6.859
G1 X17.535 Y-6.946
G1 X17.777 Y-6.913
G1 X18.131 Y-6.797
G1 X18.565 Y-6.598
G1 X19.059 Y-6.323
G1 X19.595 Y-5.982
G1 X20.162 Y-5.582
G1 X20.746 Y-5.130
G1 X21.334 Y-4.636
G1 X21.917 Y-4.107
G1 X22.485 Y-3.548
G1 X23.360 Y-2.653
G1 X23.365 Y-2.648
G1 X24.085 Y-1.937
G1 X24.097 Y-1.926
G1 X24.681 Y-1.392
G1 X24.706 Y-1.371
G1 X25.174 Y-1.009
G1 X25.201 Y-0.990
G1 X25.230 Y-0.973
G1 X25.603 Y-0.774
G1 X25.634 Y-0.759
G1 X25.667 Y-0.747
G1 X25.700 Y-0.737
G1 X25.735 Y-0.731
G1 X26.032 Y-0.688
G1 X26.069 Y-0.685
G1 X26.106 Y-0.685
G1 X26.143 Y-0.688
G1 X26.179 Y-0.695
G1 X26.215 Y-0.705
G1 X26.249 Y-0.718
G1 X26.492 Y-0.825
G1 X26.525 Y-0.841
G1 X26.556 Y-0.860
G1 X26.585 Y-0.882
G1 X26.612 Y-0.907
G1 X26.637 Y-0.933
G1 X26.846 Y-1.182
G1 X26.873 Y-1.218
G1 X26.896 Y-1.257
G1 X27.092 Y-1.639
G1 X27.107 Y-1.674
G1 X27.307 Y-2.175
G1 X27.439 Y-2.472
G1 X27.602 Y-2.741
G1 X27.797 Y-2.996
G1 X28.020 Y-3.230
G1 X28.265 Y-3.439
G1 X28.526 Y-3.617
G1 X28.794 Y-3.760
G1 X29.064 Y-3.864
G1 X29.327 Y-3.928
G1 X29.566 Y-3.948
G1 X30.262 Y-3.846
G1 X31.187 Y-3.535
G1 X32.302 Y-3.027
G1 X33.564 Y-2.344
G1 X34.934 Y-1.506
G1 X36.378 Y-0.536
G1 X37.862 Y0.544
G1 X39.353 Y1.714
G1 X40.817 Y2.953
G1 X42.226 Y4.242
G1 X42.548 Y4.548
G1 X42.873 Y4.857
G1 X43.198 Y5.166
G1 X43.523 Y5.475
G1 X44.173 Y6.093
G1 X44.498 Y6.402
G1 X44.823 Y6.711
G1 X45.148 Y7.020
G1 X45.473 Y7.329
G1 X45.502 Y7.355
G1 X45.534 Y7.377
G1 X45.568 Y7.396
G1 X45.603 Y7.412
G1 X45.640 Y7.424
G1 X45.678 Y7.433
G1 X45.716 Y7.438
G1 X45.755 Y7.439
G1 X45.794 Y7.437
G1 X45.832 Y7.431
G1 X45.870 Y7.421
G1 X45.906 Y7.407
G1 X45.941 Y7.390
G1 X45.974 Y7.370
G1 X46.005 Y7.346
G1 X46.034 Y7.320
G1 X46.059 Y7.291
G1 X46.082 Y7.260
G1 X46.102 Y7.226
G1 X46.119 Y7.191
G1 X46.132 Y7.154
G1 X46.141 Y7.117
G1 X46.147 Y7.078
G1 X46.148 Y7.039
G1 X46.148 Y3.320
G1 X46.210 Y2.110
G1 X46.384 Y1.119
G1 X46.656 Y0.347
G1 X47.003 Y-0.204
G1 X47.402 Y-0.547
G1 X47.856 Y-0.711
G1 X48.397 Y-0.707
G1 X49.046 Y-0.506
G1 X49.793 Y-0.083
G1 X50.621 Y0.578
G1 X50.983 Y0.941
G1 X51.439 Y1.466
G1 X51.970 Y2.133
G1 X52.562 Y2.920
G1 X53.200 Y3.807
G1 X53.871 Y4.777
G1 X54.562 Y5.810
G1 X55.259 Y6.887
G1 X55.951 Y7.991
G1 X56.626 Y9.106
G1 X57.276 Y10.195
G1 X57.277 Y10.197
G1 X57.904 Y11.233
G1 X57.905 Y11.235
G1 X58.499 Y12.203
G1 X58.500 Y12.205
G1 X59.051 Y13.090
G1 X59.053 Y13.092
G1 X59.552 Y13.880
G1 X59.554 Y13.883
G1 X59.992 Y14.559
G1 X59.995 Y14.564
G1 X60.364 Y15.115
G1 X60.369 Y15.123
G1 X60.658 Y15.534
G1 X60.670 Y15.550
G1 X60.870 Y15.807
G1 X60.896 Y15.836
G1 X60.924 Y15.863
G1 X61.027 Y15.952
G1 X61.058 Y15.976
G1 X61.091 Y15.997
G1 X61.126 Y16.015
G1 X61.163 Y16.029
G1 X61.200 Y16.040
G1 X61.239 Y16.046
G1 X61.278 Y16.049
G1 X61.317 Y16.048
G1 X61.356 Y16.044
G1 X61.394 Y16.035
G1 X61.432 Y16.023
G1 X61.468 Y16.007
G1 X61.502 Y15.988
G1 X61.534 Y15.965
G1 X61.564 Y15.940
G1 X61.591 Y15.911
G1 X61.615 Y15.881
G1 X61.636 Y15.848
G1 X61.654 Y15.813
G1 X61.696 Y15.717
G1 X61.712 Y15.677
G1 X61.723 Y15.635
G1 X61.729 Y15.592
G1 X61.756 Y15.315
G1 X61.757 Y15.287
G1 X61.768 Y14.845
G1 X61.768 Y14.832
G1 X61.764 Y14.239
G1 X61.764 Y14.232
G1 X61.745 Y13.504
G1 X61.744 Y13.499
G1 X61.711 Y12.651
G1 X61.711 Y12.647
G1 X61.664 Y11.694
G1 X61.664 Y11.691
G1 X61.604 Y10.649
G1 X61.604 Y10.646
G1 X61.532 Y9.529
G1 X61.532 Y9.526
G1 X61.448 Y8.354
G1 X61.326 Y6.207
G1 X61.313 Y4.360
G1 X61.411 Y2.809
G1 X61.617 Y1.552
G1 X61.926 Y0.592
G1 X62.320 Y-0.076
G1 X62.783 Y-0.479
G1 X63.336 Y-0.669
G1 X64.033 Y-0.656
G1 X64.877 Y-0.420
G1 X65.481 Y-0.051
G1 X66.246 Y0.655
G1 X67.107 Y1.625
G1 X67.999 Y2.777
G1 X68.869 Y4.028
G1 X69.664 Y5.301
G1 X70.332 Y6.516
